<?xml version="1.0" encoding="UTF-8"?>
<map version="1.10" tiledversion="1.12.1" orientation="orthogonal" renderorder="right-down" width="60" height="60" tilewidth="32" tileheight="32" infinite="0" nextlayerid="27" nextobjectid="25">
 <tileset firstgid="1" source="../tilesets/town-32.tsx"/>
 <layer id="20" name="ground" width="60" height="60">
  <data encoding="csv">
518,517,517,517,518,517,517,517,517,517,517,518,517,517,517,517,517,517,517,518,517,517,517,517,517,517,517,517,515,515,515,515,517,517,517,517,517,517,517,517,517,517,517,517,517,517,518,517,518,518,518,517,517,517,517,517,517,517,517,517,
517,518,517,518,518,518,518,517,517,518,518,518,518,517,517,517,517,518,518,517,518,518,517,517,517,517,517,517,515,515,515,515,518,517,517,517,517,517,517,517,517,517,517,517,517,517,518,518,518,518,517,517,517,517,517,517,517,517,517,517,
518,310,310,310,517,517,310,310,310,517,518,310,310,310,517,517,310,310,310,517,517,310,310,310,517,517,310,310,515,515,515,515,310,310,517,517,310,310,310,517,517,310,310,310,517,518,310,310,310,518,517,310,310,310,517,518,310,310,310,517,
517,309,310,311,517,518,309,310,311,518,517,309,310,311,518,517,309,310,311,518,518,309,310,311,517,517,309,310,515,515,515,515,310,311,517,517,309,310,311,517,517,309,310,311,518,517,309,310,311,517,517,309,310,311,518,517,309,310,311,517,
517,309,318,311,518,518,309,318,311,518,518,309,318,311,517,517,309,318,311,518,518,309,324,311,517,517,309,318,515,515,515,515,324,311,517,517,309,318,311,518,518,309,318,311,518,518,309,318,311,517,517,309,318,311,518,517,309,318,311,517,
316,317,318,319,320,316,317,318,319,320,316,317,318,319,320,316,317,324,319,320,316,317,318,319,320,316,317,324,515,515,515,515,318,319,320,316,317,318,319,320,316,317,318,319,320,316,317,318,319,320,316,317,318,319,320,316,317,324,319,320,
517,517,518,517,518,589,641,639,639,589,518,518,518,517,517,518,518,518,518,518,518,518,518,518,518,517,518,517,587,515,515,581,517,517,517,518,518,517,517,517,518,517,517,518,517,518,517,518,517,517,517,517,517,517,517,518,517,517,517,517,
517,517,518,517,517,589,641,639,639,589,517,518,518,517,517,517,518,518,518,518,518,517,518,518,517,517,518,518,587,515,515,581,517,517,517,518,517,517,517,517,517,517,517,517,518,517,517,518,518,517,517,517,517,517,517,517,517,517,517,517,
517,518,518,517,518,589,640,639,639,589,518,518,518,517,517,517,517,517,517,518,518,517,518,517,517,518,518,518,587,515,515,581,517,517,517,517,517,517,517,518,518,518,517,517,517,517,518,518,517,518,517,517,517,517,517,517,517,517,518,517,
517,517,517,518,517,589,639,640,639,589,518,518,55,55,55,55,517,518,517,517,517,518,517,517,517,518,518,518,587,515,515,581,517,517,517,517,517,517,517,518,518,518,517,518,517,518,518,518,518,518,517,517,517,517,517,517,518,518,517,518,
517,517,517,517,517,589,640,642,640,589,518,517,55,55,55,55,518,517,518,517,55,55,55,55,517,517,518,517,587,515,515,581,517,517,517,517,517,517,518,518,518,518,518,518,518,517,518,518,518,518,517,518,517,517,517,517,518,518,518,518,
517,517,517,518,517,589,639,641,642,589,518,517,55,82,82,55,517,518,517,517,55,55,55,55,517,517,517,517,587,515,515,581,517,517,517,517,517,517,517,518,518,518,518,517,518,507,507,507,507,507,507,507,507,507,507,507,518,518,518,518,
517,517,518,518,518,589,639,639,639,589,517,517,55,55,55,55,517,518,518,518,55,82,82,55,517,517,517,517,587,515,515,581,517,517,517,518,518,518,517,518,517,518,518,518,517,507,507,507,507,507,507,507,507,507,507,507,518,518,518,518,
517,517,517,518,517,589,640,639,642,589,517,517,55,55,55,55,55,518,517,518,55,55,55,55,517,517,517,517,587,515,515,596,561,561,561,561,561,561,561,561,561,561,563,517,517,507,507,507,507,507,507,507,507,507,507,507,517,518,518,518,
517,517,517,517,517,589,642,641,639,589,517,517,55,55,55,55,55,517,518,518,55,55,55,55,55,517,517,517,587,515,515,515,507,507,507,507,507,507,507,507,507,507,562,517,518,507,507,507,507,507,507,507,507,507,507,507,518,517,518,518,
517,517,517,517,517,589,639,639,642,589,518,517,55,55,55,55,55,518,518,517,55,55,55,55,55,517,517,517,587,515,515,597,564,564,564,564,564,564,564,564,564,564,566,518,518,507,507,507,507,507,507,507,507,507,507,507,517,518,517,518,
517,517,517,518,518,589,642,639,639,589,518,518,55,55,55,55,55,518,518,518,55,55,55,55,55,517,517,517,587,515,515,581,517,517,518,518,518,518,518,518,517,517,517,517,518,507,507,507,507,507,507,507,507,507,507,507,517,517,517,517,
517,517,517,517,518,589,639,639,640,589,518,517,55,517,55,55,55,518,518,518,55,55,55,55,55,517,517,517,587,515,515,581,518,518,518,518,518,518,518,518,517,517,517,517,518,507,507,507,507,507,507,507,507,507,507,507,518,517,517,517,
517,517,517,517,517,589,639,642,639,589,518,518,518,569,561,561,567,518,575,518,55,565,55,55,55,517,517,517,587,515,515,581,518,517,55,55,55,55,55,55,517,517,517,517,517,507,507,507,507,507,507,507,507,507,507,507,518,518,517,517,
517,517,517,517,517,589,639,639,639,589,518,518,518,568,507,562,517,517,518,518,518,517,517,517,517,517,517,518,587,515,515,581,518,518,55,55,55,55,55,55,517,517,517,517,517,507,507,507,507,507,507,507,507,507,507,507,518,517,517,517,
518,517,517,517,518,589,639,639,639,589,518,518,518,568,507,577,563,517,517,518,518,517,518,518,517,517,517,517,587,515,515,581,518,517,55,55,55,55,55,55,517,517,517,517,517,517,517,517,517,517,518,518,518,518,517,517,517,517,517,517,
518,518,518,517,518,589,639,639,639,589,518,518,518,572,579,507,562,517,517,518,518,517,517,517,55,55,55,517,587,515,515,581,518,517,55,55,55,55,55,55,517,517,517,517,517,517,517,517,517,517,518,518,518,517,517,517,517,517,517,517,
517,518,518,517,518,589,639,639,640,589,517,518,507,507,507,507,507,563,517,517,517,518,518,518,55,55,55,518,587,515,515,581,517,517,55,55,55,55,55,55,517,517,517,517,517,517,517,517,517,517,518,518,518,517,517,517,517,517,517,517,
518,517,518,518,517,589,639,640,639,589,518,517,507,507,507,507,507,562,517,517,507,507,507,518,55,55,55,517,587,515,515,581,517,517,517,517,517,517,517,517,517,517,517,517,517,517,517,517,517,517,518,518,518,518,517,517,517,517,517,517,
518,518,518,518,518,589,639,640,639,589,517,517,507,507,507,507,507,562,517,517,507,507,507,518,55,55,515,517,587,515,515,581,518,517,517,517,517,517,517,517,517,517,517,517,517,517,55,517,517,518,517,518,518,518,517,517,518,517,517,517,
517,518,518,517,518,589,639,639,641,589,517,517,518,517,517,568,507,577,563,517,517,517,517,517,55,55,55,588,595,515,515,596,580,582,517,517,517,517,517,517,517,517,517,55,55,55,55,517,518,518,518,518,517,518,517,518,518,518,517,517,
518,518,518,518,518,589,639,642,639,589,517,517,517,517,517,572,579,507,562,517,517,517,517,517,517,518,588,595,515,515,515,515,515,596,582,517,517,517,517,517,517,517,517,55,55,55,55,517,517,517,518,518,518,518,517,517,517,517,517,517,
517,518,518,518,518,589,639,639,639,589,517,517,517,517,517,517,568,507,577,563,518,518,517,517,517,588,595,515,515,515,515,515,515,515,596,582,517,517,517,517,517,517,517,55,55,55,55,517,517,518,518,518,518,517,517,517,517,517,517,517,
517,517,518,518,518,589,639,639,639,589,517,517,517,517,517,517,572,579,507,562,517,518,517,517,588,595,515,515,515,515,515,515,515,515,515,596,580,582,517,517,517,517,517,517,517,517,517,517,517,517,517,517,517,517,517,517,517,517,517,517,
517,517,518,518,518,589,639,642,639,589,517,517,517,517,517,517,517,568,507,562,517,517,517,588,595,515,515,515,515,515,515,515,515,515,515,515,515,596,580,561,561,561,561,561,561,561,561,561,561,563,517,517,517,518,518,518,517,518,517,517,
517,517,518,517,518,589,639,639,639,589,518,518,518,517,517,517,517,568,507,562,517,517,517,587,515,515,515,515,515,515,515,515,515,515,515,515,515,515,515,507,507,507,507,507,507,507,507,507,507,577,561,561,561,561,561,561,561,561,563,517,
517,518,518,518,518,589,639,639,639,589,518,518,517,518,517,517,517,572,579,577,563,517,592,515,515,515,515,515,515,515,515,515,515,515,515,515,515,515,515,515,507,578,564,564,564,564,564,564,564,579,507,507,507,507,507,507,507,507,562,517,
517,517,518,518,517,589,642,639,641,589,517,518,518,517,517,517,517,517,568,507,577,563,517,587,515,515,515,515,515,515,515,515,515,515,515,515,515,515,515,507,507,562,517,517,518,517,517,517,518,572,564,564,564,564,564,564,564,564,566,517,
517,517,518,518,518,589,639,639,639,589,517,518,517,517,517,517,517,517,572,579,507,562,517,587,515,515,515,515,515,515,515,515,515,515,515,515,515,597,583,579,507,562,517,518,517,517,517,517,517,518,518,518,518,518,518,517,517,518,517,517,
517,517,518,517,518,589,640,639,640,589,517,518,518,517,517,517,517,517,518,568,507,577,561,576,515,515,515,515,515,515,515,515,515,597,583,515,583,585,518,568,507,562,518,518,518,518,55,517,517,517,518,518,518,518,518,517,518,517,517,517,
517,518,518,518,518,589,641,639,642,589,518,518,518,518,517,517,517,518,569,576,507,507,507,578,564,564,583,583,583,598,515,597,583,585,517,593,518,518,517,568,507,562,518,55,55,55,55,518,517,518,518,518,518,518,518,518,518,517,517,517,
517,517,518,517,517,589,639,642,642,589,518,569,561,561,561,561,561,561,576,507,578,564,564,566,517,518,517,517,517,587,515,581,517,517,517,517,518,518,517,568,507,562,517,55,55,55,55,517,517,517,518,518,518,518,518,517,517,517,517,517,
517,517,517,517,517,589,639,641,639,589,517,568,507,507,507,507,507,507,507,578,566,518,517,517,517,517,517,517,517,587,515,581,517,517,517,518,517,517,518,568,507,562,517,55,55,55,55,517,517,518,507,507,507,507,507,507,517,517,517,517,
517,517,517,517,517,589,639,639,639,589,517,572,564,564,564,564,564,579,507,562,518,517,517,517,518,517,517,517,517,587,515,581,517,517,518,518,517,518,518,568,507,562,517,517,518,517,517,517,517,517,507,507,507,507,507,507,517,517,517,517,
517,588,584,584,584,585,641,639,639,591,582,517,517,517,517,517,517,568,507,562,517,518,518,517,517,517,517,517,517,587,515,581,517,517,517,517,518,518,517,568,507,562,517,517,517,517,517,517,517,517,507,507,507,507,507,507,518,518,517,517,
517,589,639,639,639,641,639,639,639,639,589,517,517,517,517,517,569,576,507,562,518,518,518,518,517,517,517,517,517,587,515,581,517,517,517,517,518,517,517,568,507,562,517,517,517,517,517,517,517,517,507,507,507,507,507,507,518,518,518,517,
517,589,639,639,639,639,639,639,639,639,589,517,517,517,517,517,568,507,578,566,518,518,518,55,55,55,55,55,55,55,55,55,55,55,55,55,55,55,517,568,507,562,518,517,517,517,517,517,517,517,507,507,507,507,507,507,518,518,517,517,
517,589,641,640,639,639,639,639,639,641,589,517,517,517,517,517,568,507,562,517,517,517,55,55,55,55,55,55,55,55,55,55,55,55,515,55,55,55,517,568,507,562,518,517,517,517,517,517,517,517,507,507,507,507,507,507,517,517,517,517,
517,589,639,639,639,641,639,639,639,639,589,517,517,517,517,517,568,507,562,517,517,517,515,55,55,55,55,55,55,55,55,55,55,55,55,55,55,55,517,568,507,562,518,517,517,517,517,517,517,517,507,507,507,507,507,507,517,517,517,517,
517,589,639,639,641,639,639,639,639,639,589,518,517,518,569,561,576,507,562,517,517,517,55,55,55,55,55,55,55,55,55,55,55,55,55,55,55,55,55,568,507,562,517,517,517,517,517,517,517,517,507,507,507,507,507,507,517,517,517,517,
517,589,639,639,639,639,640,639,639,642,589,518,518,569,576,507,578,564,566,517,517,517,55,55,55,55,55,55,55,55,55,55,55,55,55,55,55,55,55,568,507,562,518,518,517,517,517,517,517,517,517,517,517,517,517,517,517,517,517,517,
517,589,639,639,639,639,639,639,639,639,587,561,561,576,507,578,566,517,517,517,517,518,55,55,55,55,55,55,55,55,55,55,55,55,55,55,55,55,55,568,507,562,517,517,518,517,518,517,517,517,517,517,517,517,517,517,517,517,517,517,
518,589,639,639,640,639,639,640,639,639,587,507,507,578,564,566,517,517,517,517,517,518,55,55,55,55,55,55,55,55,55,55,55,55,515,55,55,55,55,568,507,577,563,518,517,518,518,517,517,518,518,517,517,517,517,517,517,517,517,517,
518,591,584,584,584,584,584,584,584,584,583,564,564,566,517,518,517,517,517,517,517,518,55,55,55,55,55,55,55,55,55,55,55,55,55,55,55,55,55,568,507,507,577,563,518,517,518,518,518,518,518,518,518,517,518,518,517,517,517,517,
518,518,518,518,518,518,517,517,517,517,518,517,518,518,518,517,517,517,517,517,517,517,55,55,55,55,55,55,55,55,55,55,55,55,55,55,55,55,55,568,507,507,507,562,517,517,518,518,518,518,518,518,518,518,518,518,518,517,518,517,
518,518,518,517,517,517,517,517,517,517,517,518,517,517,517,517,518,517,518,517,518,518,55,55,55,55,55,55,55,55,55,55,55,55,55,55,55,55,55,568,507,578,564,566,517,517,518,518,518,518,518,518,518,517,518,517,518,517,518,518,
518,518,517,518,518,517,517,517,517,517,517,517,517,517,517,518,517,518,518,518,517,517,55,55,55,55,55,55,55,55,55,55,55,55,55,55,55,55,55,568,507,562,517,517,517,518,518,518,518,517,518,517,517,517,518,518,518,518,518,517,
517,517,518,518,518,517,517,517,517,517,517,517,517,517,518,518,518,518,518,518,518,518,55,55,55,55,55,55,55,55,55,55,55,55,55,55,55,55,55,568,507,562,517,517,517,517,518,518,518,518,518,518,518,518,517,517,517,517,518,517,
517,518,518,518,518,517,517,517,517,517,517,517,517,517,517,517,518,518,518,517,518,517,55,55,55,55,55,55,55,55,55,55,55,55,55,55,55,55,518,568,507,562,518,517,517,517,517,518,517,518,517,518,518,518,517,517,518,517,517,517,
518,518,517,518,518,518,517,517,517,517,517,517,517,517,517,517,518,517,518,517,518,518,55,55,55,55,55,55,55,55,55,55,55,55,55,55,55,55,561,576,507,562,517,517,517,517,517,517,518,518,518,518,518,518,518,517,517,517,517,517,
517,518,517,517,517,517,517,517,517,517,517,517,517,517,517,517,517,517,517,517,518,517,55,55,55,55,55,55,55,55,55,55,55,55,55,55,55,55,507,578,564,566,517,517,517,517,517,517,517,518,518,518,518,517,517,517,517,517,517,517,
517,517,518,518,517,517,517,517,517,517,517,517,517,517,517,517,517,517,518,517,517,517,517,517,517,517,517,517,517,569,561,561,561,561,561,576,507,507,507,562,517,517,517,517,517,517,517,517,517,518,518,518,518,518,517,517,517,517,517,517,
517,518,517,517,517,517,517,517,517,517,518,517,517,517,517,518,518,518,518,518,518,517,517,517,517,517,517,517,517,568,507,507,507,507,507,507,578,564,564,566,517,517,517,517,517,518,517,517,517,517,518,517,517,517,517,517,517,517,517,517,
518,517,517,517,517,517,517,517,518,518,518,517,517,517,517,517,518,517,518,518,518,518,517,517,517,517,517,517,517,572,564,564,564,564,564,564,566,517,517,517,517,517,517,517,517,518,517,517,517,517,518,518,518,517,517,517,517,517,517,517,
517,517,517,517,517,517,517,518,518,518,518,517,517,517,517,517,517,518,518,517,518,517,517,517,517,517,517,517,517,517,517,517,517,517,518,517,517,517,517,517,517,517,517,518,518,518,517,517,517,517,518,518,517,517,517,517,517,517,517,517
</data>
 </layer>
 <layer id="21" name="shadow_lower" width="60" height="60">
  <data encoding="csv">
0,0,0,0,0,0,0,0,0,0,0,0,0,0,0,0,0,0,0,0,0,0,0,0,0,0,0,0,0,0,0,0,0,0,0,0,0,0,0,0,0,0,0,0,0,0,0,0,0,0,0,0,0,0,0,0,0,0,0,0,
0,0,0,0,0,0,0,0,0,0,0,0,0,0,0,0,0,0,0,0,0,0,0,0,0,0,0,0,0,0,0,0,0,0,0,0,0,0,0,0,0,0,0,0,0,0,0,0,0,0,0,0,0,0,0,0,0,0,0,0,
0,64,62,0,0,0,64,62,0,0,0,64,62,0,0,0,64,62,0,0,0,64,62,0,0,0,64,62,0,0,0,0,62,0,0,0,64,62,0,0,0,64,62,0,0,0,64,62,0,0,0,64,62,0,0,0,64,62,0,0,
0,0,0,0,0,0,0,0,0,0,0,0,0,0,0,0,0,0,0,0,0,0,0,0,0,0,0,0,0,0,0,0,0,0,0,0,0,0,0,0,0,0,0,0,0,0,0,0,0,0,0,0,0,0,0,0,0,0,0,0,
0,0,0,0,0,0,0,0,0,0,0,0,0,0,0,0,0,0,0,0,0,0,0,0,0,0,0,0,0,0,0,0,0,0,0,0,0,0,0,0,0,0,0,0,0,0,0,0,0,0,0,0,0,0,0,0,0,0,0,0,
0,0,0,0,0,0,0,0,0,0,0,0,0,0,0,0,0,0,0,0,0,0,0,0,0,0,0,0,0,0,0,0,0,0,0,0,0,0,0,0,0,0,0,0,0,0,0,0,0,0,0,0,0,0,0,0,0,0,0,0,
0,0,0,0,0,0,0,0,0,0,0,0,0,0,0,0,1166,0,0,0,0,0,0,0,0,1167,0,0,0,0,0,0,0,0,1164,0,0,0,0,0,0,0,0,0,0,0,0,0,0,0,0,0,0,0,0,0,0,0,0,0,
0,0,0,0,0,0,0,0,0,0,0,0,0,0,0,0,0,0,0,0,0,0,0,0,1167,0,1165,0,0,0,0,0,0,1164,0,1166,0,0,0,0,0,0,0,0,0,1166,0,0,0,0,0,0,0,0,0,0,0,0,0,0,
0,0,0,1165,0,0,0,0,0,0,0,0,0,0,0,0,0,0,1166,0,0,0,0,0,0,0,1166,1164,0,0,0,0,1166,0,0,0,0,0,0,0,0,0,0,0,0,0,0,0,0,0,0,0,0,0,0,0,0,0,0,0,
0,0,0,0,0,0,0,0,0,0,0,0,0,0,0,0,0,0,0,0,0,0,0,0,0,0,0,0,0,0,0,0,0,0,0,1166,0,0,0,0,0,0,0,0,0,0,0,0,0,0,0,0,0,0,0,0,0,0,0,0,
0,0,0,0,1166,0,0,0,0,0,0,0,0,0,0,0,0,0,0,0,0,0,0,0,0,0,0,1165,0,0,0,0,1167,0,0,0,0,0,0,0,0,0,0,0,0,0,0,0,0,0,0,0,0,0,0,0,0,0,0,0,
0,0,0,0,0,0,0,0,0,0,0,0,0,0,0,0,0,0,0,0,0,0,0,0,0,0,0,0,0,0,0,0,0,0,0,0,0,0,0,0,0,0,0,0,0,1257,1257,1257,1257,1257,1257,1257,1257,1257,1257,1257,0,0,0,0,
0,0,0,0,0,0,0,0,0,0,0,0,0,0,0,0,0,0,0,0,0,0,0,0,0,0,0,1166,0,0,0,0,1164,0,0,0,0,0,0,0,0,0,0,0,0,1191,1191,1191,1191,1191,1191,1191,1191,1191,1191,1191,0,0,0,0,
0,0,0,0,0,0,0,0,0,0,0,0,0,0,0,0,0,0,0,0,0,0,0,0,0,0,0,0,0,0,0,0,0,0,0,0,0,0,0,0,0,0,0,0,0,1257,1257,1257,1257,1257,1257,1257,1257,1257,1257,1257,0,0,0,0,
0,0,0,0,0,0,0,0,0,0,0,0,0,0,0,0,0,0,0,0,0,0,0,0,0,0,0,1167,0,0,0,0,1165,0,0,0,0,0,0,0,0,0,0,0,0,1191,1191,1191,1191,1191,1191,1191,1191,1191,1191,1191,0,0,0,0,
0,0,0,0,0,0,0,0,0,0,0,0,0,0,0,0,0,0,0,0,0,0,0,0,0,0,0,0,0,0,0,0,0,0,0,0,0,0,0,0,0,0,0,0,0,1257,1257,1257,1257,1257,1257,1257,1257,1257,1257,1257,0,0,0,0,
0,0,0,0,0,0,0,0,0,0,0,0,1164,0,0,0,0,0,0,0,0,0,1166,0,0,0,0,1164,0,0,0,0,1166,0,0,0,0,0,0,0,0,0,0,0,0,1191,1191,1191,1191,1191,1191,1191,1191,1191,1191,1191,0,0,0,0,
0,0,0,0,0,0,0,0,0,0,0,0,0,0,0,0,0,0,0,0,0,0,0,0,0,0,0,0,0,0,0,0,0,0,0,0,0,0,0,0,0,0,0,0,0,1257,1257,1257,1257,1257,1257,1257,1257,1257,1257,1257,0,0,0,0,
0,0,0,0,0,0,0,0,0,0,0,0,0,0,0,0,0,0,0,0,0,0,0,0,0,0,0,1165,0,0,0,0,1167,0,0,0,0,0,0,0,0,0,0,0,0,1191,1191,1191,1191,1191,1191,1191,1191,1191,1191,1191,0,0,0,0,
0,0,0,0,0,0,0,0,0,0,0,0,0,0,0,0,0,0,0,0,0,0,0,0,0,0,1165,0,0,0,0,0,0,0,0,0,0,0,0,0,0,0,0,0,0,1257,1257,1257,1257,1257,1257,1257,1257,1257,1257,1257,0,0,0,0,
0,0,0,0,0,0,0,0,0,0,0,0,0,0,0,0,0,0,0,0,0,0,0,0,0,0,0,1166,0,0,0,0,1164,0,0,0,0,426,426,0,0,0,0,0,0,0,0,0,0,0,0,0,0,0,0,0,0,0,0,0,
0,0,0,1166,0,0,0,0,0,0,0,0,0,0,0,0,0,0,0,0,0,0,0,0,0,0,0,0,0,0,0,0,0,0,412,412,412,434,434,0,0,0,0,0,0,0,0,0,0,0,0,0,0,0,0,0,0,0,0,0,
0,0,0,0,0,0,0,0,0,0,0,0,1191,1191,1191,1191,1191,0,0,0,0,0,0,0,0,0,0,1167,0,0,0,0,1165,0,420,420,420,442,442,558,0,0,0,0,0,1165,0,0,0,0,1164,0,0,0,0,0,0,0,0,0,
0,0,0,0,0,0,0,0,0,0,0,0,1191,1191,1191,1191,1191,0,0,0,1191,1191,1191,0,0,0,54,0,0,0,0,0,0,1166,0,0,0,0,1165,0,0,0,0,0,0,0,0,0,0,0,0,0,0,0,0,0,0,0,0,0,
0,0,0,0,0,0,0,0,0,0,0,0,1191,1191,1191,1191,1191,0,0,0,1191,1191,1191,0,0,0,62,1164,0,0,0,0,1166,0,0,0,0,0,0,0,0,0,0,0,0,0,0,0,0,0,0,0,0,0,0,0,0,0,0,0,
0,0,0,0,0,0,0,0,0,0,0,0,0,0,0,0,0,0,0,0,0,0,0,0,0,0,0,0,0,0,0,0,0,0,0,0,0,0,0,0,0,0,0,0,0,0,0,0,1165,0,0,0,0,0,0,0,0,0,0,0,
0,0,0,0,0,0,0,0,0,0,0,1167,0,0,0,0,0,0,0,0,0,0,0,0,0,0,0,0,0,0,0,0,0,0,0,0,0,0,0,0,0,0,0,0,0,0,0,0,0,0,0,0,0,0,1164,0,0,0,0,0,
0,0,0,0,0,0,0,0,0,0,0,0,0,0,0,0,0,0,0,0,0,0,0,0,0,0,0,0,0,0,0,0,0,0,0,0,0,0,0,0,0,0,0,0,0,0,0,0,0,0,0,0,0,0,0,0,0,0,0,0,
0,0,0,0,0,0,0,0,0,0,1166,0,0,0,0,0,0,0,0,0,0,0,0,0,0,0,0,0,0,0,0,0,0,0,0,0,0,0,0,0,0,0,0,0,0,0,0,0,0,0,0,0,0,0,0,0,0,0,0,0,
0,0,0,0,0,0,0,0,0,0,0,0,0,0,0,0,0,0,0,0,0,0,0,0,0,0,0,0,0,0,0,0,0,0,0,0,0,0,0,0,0,0,0,0,0,0,0,0,0,0,0,0,0,0,0,0,0,0,0,0,
0,0,0,0,0,0,0,0,0,0,0,0,0,0,0,0,0,0,0,0,0,0,0,0,0,0,0,0,0,0,0,0,0,0,0,0,0,0,0,0,0,0,0,0,0,0,0,0,0,0,0,0,0,0,0,0,0,0,0,0,
0,0,0,0,0,0,0,0,0,0,0,0,0,0,0,0,0,0,0,0,0,0,0,0,0,0,0,0,0,0,0,0,0,0,0,0,0,0,0,0,0,0,0,0,0,0,0,0,0,0,0,0,0,0,0,0,0,0,0,0,
0,0,0,0,0,0,0,0,0,0,0,0,0,0,0,0,0,0,0,0,0,0,0,0,0,0,0,0,0,0,0,0,0,0,0,0,0,0,0,0,0,0,0,0,0,0,0,0,1164,0,0,0,0,0,0,0,0,0,0,0,
0,0,0,0,0,0,0,0,0,0,0,0,0,0,0,0,0,0,0,0,0,0,0,0,0,0,0,0,0,0,0,0,0,0,0,0,0,0,0,0,0,0,0,0,0,0,0,0,0,0,0,0,0,0,0,0,0,0,0,0,
0,0,0,0,0,0,0,0,0,0,0,0,0,0,0,0,0,0,0,0,0,0,0,0,0,0,0,0,0,0,0,0,0,0,0,0,0,0,0,0,0,0,0,0,0,0,0,0,0,0,0,0,0,0,0,0,0,0,0,0,
0,0,0,0,0,0,0,0,0,0,0,0,0,0,0,0,0,0,0,0,0,0,0,0,0,0,0,0,0,0,0,0,0,0,0,0,0,0,0,0,0,0,0,0,0,0,0,0,0,0,0,0,0,0,0,0,0,0,0,0,
0,0,0,0,0,0,0,0,0,0,0,0,0,0,0,0,0,0,0,0,0,0,0,0,0,0,0,0,0,0,0,0,0,0,0,0,0,0,0,0,0,0,0,0,0,0,0,0,0,0,0,0,0,0,0,0,0,0,0,0,
0,0,0,0,0,0,0,0,0,0,0,0,0,0,0,0,0,0,0,0,0,0,0,0,0,0,1167,0,0,0,0,0,0,0,0,0,0,0,0,0,0,0,0,0,0,0,0,0,0,0,1191,1191,1191,1191,1191,1191,0,0,0,0,
0,0,0,0,0,0,0,0,0,0,0,0,0,0,0,0,0,0,0,0,0,0,0,0,0,0,0,0,0,0,0,0,1164,0,0,0,0,0,0,0,0,0,0,0,0,0,0,0,0,0,1191,1191,1191,1191,1191,1191,0,0,0,0,
0,0,0,0,0,0,0,0,0,0,0,0,0,0,0,0,0,0,0,0,0,0,0,0,0,0,0,0,0,0,0,0,0,0,0,0,0,0,0,0,0,0,0,0,0,0,0,0,0,0,1191,1191,1191,1191,1191,1191,0,0,0,0,
0,0,0,0,0,0,0,0,0,0,0,0,0,0,0,0,0,0,0,0,0,0,0,0,0,0,0,0,0,0,0,0,0,0,0,0,0,0,0,0,0,0,0,0,0,0,0,0,0,0,1191,1191,1191,1191,1191,1191,0,0,0,0,
0,0,0,0,0,0,0,0,0,0,0,0,0,0,0,0,0,0,0,0,0,0,0,0,0,0,0,0,0,0,0,0,0,0,0,0,0,0,0,0,0,0,0,0,0,0,0,0,0,0,1191,1191,1191,1191,1191,1191,0,0,0,0,
0,0,0,0,0,0,0,0,0,0,0,0,0,0,0,0,0,0,0,0,0,0,0,0,0,0,0,0,0,0,0,0,0,0,0,0,0,0,0,0,0,0,0,0,0,0,0,0,0,0,1191,1191,1191,1191,1191,1191,0,0,0,0,
0,0,0,0,0,0,0,0,0,0,0,0,0,1165,0,0,0,0,0,0,0,0,0,0,0,0,0,0,0,0,0,0,0,0,0,0,0,0,0,0,0,0,0,0,0,0,0,0,0,0,1191,1191,1191,1191,1191,1191,0,0,0,0,
0,0,0,0,0,0,0,0,0,0,0,0,0,0,0,0,0,0,0,0,0,0,0,0,0,0,0,0,0,0,0,0,0,0,0,0,0,0,0,0,0,0,0,0,0,0,0,0,0,0,1191,1191,1191,1191,1191,1191,0,0,0,0,
0,0,0,0,0,0,0,0,0,0,0,0,0,0,0,0,0,1166,0,0,0,0,0,0,0,0,0,0,0,0,0,0,0,0,0,0,0,0,0,0,0,0,0,0,0,0,0,0,0,0,0,0,0,0,0,0,0,0,0,0,
0,0,0,0,0,0,0,0,0,0,0,0,0,0,0,0,0,0,0,0,0,0,0,0,0,0,0,0,0,0,0,0,0,0,0,0,0,0,0,0,0,0,0,1167,0,0,0,0,0,0,0,0,0,0,0,0,0,0,0,0,
0,0,0,0,0,0,0,0,0,0,0,0,0,0,0,1166,0,0,0,0,0,0,0,0,0,0,0,0,0,0,0,0,0,0,0,0,0,0,0,0,0,0,0,0,0,0,0,0,0,0,0,0,0,0,1165,0,1167,0,0,0,
0,0,0,0,0,0,0,0,0,0,0,0,0,0,0,0,0,0,0,0,0,0,0,0,0,0,0,0,0,0,0,0,0,0,0,0,0,0,0,0,0,0,0,0,1164,0,0,0,0,0,0,0,0,0,0,0,0,0,0,0,
0,0,0,0,0,0,0,0,0,0,0,0,0,0,0,0,0,0,0,0,0,0,0,0,0,0,0,0,0,0,0,0,0,0,0,0,0,0,0,0,0,0,0,0,0,0,0,0,0,0,0,0,0,0,0,0,0,0,0,0,
0,0,0,0,0,0,0,0,0,0,0,0,0,0,0,0,0,0,0,0,0,0,0,0,0,0,0,0,0,0,0,0,0,0,0,0,0,0,0,0,0,0,0,0,0,0,0,0,0,0,0,0,0,0,0,0,0,0,0,0,
0,0,0,0,0,0,0,0,0,0,0,0,0,0,0,0,0,0,0,0,0,0,0,0,0,0,0,0,0,0,0,0,0,0,0,0,0,0,0,0,0,0,0,0,0,0,0,0,0,0,0,0,0,0,0,0,0,0,0,0,
0,0,0,0,0,0,0,0,0,0,0,0,0,0,0,0,0,0,0,0,0,0,0,0,0,0,0,0,0,0,0,0,0,0,0,0,0,0,0,0,0,0,0,0,0,0,0,0,0,0,0,0,0,0,0,0,0,0,0,0,
0,0,0,1166,0,0,0,0,0,0,0,0,0,0,0,0,0,0,0,1166,0,0,0,0,0,0,0,0,0,0,0,0,0,0,0,0,0,0,0,0,0,0,0,0,0,0,0,0,0,0,0,0,0,0,0,0,0,0,0,0,
0,0,0,0,0,0,0,0,0,0,0,0,0,0,0,0,0,0,0,0,0,0,0,0,0,0,0,0,0,0,0,0,0,0,0,0,0,0,0,0,0,0,0,0,0,0,0,0,0,0,0,0,0,0,0,0,0,0,0,0,
0,0,0,0,0,0,0,0,0,0,0,0,0,0,0,0,0,0,0,0,0,0,0,0,0,0,0,0,0,0,0,0,0,0,0,0,0,0,0,0,0,0,0,0,0,0,0,0,0,0,0,0,0,0,0,0,0,0,0,0,
0,0,0,0,0,0,0,0,0,0,0,0,0,0,0,0,0,0,0,0,0,0,0,0,0,0,0,0,0,0,0,0,0,0,0,0,0,0,0,0,0,0,0,0,0,1167,0,0,0,0,0,0,0,0,0,0,0,0,0,0,
0,0,0,0,0,0,0,0,0,0,0,0,0,1164,0,0,0,0,0,0,0,0,0,0,0,0,0,0,0,0,0,0,0,0,0,0,0,0,0,0,0,0,0,0,0,0,0,0,0,0,0,0,0,0,0,0,0,0,0,0,
0,0,0,0,0,0,0,0,0,0,0,0,0,0,0,0,0,0,0,0,0,0,0,0,0,0,0,0,0,0,0,0,0,0,0,0,0,0,0,0,0,0,0,0,0,0,0,0,0,0,0,0,0,0,0,0,0,0,0,0,
0,0,0,0,0,0,0,0,0,0,0,0,0,0,0,0,0,0,0,0,0,0,0,0,0,0,0,0,0,0,0,0,0,0,0,0,0,0,0,0,0,0,0,0,0,0,0,0,0,0,0,0,0,0,0,0,0,0,0,0
</data>
 </layer>
 <layer id="22" name="object" width="60" height="60">
  <data encoding="csv">
45,45,45,45,45,45,45,45,45,45,45,45,45,45,45,45,45,45,45,45,45,45,45,45,45,45,45,45,302,302,302,302,45,45,45,45,45,45,45,45,45,45,45,45,45,45,45,45,45,45,45,45,45,45,45,45,45,45,45,45,
306,53,53,53,53,53,53,53,53,53,53,53,53,53,53,53,53,53,53,53,53,53,53,53,53,53,53,45,302,302,302,302,45,53,53,53,53,53,53,53,53,53,53,53,53,53,53,53,53,53,53,53,53,53,53,53,53,53,53,53,
306,293,294,295,296,292,293,294,295,296,292,293,294,295,296,292,293,294,295,296,292,293,294,295,296,292,293,45,0,0,0,0,45,295,296,292,293,294,295,296,292,293,294,295,296,292,293,294,295,296,292,293,294,295,296,292,293,294,295,296,
314,301,302,303,304,300,301,302,303,304,300,301,302,303,304,300,301,302,303,304,300,301,302,303,304,300,301,45,0,0,0,0,45,303,304,300,301,302,303,304,300,301,302,303,304,300,301,302,303,304,300,301,302,303,304,300,301,302,303,304,
308,0,0,0,312,308,0,0,0,312,308,0,0,0,312,308,0,0,0,312,308,0,0,0,312,308,0,45,0,0,0,0,45,0,312,308,0,0,0,312,308,0,0,0,312,308,0,0,0,312,308,0,0,0,312,308,0,0,0,312,
302,0,0,0,0,0,0,0,0,0,0,0,0,0,0,0,0,0,0,0,0,0,0,0,0,0,0,45,0,0,0,0,45,0,0,0,0,0,0,0,0,0,0,0,0,0,0,0,0,0,0,0,0,0,0,0,0,0,0,302,
302,0,0,0,0,0,302,302,302,0,0,0,0,0,0,0,0,0,0,0,0,0,0,0,0,0,0,0,0,0,0,0,0,0,0,0,0,0,0,0,0,0,0,0,0,0,0,0,0,0,0,0,0,0,0,0,0,0,0,302,
302,0,0,0,0,0,302,302,302,0,1194,0,0,0,0,0,0,0,0,0,0,0,0,0,0,0,0,0,0,0,0,0,0,1194,0,0,0,0,0,0,0,0,0,0,0,0,0,0,0,0,0,0,0,0,0,0,0,0,0,302,
302,0,0,0,0,0,302,302,302,0,0,0,0,0,0,0,0,0,0,0,0,0,0,0,0,0,0,0,0,0,0,0,0,0,0,0,0,0,0,0,0,0,0,0,0,0,0,0,0,0,0,0,0,0,0,0,0,0,0,302,
1234,1235,1236,0,0,0,302,302,302,0,0,0,0,0,0,0,0,0,0,0,0,0,0,0,0,0,356,357,0,0,0,0,0,356,357,0,0,0,0,0,0,0,0,1161,1161,1161,1161,1161,1161,1161,1161,1161,1161,1161,1161,1161,1161,0,0,302,
302,0,0,0,0,0,302,302,302,0,0,0,0,0,0,0,0,0,0,0,0,0,0,0,0,0,0,0,0,0,0,0,0,0,0,0,0,0,0,0,0,0,0,1161,0,0,0,0,0,0,0,0,0,0,0,0,1161,0,0,302,
302,0,0,0,0,0,302,302,302,0,0,0,82,82,82,82,0,0,0,0,0,0,0,0,0,0,0,0,0,0,0,0,0,0,0,0,0,0,0,0,0,0,0,1161,0,0,0,0,0,0,0,0,0,0,0,0,1161,350,351,352,
302,0,0,0,0,0,302,302,302,1158,0,0,82,82,82,82,0,0,0,0,82,82,82,82,0,0,0,0,0,0,0,0,0,0,0,0,0,0,0,0,0,0,0,1161,0,0,0,0,0,0,0,0,0,0,0,0,1161,0,0,302,
350,351,352,0,0,0,302,302,302,0,0,0,81,98,98,83,412,0,0,0,82,82,82,82,1208,1209,1210,0,0,0,0,0,0,0,0,0,0,0,0,0,0,0,0,1161,0,0,0,0,0,0,1193,0,0,0,0,0,1161,0,0,302,
302,0,0,0,0,0,302,302,302,0,0,0,97,98,98,99,420,0,0,0,81,98,98,83,412,0,0,0,0,0,0,0,0,0,0,0,0,0,0,0,0,0,0,0,0,0,0,0,0,0,0,0,0,0,0,0,1161,0,0,302,
302,0,0,0,0,0,302,302,302,1147,1148,0,97,98,98,99,419,0,0,0,97,98,98,99,420,0,356,357,0,0,0,0,0,356,357,0,0,0,0,0,0,0,0,0,0,0,0,0,0,0,0,0,0,0,0,0,1161,350,351,352,
302,0,0,0,0,0,302,302,302,0,1097,0,105,106,106,107,0,0,0,0,97,98,98,99,419,0,0,0,0,0,0,0,0,0,0,0,0,0,1195,0,0,0,0,1161,0,0,0,0,0,0,0,0,0,0,0,0,1161,0,0,302,
1234,1235,1236,0,0,1158,302,302,302,0,0,0,493,1150,350,351,352,0,0,0,105,1150,106,107,0,0,0,0,0,0,0,0,0,0,0,0,0,0,0,0,0,0,0,1161,0,0,0,0,0,0,0,0,0,0,0,0,1161,0,0,302,
302,0,0,0,0,0,302,302,302,0,0,0,0,0,0,0,0,0,0,0,493,0,350,351,352,0,0,0,0,0,0,0,0,0,0,0,0,0,0,0,0,0,0,1161,0,0,0,0,0,0,0,0,0,0,0,0,1161,0,0,302,
302,0,0,0,0,0,302,302,302,0,0,0,0,0,0,0,0,0,0,0,0,0,0,0,0,0,0,0,0,0,0,0,0,0,399,400,399,400,399,400,0,0,0,1161,0,0,0,0,0,0,0,0,0,0,0,0,1161,350,351,352,
302,0,0,0,0,0,302,302,302,0,0,1161,1161,1161,0,1161,1161,1161,0,0,0,0,0,0,0,0,0,0,0,0,0,0,0,0,407,408,407,408,407,408,0,1097,0,1161,1161,1161,1161,1161,1161,1161,1161,1161,1161,1161,1161,1161,1161,0,0,302,
350,351,352,0,0,0,302,302,302,0,0,1161,0,0,0,0,0,1161,0,1161,1161,0,1161,1161,0,0,356,357,0,0,0,0,0,356,357,416,415,416,415,416,0,1096,0,0,1189,1190,0,0,0,0,0,0,0,0,0,0,0,0,0,302,
302,0,0,0,0,0,302,302,302,0,0,1161,0,0,0,0,0,1161,0,1161,0,0,0,1161,0,0,0,0,0,0,0,0,0,0,423,424,423,424,423,424,0,0,0,0,0,0,0,0,0,0,0,0,0,0,0,0,0,0,0,302,
302,0,0,0,0,0,302,302,302,0,0,1161,0,0,0,0,0,1161,0,1161,0,0,0,1161,0,0,0,0,0,0,0,0,0,0,0,0,0,0,0,0,0,0,0,0,0,0,0,0,0,0,0,0,0,0,0,0,0,350,351,352,
302,0,0,0,0,0,302,302,302,0,0,1161,0,0,0,0,0,1161,0,1161,0,0,0,1161,396,397,398,0,0,0,0,0,0,0,0,0,0,0,0,0,0,0,0,0,0,0,0,0,0,0,0,0,0,0,0,0,0,0,0,302,
1234,1235,1236,0,0,0,302,302,302,0,0,1161,1161,1161,1161,1161,1161,1161,0,1161,1161,1161,1161,1161,404,405,406,0,0,0,0,0,0,0,0,0,0,0,0,0,0,0,0,393,394,395,0,0,0,0,0,0,0,0,0,0,0,0,0,302,
302,0,0,0,0,0,302,302,302,1158,0,0,0,0,0,0,1150,0,0,0,0,0,0,0,0,0,0,0,1194,0,0,0,0,0,0,0,0,0,0,0,0,0,0,0,0,0,0,0,0,0,0,0,0,0,0,0,0,0,0,302,
302,0,0,0,0,0,302,302,302,0,0,0,0,0,0,0,0,0,0,0,0,0,0,1150,0,0,0,0,0,0,0,0,0,0,0,0,0,0,0,0,0,0,0,409,0,411,350,0,0,0,0,0,0,0,0,0,0,350,351,352,
302,0,0,0,0,0,302,302,302,0,0,0,0,0,0,0,0,0,0,0,0,0,0,0,0,356,357,0,0,0,0,0,0,0,0,0,356,357,0,0,0,0,0,0,0,0,0,0,0,0,0,0,0,0,0,0,0,0,0,302,
350,351,352,0,0,0,302,302,302,0,0,0,0,0,0,0,0,0,0,0,0,0,0,0,0,0,0,0,0,0,493,1255,1256,0,493,0,0,0,0,0,0,0,0,0,0,0,1097,0,0,0,0,0,0,0,0,0,0,0,0,302,
302,0,0,0,0,1158,302,302,302,0,0,0,527,0,0,0,0,0,0,0,0,0,0,0,0,0,0,0,0,0,0,0,0,0,0,0,0,0,0,0,0,0,0,0,0,0,0,0,0,0,0,0,0,0,0,0,0,0,0,302,
302,0,0,0,0,0,302,302,302,0,0,0,0,0,0,0,0,0,0,0,0,0,0,0,0,0,0,0,0,0,0,0,0,0,0,0,0,0,0,0,0,0,0,0,0,0,0,0,0,0,0,0,0,0,0,0,0,350,351,352,
302,0,0,0,0,0,302,302,302,0,0,0,0,0,0,0,0,0,0,0,0,0,0,0,0,0,0,0,0,0,0,0,0,0,0,0,0,0,0,0,0,0,0,0,0,0,0,0,0,0,0,0,0,0,0,0,0,0,0,302,
1234,1235,1236,0,0,0,302,302,302,0,0,0,0,0,0,0,0,0,0,0,0,0,0,0,0,0,0,1147,1148,0,0,0,0,0,1147,1148,0,0,0,0,0,0,0,0,0,0,0,528,0,0,0,0,0,0,0,0,0,0,0,302,
302,0,0,0,0,0,302,302,302,1158,0,0,0,0,0,0,0,0,0,0,0,0,0,0,0,356,357,0,0,0,0,0,0,0,0,0,0,356,357,0,0,0,0,0,0,0,0,0,0,0,0,0,0,0,0,0,0,0,0,302,
302,0,0,0,0,0,302,302,302,0,0,0,0,0,0,0,0,0,0,0,0,0,0,0,0,0,0,0,0,0,0,0,0,0,0,0,0,0,0,0,0,0,0,393,394,395,0,0,0,1161,1161,1161,0,0,1161,1161,1161,350,351,352,
302,0,0,0,0,0,302,302,302,0,0,0,0,0,0,0,0,0,0,0,0,0,0,0,0,0,0,0,0,0,0,0,0,0,0,0,0,0,0,0,0,0,0,0,0,0,0,0,0,1161,0,0,0,0,0,0,1161,0,0,302,
350,351,352,0,0,0,302,302,302,0,0,0,0,0,0,0,0,0,0,0,0,0,0,0,0,0,0,0,1185,0,0,0,1185,0,0,0,0,0,0,0,0,0,0,409,0,411,350,0,0,1161,0,0,0,0,0,0,1161,0,0,302,
302,0,0,0,0,0,302,302,302,0,0,0,0,0,0,0,0,0,0,0,0,0,0,0,0,0,0,0,1185,0,0,0,0,0,0,0,0,0,0,0,0,0,0,0,0,0,0,0,0,1161,0,0,0,0,0,0,1161,0,0,302,
302,0,0,0,0,0,302,302,302,0,0,0,0,0,0,0,0,0,0,0,0,0,0,0,0,0,0,356,357,0,0,0,493,0,0,0,0,0,0,0,0,0,0,0,0,0,0,0,0,1161,0,0,0,0,0,0,1161,350,351,352,
302,0,302,302,302,302,302,302,302,302,0,0,0,0,0,0,0,0,0,0,0,0,0,0,0,0,0,0,0,0,0,0,0,0,0,0,0,0,0,0,0,0,0,0,0,0,0,0,0,1161,0,0,0,0,0,0,1161,0,0,302,
1234,1235,1236,302,302,302,302,302,302,302,0,0,0,0,0,0,0,0,0,0,0,0,0,0,0,0,0,0,0,0,0,0,0,0,0,0,0,0,0,0,0,0,0,0,0,0,0,0,0,1161,0,0,0,0,0,0,1161,0,0,302,
302,0,302,302,302,302,302,302,302,302,0,0,0,0,0,0,0,0,0,0,0,0,0,0,0,0,0,0,0,0,0,0,0,0,0,0,0,0,0,0,0,0,0,0,0,0,0,0,0,1161,0,0,0,0,0,0,1161,0,0,302,
302,0,302,302,302,302,302,302,302,302,0,1147,1148,1223,1224,0,0,0,0,0,0,0,82,82,82,82,82,82,82,82,82,82,82,82,82,82,82,82,0,0,0,0,0,0,0,0,0,0,0,1161,0,0,0,0,0,0,1161,350,351,352,
302,0,302,302,302,302,302,302,302,302,0,0,0,0,0,0,1234,1235,1097,0,0,0,82,82,82,82,82,82,82,82,82,82,82,82,82,82,82,82,0,0,0,0,0,0,0,0,0,0,0,1161,0,0,0,0,0,0,1161,0,0,302,
350,351,352,302,302,302,302,302,302,302,0,0,0,0,0,0,0,0,0,0,1243,1244,82,82,82,82,82,82,82,82,82,82,82,82,82,82,82,82,0,0,0,0,0,0,0,0,0,0,0,1161,1161,1161,1161,1161,1161,1161,1161,0,0,302,
302,0,302,302,302,302,302,302,302,302,0,1147,1148,0,0,0,0,0,0,0,0,0,82,114,114,114,114,82,82,82,82,82,82,114,114,114,114,82,0,0,0,0,0,0,0,0,0,0,0,0,0,0,0,0,0,0,0,0,0,302,
302,0,302,302,302,302,302,302,302,302,0,0,0,0,0,0,0,0,0,0,0,0,81,114,114,114,114,82,82,277,278,82,82,114,114,114,114,83,0,0,0,0,0,0,0,0,0,0,0,0,0,0,0,0,0,0,0,350,351,352,
302,45,45,45,45,45,45,45,45,45,45,0,1222,1223,1224,0,0,0,0,0,0,0,81,114,114,114,114,82,82,82,82,82,82,114,114,114,114,83,0,0,0,0,0,0,0,0,0,0,0,0,0,0,0,0,0,0,0,0,0,302,
1234,1235,1236,0,0,0,0,0,0,0,0,0,0,0,0,0,1234,1235,1236,0,0,0,81,114,114,114,114,81,114,114,114,114,83,114,114,114,114,83,0,0,0,0,1155,1156,0,1178,1179,0,0,0,0,0,0,0,0,0,0,0,0,302,
302,0,0,0,0,0,0,0,0,0,0,0,0,0,0,0,0,0,0,0,1243,1244,81,114,114,114,114,81,114,114,114,114,83,114,114,114,114,83,0,0,0,0,0,0,0,0,0,0,1170,1171,0,0,0,0,0,0,0,0,0,302,
302,0,0,0,0,0,0,0,0,0,0,0,0,0,0,0,0,0,0,0,0,0,81,114,114,114,114,81,114,114,114,114,83,114,114,114,114,83,0,0,0,0,0,0,0,0,0,0,0,0,0,0,0,0,0,0,0,350,351,352,
302,0,0,0,0,0,0,0,0,0,0,0,0,0,0,0,0,0,0,0,0,0,89,90,90,90,90,81,114,114,114,114,83,90,90,90,90,91,0,0,0,0,0,0,1095,1174,1175,0,0,0,0,0,0,0,0,0,0,0,0,302,
350,351,352,0,0,0,0,0,0,0,0,0,1222,1223,1224,0,1234,1235,1236,0,0,0,493,70,71,72,493,81,82,82,82,82,83,493,70,71,72,493,0,0,0,0,0,0,0,0,0,0,0,0,0,0,0,0,0,0,0,0,0,302,
302,0,0,0,0,0,0,0,0,0,0,0,0,0,0,0,0,0,0,0,0,0,493,78,79,80,493,81,82,544,82,82,83,493,78,79,80,493,0,0,0,0,0,0,0,0,0,0,0,0,0,0,0,0,0,0,0,0,0,302,
302,0,0,0,0,0,0,0,0,0,0,0,0,0,0,0,0,0,0,0,0,0,493,86,87,88,493,89,90,552,90,90,91,493,86,87,88,493,0,0,0,0,0,0,0,0,0,0,0,0,0,0,0,0,0,0,0,350,351,352,
302,0,0,0,0,0,0,0,0,0,0,0,0,0,0,0,0,0,0,0,0,0,0,0,0,0,0,0,0,0,0,0,0,0,0,0,0,0,0,0,0,0,0,0,0,0,0,0,0,0,0,0,0,0,0,0,0,0,0,302,
1234,1235,1236,0,0,0,0,0,0,0,0,0,0,0,0,0,0,0,0,0,0,0,0,0,0,0,0,0,0,0,0,0,0,0,0,0,0,0,0,0,0,0,0,0,0,0,0,0,0,0,0,0,0,0,0,0,0,0,0,302,
302,0,0,0,0,0,0,0,0,0,0,0,0,0,0,0,0,0,0,0,0,0,0,0,0,0,0,0,0,0,0,0,0,0,0,0,0,0,0,0,0,0,0,0,0,0,0,0,0,0,0,0,0,0,0,0,0,0,0,302,
302,302,350,351,352,302,350,351,352,302,350,351,352,302,350,351,352,302,350,351,352,302,302,302,302,302,302,302,302,302,302,302,302,302,302,302,302,302,302,302,302,302,350,351,352,302,350,351,352,302,350,351,352,302,350,351,352,302,302,302
</data>
 </layer>
 <layer id="23" name="shadow_upper" width="60" height="60">
  <data encoding="csv">
0,0,0,0,0,0,0,0,0,0,0,0,0,0,0,0,0,0,0,0,0,0,0,0,0,0,0,0,64,64,64,64,0,0,0,0,0,0,0,0,0,0,0,0,0,0,0,0,0,0,0,0,0,0,0,0,0,0,0,0,
0,0,0,0,0,0,0,0,0,0,0,0,0,0,0,0,0,0,0,0,0,0,0,0,0,0,0,0,64,64,64,64,0,0,0,0,0,0,0,0,0,0,0,0,0,0,0,0,0,0,0,0,0,0,0,0,0,0,0,0,
0,0,0,0,0,0,0,0,0,0,0,0,0,0,0,0,0,0,0,0,0,0,0,0,0,0,0,0,64,64,64,64,0,0,0,0,0,0,0,0,0,0,0,0,0,0,0,0,0,0,0,0,0,0,0,0,0,0,0,0,
0,54,0,0,0,0,54,0,0,0,0,54,0,0,0,0,54,0,0,0,0,54,0,0,0,0,54,0,64,64,64,64,0,0,0,0,54,0,0,0,0,54,0,0,0,0,54,0,0,0,0,54,0,0,0,0,54,0,0,0,
0,62,0,0,0,0,62,0,0,0,0,62,0,0,0,0,62,0,0,0,0,62,0,0,0,0,62,0,0,0,0,62,0,0,0,0,62,0,0,0,0,62,0,0,0,0,62,0,0,0,0,62,0,0,0,0,62,0,0,0,
0,0,0,0,0,0,0,0,0,0,0,0,0,0,0,0,0,0,0,0,0,0,0,0,0,0,0,0,0,0,0,0,0,0,0,0,0,0,0,0,0,0,0,0,0,0,0,0,0,0,0,0,0,0,0,0,0,0,0,0,
0,0,0,0,0,0,0,0,0,0,0,0,0,0,0,0,0,0,0,0,0,0,0,0,0,0,0,0,0,0,0,0,0,0,0,0,0,0,0,0,0,0,0,0,0,0,0,0,0,0,0,0,0,0,0,0,0,0,0,0,
0,0,0,0,0,0,0,0,0,0,0,0,0,0,0,0,0,0,0,0,0,0,0,0,0,0,0,0,0,0,0,0,0,0,0,0,0,0,0,0,0,0,0,0,0,0,0,0,0,0,0,0,0,0,0,0,0,0,0,0,
0,0,0,0,0,0,0,0,0,0,0,0,0,0,0,0,0,0,0,0,0,0,0,0,0,0,0,0,0,0,0,0,0,0,0,0,0,0,0,0,0,0,0,0,0,0,0,0,0,0,0,0,0,0,0,0,0,0,0,0,
0,0,0,0,0,0,0,0,0,0,0,0,0,0,0,0,0,0,0,0,0,0,0,0,0,0,0,0,0,0,0,0,0,0,0,0,0,0,0,0,0,0,0,0,0,0,0,0,0,0,0,0,0,0,0,0,0,0,0,0,
0,0,0,0,0,0,0,0,0,0,0,0,0,0,0,0,0,0,0,0,0,0,0,0,0,0,0,0,0,0,0,0,0,0,0,0,0,0,0,0,0,0,0,0,0,0,0,0,0,0,0,0,0,0,0,0,0,0,0,0,
0,0,0,0,0,0,0,0,0,0,0,0,0,0,0,0,0,0,0,0,0,0,0,0,0,0,0,0,0,0,0,0,0,0,0,0,0,0,0,0,0,0,0,0,0,0,0,0,0,0,0,0,0,0,0,0,0,0,0,0,
0,0,0,0,0,0,0,0,0,0,0,0,0,0,0,0,0,0,0,0,0,0,0,0,0,0,0,0,0,0,0,0,0,0,0,0,0,0,0,0,0,0,0,0,0,0,0,0,0,0,0,0,0,0,0,0,0,0,0,0,
0,0,0,0,0,0,0,0,0,0,0,0,0,0,0,0,64,0,0,0,0,0,0,0,0,0,0,0,0,0,0,0,0,0,0,0,0,0,0,0,0,0,0,0,0,0,0,0,0,0,0,0,0,0,0,0,0,0,0,0,
0,0,0,0,0,0,0,0,0,0,0,0,0,0,0,0,64,0,0,0,0,0,0,0,64,0,0,0,0,0,0,0,0,0,0,0,0,0,0,0,0,0,0,0,0,0,0,0,0,0,0,0,0,0,0,0,0,0,0,0,
0,0,0,0,0,0,0,0,0,0,0,0,0,0,0,0,64,0,0,0,0,0,0,0,64,0,0,0,0,0,0,0,0,0,0,0,0,0,0,0,0,0,0,0,0,0,0,0,0,0,0,0,0,0,0,0,0,0,0,0,
0,0,0,0,0,0,0,0,0,0,0,0,0,0,0,0,63,0,0,0,0,0,0,0,64,0,0,0,0,0,0,0,0,0,0,0,0,0,0,0,0,0,0,0,0,0,0,0,0,0,0,0,0,0,0,0,0,0,0,0,
0,0,0,0,0,0,0,0,0,0,0,0,0,0,0,0,0,0,0,0,0,0,0,0,63,0,0,0,0,0,0,0,0,0,0,0,0,0,0,0,0,0,0,0,0,0,0,0,0,0,0,0,0,0,0,0,0,0,0,0,
0,0,0,0,0,0,0,0,0,0,0,0,0,0,0,0,0,0,0,0,0,0,0,0,0,0,0,0,0,0,0,0,0,0,0,0,0,0,0,0,0,0,0,0,0,0,0,0,0,0,0,0,0,0,0,0,0,0,0,0,
0,0,0,0,0,0,0,0,0,0,0,0,0,0,0,0,0,0,0,0,0,0,0,0,0,0,0,0,0,0,0,0,0,0,0,0,0,0,0,0,0,0,0,0,0,0,0,0,0,0,0,0,0,0,0,0,0,0,0,0,
0,0,0,0,0,0,0,0,0,0,0,0,0,0,0,0,0,0,0,0,0,0,0,0,0,0,0,0,0,0,0,0,0,0,0,0,0,0,0,0,0,0,0,0,0,0,0,0,0,0,0,0,0,0,0,0,0,0,0,0,
0,0,0,0,0,0,0,0,0,0,0,0,0,0,0,0,0,0,0,0,0,0,0,0,0,0,0,0,0,0,0,0,0,0,0,0,0,0,0,0,0,0,0,0,0,0,0,0,0,0,0,0,0,0,0,0,0,0,0,0,
0,0,0,0,0,0,0,0,0,0,0,0,0,0,0,0,0,0,0,0,0,0,0,0,0,0,0,0,0,0,0,0,0,0,0,0,0,0,0,0,0,0,0,0,0,0,0,0,0,0,0,0,0,0,0,0,0,0,0,0,
0,0,0,0,0,0,0,0,0,0,0,0,0,0,0,0,0,0,0,0,0,0,0,0,0,0,0,0,0,0,0,0,0,0,0,0,0,0,0,0,0,0,0,0,0,0,0,0,0,0,0,0,0,0,0,0,0,0,0,0,
0,0,0,0,0,0,0,0,0,0,0,0,0,0,0,0,0,0,0,0,0,0,0,0,0,0,0,0,0,0,0,0,0,0,0,0,0,0,0,0,0,0,0,0,0,0,0,0,0,0,0,0,0,0,0,0,0,0,0,0,
0,0,0,0,0,0,0,0,0,0,0,0,0,0,0,0,0,0,0,0,0,0,0,0,0,0,0,0,0,0,0,0,0,0,0,0,0,0,0,0,0,0,0,0,0,0,0,0,0,0,0,0,0,0,0,0,0,0,0,0,
0,0,0,0,0,0,0,0,0,0,0,0,0,0,0,0,0,0,0,0,0,0,0,0,0,0,0,0,0,0,0,0,0,0,0,0,0,0,0,0,0,0,0,0,0,0,0,0,0,0,0,0,0,0,0,0,0,0,0,0,
0,0,0,0,0,0,0,0,0,0,0,0,0,0,0,0,0,0,0,0,0,0,0,0,0,0,0,0,0,0,0,0,0,0,0,0,0,0,0,0,0,0,0,0,0,0,0,0,0,0,0,0,0,0,0,0,0,0,0,0,
0,0,0,0,0,0,0,0,0,0,0,0,0,0,0,0,0,0,0,0,0,0,0,0,0,0,0,0,0,0,0,0,0,0,0,0,0,0,0,0,0,0,0,0,0,0,0,0,0,0,0,0,0,0,0,0,0,0,0,0,
0,0,0,0,0,0,0,0,0,0,0,0,0,0,0,0,0,0,0,0,0,0,0,0,0,0,0,0,0,0,0,0,0,0,0,0,0,0,0,0,0,0,0,0,0,0,0,0,0,0,0,0,0,0,0,0,0,0,0,0,
0,0,0,0,0,0,0,0,0,0,0,0,0,0,0,0,0,0,0,0,0,0,0,0,0,0,0,0,0,0,0,0,0,0,0,0,0,0,0,0,0,0,0,0,0,0,0,0,0,0,0,0,0,0,0,0,0,0,0,0,
0,0,0,0,0,0,0,0,0,0,0,0,0,0,0,0,0,0,0,0,0,0,0,0,0,0,0,0,0,0,0,0,0,0,0,0,0,0,0,0,0,0,0,0,0,0,0,0,0,0,0,0,0,0,0,0,0,0,0,0,
0,0,0,0,0,0,0,0,0,0,0,0,0,0,0,0,0,0,0,0,0,0,0,0,0,0,0,0,0,0,0,0,0,0,0,0,0,0,0,0,0,0,0,0,0,0,0,0,0,0,0,0,0,0,0,0,0,0,0,0,
0,0,0,0,0,0,0,0,0,0,0,0,0,0,0,0,0,0,0,0,0,0,0,0,0,0,0,0,0,0,0,0,0,0,0,0,0,0,0,0,0,0,0,0,0,0,0,0,0,0,0,0,0,0,0,0,0,0,0,0,
0,0,0,0,0,0,0,0,0,0,0,0,0,0,0,0,0,0,0,0,0,0,0,0,0,0,0,0,0,0,0,0,0,0,0,0,0,0,0,0,0,0,0,0,0,0,0,0,0,0,0,0,0,0,0,0,0,0,0,0,
0,0,0,0,0,0,0,0,0,0,0,0,0,0,0,0,0,0,0,0,0,0,0,0,0,0,0,0,0,0,0,0,0,0,0,0,0,0,0,0,0,0,0,0,0,0,0,0,0,0,0,0,0,0,0,0,0,0,0,0,
0,0,0,0,0,0,0,0,0,0,0,0,0,0,0,0,0,0,0,0,0,0,0,0,0,0,0,0,0,0,0,0,0,0,0,0,0,0,0,0,0,0,0,0,0,0,0,0,0,0,0,0,0,0,0,0,0,0,0,0,
0,0,0,0,0,0,0,0,0,0,0,0,0,0,0,0,0,0,0,0,0,0,0,0,0,0,0,0,0,0,0,0,0,0,0,0,0,0,0,0,0,0,0,0,0,0,0,0,0,0,0,0,0,0,0,0,0,0,0,0,
0,0,0,0,0,0,0,0,0,0,0,0,0,0,0,0,0,0,0,0,0,0,0,0,0,0,0,0,0,0,0,0,0,0,0,0,0,0,0,0,0,0,0,0,0,0,0,0,0,0,0,0,0,0,0,0,0,0,0,0,
0,0,0,0,0,0,0,0,0,0,0,0,0,0,0,0,0,0,0,0,0,0,0,0,0,0,0,0,0,0,0,0,0,0,0,0,0,0,0,0,0,0,0,0,0,0,0,0,0,0,0,0,0,0,0,0,0,0,0,0,
0,0,0,0,0,0,0,0,0,0,0,0,0,0,0,0,0,0,0,0,0,0,0,0,0,0,0,0,0,0,0,0,0,0,0,0,0,0,0,0,0,0,0,0,0,0,0,0,0,0,0,0,0,0,0,0,0,0,0,0,
0,0,0,0,0,0,0,0,0,0,0,0,0,0,0,0,0,0,0,0,0,0,0,0,0,0,0,0,0,0,0,0,0,0,0,0,0,0,0,0,0,0,0,0,0,0,0,0,0,0,0,0,0,0,0,0,0,0,0,0,
0,0,0,0,0,0,0,0,0,0,0,0,0,0,0,0,0,0,0,0,0,0,0,0,0,0,0,0,0,0,0,0,0,0,0,0,0,0,0,0,0,0,0,0,0,0,0,0,0,0,0,0,0,0,0,0,0,0,0,0,
0,0,0,0,0,0,0,0,0,0,0,0,0,0,0,0,0,0,0,0,0,0,0,0,0,0,0,0,0,0,0,0,0,0,0,0,0,0,0,0,0,0,0,0,0,0,0,0,0,0,0,0,0,0,0,0,0,0,0,0,
0,0,0,0,0,0,0,0,0,0,0,0,0,0,0,0,0,0,0,0,0,0,0,0,0,0,0,0,0,0,0,0,0,0,0,0,0,0,64,0,0,0,0,0,0,0,0,0,0,0,0,0,0,0,0,0,0,0,0,0,
0,0,0,0,0,0,0,0,0,0,0,0,0,0,0,0,0,0,0,0,0,0,0,0,0,0,0,0,0,0,0,0,0,0,0,0,0,0,64,0,0,0,0,0,0,0,0,0,0,0,0,0,0,0,0,0,0,0,0,0,
0,0,0,0,0,0,0,0,0,0,0,0,0,0,0,0,0,0,0,0,0,0,0,0,0,0,0,0,0,0,0,0,0,0,0,0,0,0,64,0,0,0,0,0,0,0,0,0,0,0,0,0,0,0,0,0,0,0,0,0,
0,0,0,0,0,0,0,0,0,0,0,0,0,0,0,0,0,0,0,0,0,0,0,0,0,0,0,0,0,0,0,0,0,0,0,0,0,0,64,0,0,0,0,0,0,0,0,0,0,0,0,0,0,0,0,0,0,0,0,0,
0,0,0,0,0,0,0,0,0,0,0,0,0,0,0,0,0,0,0,0,0,0,0,0,0,0,0,0,0,0,0,0,0,0,0,0,0,0,64,0,0,0,0,0,0,0,0,0,0,0,0,0,0,0,0,0,0,0,0,0,
0,0,0,0,0,0,0,0,0,0,0,0,0,0,0,0,0,0,0,0,0,0,0,0,0,0,0,0,0,0,0,0,0,0,0,0,0,0,64,0,0,0,0,0,0,0,0,0,0,0,0,0,0,0,0,0,0,0,0,0,
0,0,0,0,0,0,0,0,0,0,0,0,0,0,0,0,0,0,0,0,0,0,0,0,0,0,0,0,0,0,0,0,0,0,0,0,0,0,64,0,0,0,0,0,0,0,0,0,0,0,0,0,0,0,0,0,0,0,0,0,
0,0,0,0,0,0,0,0,0,0,0,0,0,0,0,0,0,0,0,0,0,0,0,0,0,0,0,0,0,0,0,0,0,0,0,0,0,0,64,0,0,0,0,0,0,0,0,0,0,0,0,0,0,0,0,0,0,0,0,0,
0,0,0,0,0,0,0,0,0,0,0,0,0,0,0,0,0,0,0,0,0,0,0,0,0,0,0,0,0,0,0,0,0,0,0,0,0,0,63,0,0,0,0,0,0,0,0,0,0,0,0,0,0,0,0,0,0,0,0,0,
0,0,0,0,0,0,0,0,0,0,0,0,0,0,0,0,0,0,0,0,0,0,0,0,0,0,0,0,0,0,0,0,0,64,0,0,0,0,0,0,0,0,0,0,0,0,0,0,0,0,0,0,0,0,0,0,0,0,0,0,
0,0,0,0,0,0,0,0,0,0,0,0,0,0,0,0,0,0,0,0,0,0,0,0,0,0,0,0,0,0,0,0,0,64,0,0,0,0,0,0,0,0,0,0,0,0,0,0,0,0,0,0,0,0,0,0,0,0,0,0,
0,0,0,0,0,0,0,0,0,0,0,0,0,0,0,0,0,0,0,0,0,0,0,0,0,0,0,0,0,0,0,0,0,63,0,0,0,0,0,0,0,0,0,0,0,0,0,0,0,0,0,0,0,0,0,0,0,0,0,0,
0,0,0,0,0,0,0,0,0,0,0,0,0,0,0,0,0,0,0,0,0,0,0,0,0,0,0,0,0,0,0,0,0,0,0,0,0,0,0,0,0,0,0,0,0,0,0,0,0,0,0,0,0,0,0,0,0,0,0,0,
0,0,0,0,0,0,0,0,0,0,0,0,0,0,0,0,0,0,0,0,0,0,0,0,0,0,0,0,0,0,0,0,0,0,0,0,0,0,0,0,0,0,0,0,0,0,0,0,0,0,0,0,0,0,0,0,0,0,0,0,
0,0,0,0,0,0,0,0,0,0,0,0,0,0,0,0,0,0,0,0,0,0,0,0,0,0,0,0,0,0,0,0,0,0,0,0,0,0,0,0,0,0,0,0,0,0,0,0,0,0,0,0,0,0,0,0,0,0,0,0,
0,0,0,0,0,0,0,0,0,0,0,0,0,0,0,0,0,0,0,0,0,0,0,0,0,0,0,0,0,0,0,0,0,0,0,0,0,0,0,0,0,0,0,0,0,0,0,0,0,0,0,0,0,0,0,0,0,0,0,0
</data>
 </layer>
 <layer id="24" name="object_upper" width="60" height="60">
  <data encoding="csv">
0,0,0,0,0,0,0,0,0,0,0,0,0,0,0,0,0,0,0,0,0,0,0,0,0,0,0,0,0,0,0,0,0,0,0,0,0,0,0,0,0,0,0,0,0,0,0,0,0,0,0,0,0,0,0,0,0,0,0,0,
0,0,0,0,0,0,0,0,0,0,0,0,0,0,0,0,0,0,0,0,0,0,0,0,0,0,0,0,0,0,0,0,0,0,0,0,0,0,0,0,0,0,0,0,0,0,0,0,0,0,0,0,0,0,0,0,0,0,0,0,
0,0,0,0,0,0,0,0,0,0,0,0,0,0,0,0,0,0,0,0,0,0,0,0,0,0,0,0,0,0,0,0,0,0,0,0,0,0,0,0,0,0,0,0,0,0,0,0,0,0,0,0,0,0,0,0,0,0,0,0,
0,0,0,0,0,0,0,0,0,0,0,0,0,0,0,0,0,0,0,0,0,0,0,0,0,0,0,0,0,0,0,0,0,0,0,0,0,0,0,0,0,0,0,0,0,0,0,0,0,0,0,0,0,0,0,0,0,0,0,0,
0,0,0,0,0,0,0,0,0,0,0,0,0,0,0,0,0,0,0,0,0,0,0,0,0,0,0,0,0,0,0,0,0,0,0,0,0,0,0,0,0,0,0,0,0,0,0,0,0,0,0,0,0,0,0,0,0,0,0,0,
0,0,0,0,0,0,0,0,0,0,0,0,0,0,0,0,0,0,0,0,0,0,0,0,0,0,0,0,0,0,0,0,0,0,0,0,0,0,0,0,0,0,0,0,0,0,0,0,0,0,0,0,0,0,0,0,0,0,0,0,
1225,1226,1227,0,0,0,0,0,0,0,0,0,0,0,0,0,0,0,0,0,0,0,0,0,0,0,0,0,0,0,0,0,0,0,0,0,0,0,0,0,0,0,0,0,0,0,0,0,0,0,0,0,0,0,0,0,0,0,0,0,
1228,1229,1230,0,0,0,0,0,0,0,0,0,0,0,0,0,0,0,0,0,0,0,0,0,0,0,0,0,0,0,0,0,0,0,0,0,0,0,0,0,0,0,0,0,0,0,0,0,0,0,0,0,0,0,0,0,0,0,0,0,
1231,1232,1233,0,0,0,0,0,0,0,0,0,0,0,0,0,0,0,0,0,0,0,0,0,0,0,365,366,0,0,0,0,0,365,366,0,0,0,0,0,0,0,0,0,0,0,0,0,0,0,0,0,0,0,0,0,0,326,327,328,
0,0,0,0,0,0,0,0,0,0,0,0,0,0,0,0,0,0,0,0,0,0,0,0,0,0,0,0,0,0,0,0,0,0,0,0,0,0,0,0,0,0,0,0,0,0,0,0,0,0,0,0,0,0,0,0,0,334,335,336,
326,327,328,0,0,0,0,0,0,0,0,0,0,0,0,0,0,0,0,0,0,0,0,0,1199,1200,1201,0,0,0,0,0,0,0,0,0,0,0,0,0,0,0,0,0,0,0,0,0,0,0,0,0,0,0,0,0,0,342,343,344,
334,335,336,0,0,0,0,0,0,1157,0,0,0,0,0,0,0,0,0,0,0,0,0,0,1202,1203,1204,0,0,0,0,0,0,0,0,0,0,0,0,0,0,0,0,0,0,0,0,0,0,0,0,0,0,0,0,0,0,0,0,0,
342,343,344,0,0,0,0,0,0,0,0,0,0,0,0,0,0,0,0,0,0,0,0,0,1205,1206,1207,0,0,0,0,0,0,0,0,0,0,0,0,0,0,0,0,0,0,0,0,0,0,0,1192,0,0,0,0,0,0,326,327,328,
0,0,0,0,0,0,0,0,0,0,0,0,0,0,0,0,0,0,0,0,0,0,0,0,0,0,0,0,0,0,0,0,0,0,0,0,0,0,0,0,0,0,0,0,0,0,0,0,0,0,0,0,0,0,0,0,0,334,335,336,
1225,1226,1227,0,0,0,0,0,0,0,0,0,0,0,326,327,328,0,0,0,0,0,0,0,0,0,365,366,0,0,0,0,0,365,366,0,0,0,0,0,0,0,0,0,0,0,0,0,0,0,0,0,0,0,0,0,0,342,343,344,
1228,1229,1230,0,0,0,0,0,0,0,0,0,0,0,334,335,336,0,0,0,0,0,326,327,328,0,0,0,0,0,0,0,0,0,0,0,0,0,0,0,0,0,0,0,0,0,0,0,0,0,0,0,0,0,0,0,0,0,0,0,
1231,1232,1233,0,0,1157,0,0,0,0,0,0,0,0,342,343,344,0,0,0,0,0,334,335,336,0,0,0,0,0,0,0,0,0,0,0,0,0,0,0,0,0,0,0,0,0,0,0,0,0,0,0,0,0,0,0,0,326,327,328,
0,0,0,0,0,0,0,0,0,0,0,0,0,0,0,0,0,0,0,0,0,0,342,343,344,0,0,0,0,0,0,0,0,0,0,0,0,0,0,0,0,0,0,0,0,0,0,0,0,0,0,0,0,0,0,0,0,334,335,336,
326,327,328,0,0,0,0,0,0,0,0,0,0,0,0,0,0,0,0,0,0,0,0,0,0,0,0,0,0,0,0,0,0,0,0,0,0,0,0,0,0,0,0,0,0,0,0,0,0,0,0,0,0,0,0,0,0,342,343,344,
334,335,336,0,0,0,0,0,0,0,0,0,0,0,0,0,0,0,0,0,0,0,0,0,0,0,0,0,0,0,0,0,0,0,0,0,0,0,0,0,0,0,0,0,0,0,0,0,0,0,0,0,0,0,0,0,0,0,0,0,
342,343,344,0,0,0,0,0,0,0,0,0,0,0,0,0,0,0,0,0,0,0,0,0,0,0,365,366,0,0,0,0,0,365,366,0,0,0,0,0,0,0,0,0,1187,1188,0,0,0,0,0,0,0,0,0,0,0,326,327,328,
0,0,0,0,0,0,0,0,0,0,0,0,0,0,0,0,0,0,0,0,0,0,0,0,372,373,374,0,0,0,0,0,0,0,0,0,0,0,0,0,0,0,0,0,0,0,0,0,0,0,0,0,0,0,0,0,0,334,335,336,
1225,1226,1227,0,0,0,0,0,0,0,0,0,0,0,0,0,0,0,0,0,0,0,0,0,380,381,382,0,0,0,0,0,0,0,0,0,0,0,0,0,0,0,0,0,0,0,0,0,0,0,0,0,0,0,0,0,0,342,343,344,
1228,1229,1230,0,0,0,0,0,0,0,0,0,0,0,0,0,0,0,0,0,0,0,0,0,388,389,390,0,0,0,0,0,0,0,0,0,0,0,0,0,0,0,0,0,0,0,0,0,0,0,0,0,0,0,0,0,0,0,0,0,
1231,1232,1233,0,0,0,0,0,0,0,0,0,0,0,0,0,0,0,0,0,0,0,0,0,0,0,0,0,0,0,0,0,0,0,0,0,0,0,0,0,0,0,0,0,0,0,326,0,0,0,0,0,0,0,0,0,0,326,327,328,
0,0,0,0,0,0,0,0,0,1157,0,0,0,0,0,0,0,0,0,0,0,0,0,0,0,0,0,0,0,0,0,0,0,0,0,0,0,0,0,0,0,0,0,0,0,0,334,0,0,0,0,0,0,0,0,0,0,334,335,336,
326,327,328,0,0,0,0,0,0,0,0,0,0,0,0,0,0,0,0,0,0,0,0,0,0,0,0,0,0,0,0,0,0,0,0,0,0,0,0,0,0,0,0,401,402,403,342,0,0,0,0,0,0,0,0,0,0,342,343,344,
334,335,336,0,0,0,0,0,0,0,0,0,0,0,0,0,0,0,0,0,0,0,0,0,0,365,366,0,0,0,0,0,0,0,0,0,365,366,0,0,0,0,0,0,410,0,0,0,0,0,0,0,0,0,0,0,0,0,0,0,
342,343,344,0,0,0,0,0,0,0,0,0,0,0,0,0,0,0,0,0,0,0,0,0,0,0,0,0,0,0,0,1253,1254,0,0,0,0,0,0,0,0,0,0,0,0,0,0,0,0,0,0,0,0,0,0,0,0,326,327,328,
0,0,0,0,0,1157,0,0,0,0,0,0,0,0,0,0,0,0,0,0,0,0,0,0,0,0,0,0,0,0,0,0,0,0,0,0,0,0,0,0,0,0,0,0,0,0,0,0,0,0,0,0,0,0,0,0,0,334,335,336,
1225,1226,1227,0,0,0,0,0,0,0,0,0,0,0,0,0,0,0,0,0,0,0,0,0,0,0,0,0,0,0,0,0,0,0,0,0,0,0,0,0,0,0,0,0,0,0,0,0,0,0,0,0,0,0,0,0,0,342,343,344,
1228,1229,1230,0,0,0,0,0,0,0,0,0,0,0,0,0,0,0,0,0,0,0,0,0,0,0,0,0,0,0,0,0,0,0,0,0,0,0,0,0,0,0,0,0,0,0,0,0,0,0,0,0,0,0,0,0,0,0,0,0,
1231,1232,1233,0,0,0,0,0,0,0,0,0,0,0,0,0,0,0,0,0,0,0,0,0,0,0,0,0,0,0,0,0,0,0,0,0,0,0,0,0,0,0,0,0,0,0,0,0,0,0,0,0,0,0,0,0,0,326,327,328,
0,0,0,0,0,0,0,0,0,1157,0,0,0,0,0,0,0,0,0,0,0,0,0,0,0,365,366,0,0,0,0,0,0,0,0,0,0,365,366,0,0,0,0,0,0,0,0,0,0,0,0,0,0,0,0,0,0,334,335,336,
326,327,328,0,0,0,0,0,0,0,0,0,0,0,0,0,0,0,0,0,0,0,0,0,0,0,0,0,0,0,0,0,0,0,0,0,0,0,0,0,0,0,0,0,0,0,326,0,0,0,0,0,0,0,0,0,0,342,343,344,
334,335,336,0,0,0,0,0,0,0,0,0,0,0,0,0,0,0,0,0,0,0,0,0,0,0,0,0,0,0,0,0,0,0,0,0,0,0,0,0,0,0,0,0,0,0,334,0,0,0,0,0,0,0,0,0,0,0,0,0,
342,343,344,0,0,0,0,0,0,0,0,0,0,0,0,0,0,0,0,0,0,0,0,0,0,0,0,0,0,0,0,0,0,0,0,0,0,0,0,0,0,0,0,401,402,403,342,0,0,0,0,0,0,0,0,0,0,326,327,328,
0,0,0,0,0,0,0,0,0,0,0,0,0,0,0,0,0,0,0,0,0,0,0,0,0,0,0,0,0,0,0,0,0,0,0,0,0,0,0,0,0,0,0,0,410,0,0,0,0,0,0,0,0,0,0,0,0,334,335,336,
1225,1226,1227,0,0,0,0,0,0,0,0,0,0,0,0,0,0,0,0,0,0,0,0,0,0,0,0,365,366,0,0,0,0,0,0,0,0,0,0,0,0,0,0,0,0,0,0,0,0,0,0,0,0,0,0,0,0,342,343,344,
1228,1229,1230,0,0,0,0,0,0,0,0,0,0,0,0,0,0,0,0,0,0,0,0,0,0,0,0,0,0,0,0,0,0,0,0,0,0,0,0,0,0,0,0,0,0,0,0,0,0,0,0,0,0,0,0,0,0,0,0,0,
1231,1232,1233,0,0,0,0,0,0,0,0,0,1213,1214,1215,0,0,0,0,0,0,0,0,0,0,0,0,0,0,0,0,0,0,0,0,0,0,0,0,0,0,0,0,0,0,0,0,0,0,0,0,0,0,0,0,0,0,326,327,328,
0,0,0,0,0,0,0,0,0,0,0,0,1216,1217,1218,0,1225,1226,1227,0,0,0,0,0,0,0,0,0,0,0,0,0,0,0,0,0,0,0,0,0,0,0,0,0,0,0,0,0,0,0,0,0,0,0,0,0,0,334,335,336,
326,327,328,0,0,0,0,0,0,0,0,0,1219,1220,1221,0,1228,1229,1230,0,1237,1238,0,0,0,0,0,0,0,0,0,0,0,0,0,0,0,0,0,0,0,0,0,0,0,0,0,0,0,0,0,0,0,0,0,0,0,342,343,344,
334,335,336,0,0,0,0,0,0,0,0,0,0,0,0,0,1231,1232,1233,0,1239,1240,0,0,0,0,0,0,0,0,0,0,0,0,0,0,0,0,0,0,0,0,0,0,0,0,0,0,0,0,0,0,0,0,0,0,0,0,0,0,
342,343,344,0,0,0,0,0,0,0,0,0,0,0,0,0,0,0,0,0,1241,1242,0,0,0,0,0,0,0,0,0,0,0,0,0,0,0,0,0,0,0,0,0,0,0,0,0,0,0,0,0,0,0,0,0,0,0,326,327,328,
0,0,0,0,0,0,0,0,0,0,0,0,1213,1214,1215,0,0,0,0,0,0,0,0,0,0,0,0,0,0,0,0,0,0,0,0,0,0,0,0,0,0,0,0,0,0,0,0,0,0,0,0,0,0,0,0,0,0,334,335,336,
1225,1226,1227,0,0,0,0,0,0,0,0,0,1216,1217,1218,0,1225,1226,1227,0,0,0,0,0,0,0,0,0,0,0,0,0,0,0,0,0,0,0,0,0,0,0,0,0,0,0,0,0,0,0,0,0,0,0,0,0,0,342,343,344,
1228,1229,1230,0,0,0,0,0,0,0,0,0,1219,1220,1221,0,1228,1229,1230,0,1237,1238,0,0,0,0,0,0,0,0,0,0,0,0,0,0,0,0,0,0,0,0,0,0,0,0,0,0,0,0,0,0,0,0,0,0,0,0,0,0,
1231,1232,1233,0,0,0,0,0,0,0,0,0,0,0,0,0,1231,1232,1233,0,1239,1240,0,0,0,0,0,0,0,0,0,0,0,0,0,0,0,0,0,0,0,0,1153,1154,0,1176,1177,0,0,0,0,0,0,0,0,0,0,326,327,328,
0,0,0,0,0,0,0,0,0,0,0,0,0,0,0,0,0,0,0,0,1241,1242,0,0,0,0,0,0,0,0,0,0,0,0,0,0,0,0,0,0,0,0,0,0,0,0,0,0,1168,1169,0,0,0,0,0,0,0,334,335,336,
326,327,328,0,0,0,0,0,0,0,0,0,1213,1214,1215,0,1225,1226,1227,0,0,0,0,0,0,0,0,0,0,0,0,0,0,0,0,0,0,0,0,0,0,0,0,0,0,0,0,0,0,0,0,0,0,0,0,0,0,342,343,344,
334,335,336,0,0,0,0,0,0,0,0,0,1216,1217,1218,0,1228,1229,1230,0,0,0,0,0,0,0,0,0,0,0,0,0,0,0,0,0,0,0,0,0,0,0,0,0,0,1172,1173,0,0,0,0,0,0,0,0,0,0,0,0,0,
342,343,344,0,0,0,0,0,0,0,0,0,1219,1220,1221,0,1231,1232,1233,0,0,0,0,0,0,0,0,0,0,0,0,0,0,0,0,0,0,0,0,0,0,0,0,0,0,0,0,0,0,0,0,0,0,0,0,0,0,326,327,328,
0,0,0,0,0,0,0,0,0,0,0,0,0,0,0,0,0,0,0,0,0,0,0,0,0,0,0,0,0,0,0,0,0,0,0,0,0,0,0,0,0,0,0,0,0,0,0,0,0,0,0,0,0,0,0,0,0,334,335,336,
1225,1226,1227,0,0,0,0,0,0,0,0,0,0,0,0,0,0,0,0,0,0,0,0,0,0,0,0,0,0,0,0,0,0,0,0,0,0,0,0,0,0,0,0,0,0,0,0,0,0,0,0,0,0,0,0,0,0,342,343,344,
1228,1229,1230,0,0,0,0,0,0,0,0,0,0,0,0,0,0,0,0,0,0,0,0,0,0,0,0,0,0,0,0,0,0,0,0,0,0,0,0,0,0,0,0,0,0,0,0,0,0,0,0,0,0,0,0,0,0,0,0,0,
1231,1232,326,327,328,0,326,327,328,0,326,327,328,0,326,327,328,0,326,327,328,0,0,0,0,0,0,0,0,0,0,0,0,0,0,0,0,0,0,0,0,0,326,327,328,0,326,327,328,0,326,327,328,0,326,327,328,0,0,0,
0,0,334,335,336,0,334,335,336,0,334,335,336,0,334,335,336,0,334,335,336,0,0,0,0,0,0,0,0,0,0,0,0,0,0,0,0,0,0,0,0,0,334,335,336,0,334,335,336,0,334,335,336,0,334,335,336,0,0,0,
0,0,342,343,344,0,342,343,344,0,342,343,344,0,342,343,344,0,342,343,344,0,0,0,0,0,0,0,0,0,0,0,0,0,0,0,0,0,0,0,0,0,342,343,344,0,342,343,344,0,342,343,344,0,342,343,344,0,0,0,
0,0,0,0,0,0,0,0,0,0,0,0,0,0,0,0,0,0,0,0,0,0,0,0,0,0,0,0,0,0,0,0,0,0,0,0,0,0,0,0,0,0,0,0,0,0,0,0,0,0,0,0,0,0,0,0,0,0,0,0
</data>
 </layer>
 <layer id="25" name="deco" width="60" height="60">
  <data encoding="csv">
0,0,0,0,0,0,0,0,0,0,0,0,0,0,0,0,0,0,0,0,0,0,0,0,0,0,0,0,0,0,0,0,0,0,0,0,0,0,0,0,0,0,0,0,0,0,0,0,0,0,0,0,0,0,0,0,0,0,0,0,
0,0,0,0,0,0,0,0,0,0,0,0,0,0,0,0,0,0,0,0,0,0,0,0,0,0,0,0,0,0,0,0,0,0,0,0,0,0,0,0,0,0,0,0,0,0,0,0,0,0,0,0,0,0,0,0,0,0,0,0,
0,0,0,0,0,0,0,0,0,0,0,0,0,0,0,0,0,0,0,0,0,0,0,0,0,0,0,0,0,0,0,0,0,0,0,0,0,0,0,0,0,0,0,0,0,0,0,0,0,0,0,0,0,0,0,0,0,0,0,0,
0,0,0,0,0,0,0,0,0,0,0,0,0,0,0,0,0,0,0,0,0,0,0,0,0,0,0,0,0,0,0,0,0,0,0,0,0,0,0,0,0,0,0,0,0,0,0,0,0,0,0,0,0,0,0,0,0,0,0,0,
0,0,0,0,0,0,0,0,0,0,0,0,0,0,0,0,0,0,0,0,0,0,0,0,0,0,0,0,0,0,0,0,0,0,0,0,0,0,0,0,0,0,0,0,0,0,0,0,0,0,0,0,0,0,0,0,0,0,0,0,
0,0,0,0,0,0,0,0,0,0,0,0,0,0,0,0,0,0,0,0,0,0,0,0,0,0,0,0,0,0,0,0,0,0,0,0,0,0,0,0,0,0,0,0,0,0,0,0,0,0,0,0,0,0,0,0,0,0,0,0,
0,0,0,0,0,0,0,0,0,0,0,0,0,0,0,0,0,0,0,0,0,0,0,0,0,0,0,0,0,0,0,0,0,0,0,0,0,0,0,0,0,0,0,0,0,0,0,0,0,0,0,0,0,0,0,0,0,0,0,0,
0,0,0,0,0,0,0,0,0,0,0,0,0,0,0,0,0,0,0,0,0,0,0,0,0,0,0,0,0,0,0,0,0,0,0,0,0,0,0,0,0,0,0,0,0,0,0,0,0,0,0,0,0,0,0,0,0,0,0,0,
0,0,0,0,0,0,0,0,0,0,0,0,0,0,0,0,0,0,0,0,0,0,0,0,0,0,0,0,0,0,0,0,0,0,0,0,0,0,0,0,0,0,0,0,0,0,0,0,0,0,0,0,0,0,0,0,0,0,0,0,
0,0,0,0,0,0,0,0,0,0,0,0,0,0,0,0,0,0,0,0,0,0,0,0,0,0,0,0,0,0,0,0,0,0,0,0,0,0,0,0,0,0,0,0,0,0,0,0,0,0,0,0,0,0,0,0,0,0,0,0,
0,0,0,0,0,0,0,0,0,0,0,0,0,0,0,0,0,0,0,0,0,0,0,0,0,0,0,0,0,0,0,0,0,0,0,0,0,0,0,0,0,0,0,0,0,0,0,0,0,0,0,0,0,0,0,0,0,0,0,0,
0,0,0,0,0,0,0,0,0,0,0,0,0,0,0,0,0,0,0,0,0,0,0,0,0,0,0,0,0,0,0,0,0,0,0,0,0,0,0,0,0,0,0,0,0,0,0,0,0,0,0,0,0,0,0,0,0,0,0,0,
0,0,0,0,0,0,0,0,0,0,0,0,0,0,0,0,0,0,0,0,0,0,0,0,0,0,0,0,0,0,0,0,0,0,0,0,0,0,0,0,0,0,0,0,0,0,0,0,0,0,0,0,0,0,0,0,0,0,0,0,
0,0,0,0,0,0,0,0,0,0,0,0,0,5,5,0,0,0,0,0,0,0,0,0,0,0,0,0,0,0,0,0,0,0,0,0,0,0,0,0,0,0,0,0,0,0,0,0,0,0,0,0,0,0,0,0,0,0,0,0,
0,0,0,0,0,0,0,0,0,0,0,0,0,29,13,0,0,0,0,0,0,5,5,0,0,0,0,0,0,0,0,0,0,0,0,0,0,0,0,0,0,0,0,0,0,0,0,0,0,0,0,0,0,0,0,0,0,0,0,0,
0,0,0,0,0,0,0,0,0,0,0,0,0,0,0,0,0,0,0,0,0,29,13,0,0,0,0,0,0,0,0,0,0,0,0,0,0,0,0,0,0,0,0,0,0,0,0,0,0,0,0,0,0,0,0,0,0,0,0,0,
0,0,0,0,0,0,0,0,0,0,0,0,0,0,0,0,0,0,0,0,0,0,0,0,0,0,0,0,0,0,0,0,0,0,0,0,0,0,0,0,0,0,0,0,0,0,0,0,0,0,0,0,0,0,0,0,0,0,0,0,
0,0,0,0,0,0,0,0,0,0,0,0,0,0,0,0,0,0,0,0,0,0,0,0,0,0,0,0,0,0,0,0,0,0,0,0,0,0,0,0,0,0,0,0,0,0,0,0,0,0,0,0,0,0,0,0,0,0,0,0,
0,0,0,0,0,0,0,0,0,0,0,0,0,0,0,0,0,0,0,0,0,0,0,0,0,0,0,0,0,0,0,0,0,0,0,0,0,0,0,0,0,0,0,0,0,0,0,0,0,0,0,0,0,0,0,0,0,0,0,0,
0,0,0,0,0,0,0,0,0,0,0,0,0,0,0,0,0,0,0,0,0,0,0,0,0,0,0,0,0,0,0,0,0,0,0,0,0,0,0,0,0,0,0,0,0,0,0,0,0,0,0,0,0,0,0,0,0,0,0,0,
0,0,0,0,0,0,0,0,0,0,0,0,0,0,0,0,0,0,0,0,0,0,0,0,0,0,0,0,0,0,0,0,0,0,0,0,0,0,0,0,0,0,0,0,0,0,0,0,0,0,0,0,0,0,0,0,0,0,0,0,
0,0,0,0,0,0,0,0,0,0,0,0,0,0,0,0,0,0,0,0,0,0,0,0,0,0,0,0,0,0,0,0,0,0,0,0,0,0,0,0,0,0,0,0,0,0,0,0,0,0,0,0,0,0,0,0,0,0,0,0,
0,0,0,0,0,0,0,0,0,0,0,0,0,0,0,0,0,0,0,0,0,0,0,0,0,0,0,0,0,0,0,0,0,0,0,0,0,0,0,0,0,0,0,0,0,0,0,0,0,0,0,0,0,0,0,0,0,0,0,0,
0,0,0,0,0,0,0,0,0,0,0,0,0,0,0,0,0,0,0,0,0,0,0,0,0,0,0,0,0,0,0,0,0,0,0,0,0,0,0,0,0,0,0,0,0,0,0,0,0,0,0,0,0,0,0,0,0,0,0,0,
0,0,0,0,0,0,0,0,0,0,0,0,0,0,0,0,0,0,0,0,0,0,0,0,0,0,0,0,0,0,0,0,0,0,0,0,0,0,0,0,0,0,0,0,0,0,0,0,0,0,0,0,0,0,0,0,0,0,0,0,
0,0,0,0,0,0,0,0,0,0,0,0,0,0,0,0,0,0,0,0,0,0,0,0,0,0,0,0,0,0,0,0,0,0,0,0,0,0,0,0,0,0,0,0,0,0,0,0,0,0,0,0,0,0,0,0,0,0,0,0,
0,0,0,0,0,0,0,0,0,0,0,0,0,0,0,0,0,0,0,0,0,0,0,0,0,0,0,0,0,0,0,0,0,0,0,0,0,0,0,0,0,0,0,0,0,0,0,0,0,0,0,0,0,0,0,0,0,0,0,0,
0,0,0,0,0,0,0,0,0,0,0,0,0,0,0,0,0,0,0,0,0,0,0,0,0,0,0,0,0,0,0,0,0,0,0,0,0,0,0,0,0,0,0,0,0,0,0,0,0,0,0,0,0,0,0,0,0,0,0,0,
0,0,0,0,0,0,0,0,0,0,0,0,0,0,0,0,0,0,0,0,0,0,0,0,0,0,0,0,0,0,0,0,0,0,0,0,0,0,0,0,0,0,0,0,0,0,0,0,0,0,0,0,0,0,0,0,0,0,0,0,
0,0,0,0,0,0,0,0,0,0,0,0,0,0,0,0,0,0,0,0,0,0,0,0,0,0,0,0,0,0,0,0,0,0,0,0,0,0,0,0,0,0,0,0,0,0,0,0,0,0,0,0,0,0,0,0,0,0,0,0,
0,0,0,0,0,0,0,0,0,0,0,0,0,0,0,0,0,0,0,0,0,0,0,0,0,0,0,0,0,0,0,0,0,0,0,0,0,0,0,0,0,0,0,0,0,0,0,0,0,0,0,0,0,0,0,0,0,0,0,0,
0,0,0,0,0,0,0,0,0,0,0,0,0,0,0,0,0,0,0,0,0,0,0,0,0,0,0,0,0,0,0,0,0,0,0,0,0,0,0,0,0,0,0,0,0,0,0,0,0,0,0,0,0,0,0,0,0,0,0,0,
0,0,0,0,0,0,0,0,0,0,0,0,0,0,0,0,0,0,0,0,0,0,0,0,0,0,0,0,0,0,0,0,0,0,0,0,0,0,0,0,0,0,0,0,0,0,0,0,0,0,0,0,0,0,0,0,0,0,0,0,
0,0,0,0,0,0,0,0,0,0,0,0,0,0,0,0,0,0,0,0,0,0,0,0,0,0,0,0,0,0,0,0,0,0,0,0,0,0,0,0,0,0,0,0,0,0,0,0,0,0,0,0,0,0,0,0,0,0,0,0,
0,0,0,0,0,0,0,0,0,0,0,0,0,0,0,0,0,0,0,0,0,0,0,0,0,0,0,0,0,0,0,0,0,0,0,0,0,0,0,0,0,0,0,0,0,0,0,0,0,0,0,0,0,0,0,0,0,0,0,0,
0,0,0,0,0,0,0,0,0,0,0,0,0,0,0,0,0,0,0,0,0,0,0,0,0,0,0,0,0,0,0,0,0,0,0,0,0,0,0,0,0,0,0,0,0,0,0,0,0,0,0,0,0,0,0,0,0,0,0,0,
0,0,0,0,0,0,0,0,0,0,0,0,0,0,0,0,0,0,0,0,0,0,0,0,0,0,0,0,0,0,0,0,0,0,0,0,0,0,0,0,0,0,0,0,0,0,0,0,0,0,0,0,0,0,0,0,0,0,0,0,
0,0,0,0,0,0,0,0,0,0,0,0,0,0,0,0,0,0,0,0,0,0,0,0,0,0,0,0,0,0,0,0,0,0,0,0,0,0,0,0,0,0,0,0,0,0,0,0,0,0,0,0,0,0,0,0,0,0,0,0,
0,0,0,0,0,0,0,0,0,0,0,0,0,0,0,0,0,0,0,0,0,0,0,0,0,0,0,0,0,0,0,0,0,0,0,0,0,0,0,0,0,0,0,0,0,0,0,0,0,0,0,0,0,0,0,0,0,0,0,0,
0,0,0,0,0,0,0,0,0,0,0,0,0,0,0,0,0,0,0,0,0,0,0,0,0,0,0,0,0,0,0,0,0,0,0,0,0,0,0,0,0,0,0,0,0,0,0,0,0,0,0,0,0,0,0,0,0,0,0,0,
0,0,0,0,0,0,0,0,0,0,0,0,0,0,0,0,0,0,0,0,0,0,0,0,0,0,0,0,0,0,0,0,0,0,0,0,0,0,0,0,0,0,0,0,0,0,0,0,0,0,0,0,0,0,0,0,0,0,0,0,
0,0,0,0,0,0,0,0,0,0,0,0,0,0,0,0,0,0,0,0,0,0,0,0,0,0,0,0,0,0,0,0,0,0,0,0,0,0,0,0,0,0,0,0,0,0,0,0,0,0,0,0,0,0,0,0,0,0,0,0,
0,0,0,0,0,0,0,0,0,0,0,0,0,0,0,0,0,0,0,0,0,0,0,0,0,0,0,0,0,0,0,0,0,0,0,0,0,0,0,0,0,0,0,0,0,0,0,0,0,0,0,0,0,0,0,0,0,0,0,0,
0,0,0,0,0,0,0,0,0,0,0,0,0,0,0,0,0,0,0,0,0,0,0,0,0,0,0,0,0,0,0,0,0,0,0,0,0,0,0,0,0,0,0,0,0,0,0,0,0,0,0,0,0,0,0,0,0,0,0,0,
0,0,0,0,0,0,0,0,0,0,0,0,0,0,0,0,0,0,0,0,0,0,0,0,0,0,0,0,0,0,0,0,0,0,0,0,0,0,0,0,0,0,0,0,0,0,0,0,0,0,0,0,0,0,0,0,0,0,0,0,
0,0,0,0,0,0,0,0,0,0,0,0,0,0,0,0,0,0,0,0,0,0,0,0,0,0,0,0,0,0,0,0,0,0,0,0,0,0,0,0,0,0,0,0,0,0,0,0,0,0,0,0,0,0,0,0,0,0,0,0,
0,0,0,0,0,0,0,0,0,0,0,0,0,0,0,0,0,0,0,0,0,0,0,0,0,0,0,0,0,0,0,0,0,0,0,0,0,0,0,0,0,0,0,0,0,0,0,0,0,0,0,0,0,0,0,0,0,0,0,0,
0,0,0,0,0,0,0,0,0,0,0,0,0,0,0,0,0,0,0,0,0,0,0,5,0,5,0,0,0,0,0,0,0,0,5,0,5,0,0,0,0,0,0,0,0,0,0,0,0,0,0,0,0,0,0,0,0,0,0,0,
0,0,0,0,0,0,0,0,0,0,0,0,0,0,0,0,0,0,0,0,0,0,0,13,0,13,0,0,0,0,0,0,0,0,13,0,13,0,0,0,0,0,0,0,0,0,0,0,0,0,0,0,0,0,0,0,0,0,0,0,
0,0,0,0,0,0,0,0,0,0,0,0,0,0,0,0,0,0,0,0,0,0,0,5,0,5,0,0,20,0,0,20,0,0,5,0,5,0,0,0,0,0,0,0,0,0,0,0,0,0,0,0,0,0,0,0,0,0,0,0,
0,0,0,0,0,0,0,0,0,0,0,0,0,0,0,0,0,0,0,0,0,0,0,13,0,13,0,0,28,0,0,28,0,0,13,0,13,0,0,0,0,0,0,0,0,0,0,0,0,0,0,0,0,0,0,0,0,0,0,0,
0,0,0,0,0,0,0,0,0,0,0,0,0,0,0,0,0,0,0,0,0,0,0,0,0,0,0,0,0,0,0,0,0,0,0,0,0,0,0,0,0,0,0,0,0,0,0,0,0,0,0,0,0,0,0,0,0,0,0,0,
0,0,0,0,0,0,0,0,0,0,0,0,0,0,0,0,0,0,0,0,0,0,0,0,0,0,0,0,0,0,0,0,0,0,0,0,0,0,0,0,0,0,0,0,0,0,0,0,0,0,0,0,0,0,0,0,0,0,0,0,
0,0,0,0,0,0,0,0,0,0,0,0,0,0,0,0,0,0,0,0,0,0,0,0,0,0,0,0,0,0,0,0,0,0,0,0,0,0,0,0,0,0,0,0,0,0,0,0,0,0,0,0,0,0,0,0,0,0,0,0,
0,0,0,0,0,0,0,0,0,0,0,0,0,0,0,0,0,0,0,0,0,0,0,0,0,0,0,0,0,0,0,0,0,0,0,0,0,0,0,0,0,0,0,0,0,0,0,0,0,0,0,0,0,0,0,0,0,0,0,0,
0,0,0,0,0,0,0,0,0,0,0,0,0,0,0,0,0,0,0,0,0,0,0,0,0,0,0,0,0,0,0,0,0,0,0,0,0,0,0,0,0,0,0,0,0,0,0,0,0,0,0,0,0,0,0,0,0,0,0,0,
0,0,0,0,0,0,0,0,0,0,0,0,0,0,0,0,0,0,0,0,0,0,0,0,0,0,0,0,0,0,0,0,0,0,0,0,0,0,0,0,0,0,0,0,0,0,0,0,0,0,0,0,0,0,0,0,0,0,0,0,
0,0,0,0,0,0,0,0,0,0,0,0,0,0,0,0,0,0,0,0,0,0,0,0,0,0,0,0,0,0,0,0,0,0,0,0,0,0,0,0,0,0,0,0,0,0,0,0,0,0,0,0,0,0,0,0,0,0,0,0,
0,0,0,0,0,0,0,0,0,0,0,0,0,0,0,0,0,0,0,0,0,0,0,0,0,0,0,0,0,0,0,0,0,0,0,0,0,0,0,0,0,0,0,0,0,0,0,0,0,0,0,0,0,0,0,0,0,0,0,0,
0,0,0,0,0,0,0,0,0,0,0,0,0,0,0,0,0,0,0,0,0,0,0,0,0,0,0,0,0,0,0,0,0,0,0,0,0,0,0,0,0,0,0,0,0,0,0,0,0,0,0,0,0,0,0,0,0,0,0,0
</data>
 </layer>
 <layer id="26" name="roof" width="60" height="60">
  <data encoding="csv">
0,0,0,0,0,0,0,0,0,0,0,0,0,0,0,0,0,0,0,0,0,0,0,0,0,0,0,0,0,0,0,0,0,0,0,0,0,0,0,0,0,0,0,0,0,0,0,0,0,0,0,0,0,0,0,0,0,0,0,0,
0,0,0,0,0,0,0,0,0,0,0,0,0,0,0,0,0,0,0,0,0,0,0,0,0,0,0,0,0,0,0,0,0,0,0,0,0,0,0,0,0,0,0,0,0,0,0,0,0,0,0,0,0,0,0,0,0,0,0,0,
0,0,0,0,0,0,0,0,0,0,0,0,0,0,0,0,0,0,0,0,0,0,0,0,0,0,0,0,0,0,0,0,0,0,0,0,0,0,0,0,0,0,0,0,0,0,0,0,0,0,0,0,0,0,0,0,0,0,0,0,
0,0,0,0,0,0,0,0,0,0,0,0,0,0,0,0,0,0,0,0,0,0,0,0,0,0,0,0,0,0,0,0,0,0,0,0,0,0,0,0,0,0,0,0,0,0,0,0,0,0,0,0,0,0,0,0,0,0,0,0,
0,0,0,0,0,0,0,0,0,0,0,0,0,0,0,0,0,0,0,0,0,0,0,0,0,0,0,0,0,0,0,0,0,0,0,0,0,0,0,0,0,0,0,0,0,0,0,0,0,0,0,0,0,0,0,0,0,0,0,0,
0,0,0,0,0,0,0,0,0,0,0,0,0,0,0,0,0,0,0,0,0,0,0,0,0,0,0,0,0,0,0,0,0,0,0,0,0,0,0,0,0,0,0,0,0,0,0,0,0,0,0,0,0,0,0,0,0,0,0,0,
0,0,0,0,0,0,0,0,0,0,0,0,0,0,0,0,0,0,0,0,0,0,0,0,0,0,0,0,0,0,0,0,0,0,0,0,0,0,0,0,0,0,0,0,0,0,0,0,0,0,0,0,0,0,0,0,0,0,0,0,
0,0,0,0,0,0,0,0,0,0,0,0,0,0,0,0,0,0,0,0,0,0,0,0,0,0,0,0,0,0,0,0,0,0,0,0,0,0,0,0,0,0,0,0,0,0,0,0,0,0,0,0,0,0,0,0,0,0,0,0,
0,0,0,0,0,0,0,0,0,0,0,0,0,0,0,0,0,0,0,0,0,0,0,0,0,0,0,0,0,0,0,0,0,0,0,0,0,0,0,0,0,0,0,0,0,0,0,0,0,0,0,0,0,0,0,0,0,0,0,0,
0,0,0,0,0,0,0,0,0,0,0,0,173,174,175,176,0,0,0,0,0,0,0,0,0,0,0,0,0,0,0,0,0,0,0,0,0,0,0,0,0,0,0,0,0,0,0,0,0,0,0,0,0,0,0,0,0,0,0,0,
0,0,0,0,0,0,0,0,0,0,0,0,181,182,183,184,0,0,0,0,173,174,175,176,0,0,0,0,0,0,0,0,0,0,0,0,0,0,0,0,0,0,0,0,0,0,0,0,0,0,0,0,0,0,0,0,0,0,0,0,
0,0,0,0,0,0,0,0,0,0,0,0,189,190,191,192,0,0,0,0,181,182,183,184,0,0,0,0,0,0,0,0,0,0,0,0,0,0,0,0,0,0,0,0,0,0,0,0,0,0,0,0,0,0,0,0,0,0,0,0,
0,0,0,0,0,0,0,0,0,0,0,0,197,198,199,200,0,0,0,0,189,190,191,192,0,0,0,0,0,0,0,0,0,0,0,0,0,0,0,0,0,0,0,0,0,0,0,0,0,0,0,0,0,0,0,0,0,0,0,0,
0,0,0,0,0,0,0,0,0,0,0,0,205,206,207,208,0,0,0,0,197,198,199,200,0,0,0,0,0,0,0,0,0,0,0,0,0,0,0,0,0,0,0,0,0,0,0,0,0,0,0,0,0,0,0,0,0,0,0,0,
0,0,0,0,0,0,0,0,0,0,0,0,0,0,0,0,0,0,0,0,205,206,207,208,0,0,0,0,0,0,0,0,0,0,0,0,0,0,0,0,0,0,0,0,0,0,0,0,0,0,0,0,0,0,0,0,0,0,0,0,
0,0,0,0,0,0,0,0,0,0,0,0,0,0,0,0,0,0,0,0,0,0,0,0,0,0,0,0,0,0,0,0,0,0,0,0,0,0,0,0,0,0,0,0,0,0,0,0,0,0,0,0,0,0,0,0,0,0,0,0,
0,0,0,0,0,0,0,0,0,0,0,0,0,0,0,0,0,0,0,0,0,0,0,0,0,0,0,0,0,0,0,0,0,0,0,0,0,0,0,0,0,0,0,0,0,0,0,0,0,0,0,0,0,0,0,0,0,0,0,0,
0,0,0,0,0,0,0,0,0,0,0,0,0,0,0,0,0,0,0,0,0,0,0,0,0,0,0,0,0,0,0,0,0,0,0,0,0,0,0,0,0,0,0,0,0,0,0,0,0,0,0,0,0,0,0,0,0,0,0,0,
0,0,0,0,0,0,0,0,0,0,0,0,0,0,0,0,0,0,0,0,0,0,0,0,0,0,0,0,0,0,0,0,0,0,391,392,391,392,391,392,0,0,0,0,0,0,0,0,0,0,0,0,0,0,0,0,0,0,0,0,
0,0,0,0,0,0,0,0,0,0,0,0,0,0,0,0,0,0,0,0,0,0,0,0,0,0,0,0,0,0,0,0,0,0,0,0,0,0,0,0,0,0,0,0,0,0,0,0,0,0,0,0,0,0,0,0,0,0,0,0,
0,0,0,0,0,0,0,0,0,0,0,0,0,0,0,0,0,0,0,0,0,0,0,0,0,0,0,0,0,0,0,0,0,0,0,0,0,0,0,0,0,0,0,0,0,0,0,0,0,0,0,0,0,0,0,0,0,0,0,0,
0,0,0,0,0,0,0,0,0,0,0,0,0,0,0,0,0,0,0,0,0,0,0,0,0,0,0,0,0,0,0,0,0,0,0,0,0,0,0,0,0,0,0,0,0,0,0,0,0,0,0,0,0,0,0,0,0,0,0,0,
0,0,0,0,0,0,0,0,0,0,0,0,0,0,0,0,0,0,0,0,0,0,0,0,0,0,0,0,0,0,0,0,0,0,0,0,0,0,0,0,0,0,0,0,0,0,0,0,0,0,0,0,0,0,0,0,0,0,0,0,
0,0,0,0,0,0,0,0,0,0,0,0,0,0,0,0,0,0,0,0,0,0,0,0,0,0,0,0,0,0,0,0,0,0,0,0,0,0,0,0,0,0,0,0,0,0,0,0,0,0,0,0,0,0,0,0,0,0,0,0,
0,0,0,0,0,0,0,0,0,0,0,0,0,0,0,0,0,0,0,0,0,0,0,0,0,0,0,0,0,0,0,0,0,0,0,0,0,0,0,0,0,0,0,0,0,0,0,0,0,0,0,0,0,0,0,0,0,0,0,0,
0,0,0,0,0,0,0,0,0,0,0,0,0,0,0,0,0,0,0,0,0,0,0,0,0,0,0,0,0,0,0,0,0,0,0,0,0,0,0,0,0,0,0,0,0,0,0,0,0,0,0,0,0,0,0,0,0,0,0,0,
0,0,0,0,0,0,0,0,0,0,0,0,0,0,0,0,0,0,0,0,0,0,0,0,0,0,0,0,0,0,0,0,0,0,0,0,0,0,0,0,0,0,0,0,0,0,0,0,0,0,0,0,0,0,0,0,0,0,0,0,
0,0,0,0,0,0,0,0,0,0,0,0,0,0,0,0,0,0,0,0,0,0,0,0,0,0,0,0,0,0,0,0,0,0,0,0,0,0,0,0,0,0,0,0,0,0,0,0,0,0,0,0,0,0,0,0,0,0,0,0,
0,0,0,0,0,0,0,0,0,0,0,0,0,0,0,0,0,0,0,0,0,0,0,0,0,0,0,0,0,0,0,0,0,0,0,0,0,0,0,0,0,0,0,0,0,0,0,0,0,0,0,0,0,0,0,0,0,0,0,0,
0,0,0,0,0,0,0,0,0,0,0,0,0,0,0,0,0,0,0,0,0,0,0,0,0,0,0,0,0,0,0,0,0,0,0,0,0,0,0,0,0,0,0,0,0,0,0,0,0,0,0,0,0,0,0,0,0,0,0,0,
0,0,0,0,0,0,0,0,0,0,0,0,0,0,0,0,0,0,0,0,0,0,0,0,0,0,0,0,0,0,0,0,0,0,0,0,0,0,0,0,0,0,0,0,0,0,0,0,0,0,0,0,0,0,0,0,0,0,0,0,
0,0,0,0,0,0,0,0,0,0,0,0,0,0,0,0,0,0,0,0,0,0,0,0,0,0,0,0,0,0,0,0,0,0,0,0,0,0,0,0,0,0,0,0,0,0,0,0,0,0,0,0,0,0,0,0,0,0,0,0,
0,0,0,0,0,0,0,0,0,0,0,0,0,0,0,0,0,0,0,0,0,0,0,0,0,0,0,0,0,0,0,0,0,0,0,0,0,0,0,0,0,0,0,0,0,0,0,0,0,0,0,0,0,0,0,0,0,0,0,0,
0,0,0,0,0,0,0,0,0,0,0,0,0,0,0,0,0,0,0,0,0,0,0,0,0,0,0,0,0,0,0,0,0,0,0,0,0,0,0,0,0,0,0,0,0,0,0,0,0,0,0,0,0,0,0,0,0,0,0,0,
0,0,0,0,0,0,0,0,0,0,0,0,0,0,0,0,0,0,0,0,0,0,0,0,0,0,0,0,0,0,0,0,0,0,0,0,0,0,0,0,0,0,0,0,0,0,0,0,0,0,0,0,0,0,0,0,0,0,0,0,
0,0,0,0,0,0,0,0,0,0,0,0,0,0,0,0,0,0,0,0,0,0,0,0,0,0,0,0,0,0,0,0,0,0,0,0,0,0,0,0,0,0,0,0,0,0,0,0,0,0,0,0,0,0,0,0,0,0,0,0,
0,0,0,0,0,0,0,0,0,0,0,0,0,0,0,0,0,0,0,0,0,0,0,0,0,0,0,0,0,0,0,0,0,0,0,0,0,0,0,0,0,0,0,0,0,0,0,0,0,0,0,0,0,0,0,0,0,0,0,0,
0,0,0,0,0,0,0,0,0,0,0,0,0,0,0,0,0,0,0,0,0,0,0,0,0,0,0,0,0,0,0,0,0,0,0,0,0,0,0,0,0,0,0,0,0,0,0,0,0,0,0,0,0,0,0,0,0,0,0,0,
0,0,0,0,0,0,0,0,0,0,0,0,0,0,0,0,0,0,0,0,0,0,0,0,0,0,0,0,0,0,0,0,0,0,0,0,0,0,0,0,0,0,0,0,0,0,0,0,0,0,0,0,0,0,0,0,0,0,0,0,
0,0,0,0,0,0,0,0,0,0,0,0,0,0,0,0,0,0,0,0,0,0,0,0,0,0,0,0,0,0,0,0,0,0,0,0,0,0,0,0,0,0,0,0,0,0,0,0,0,0,0,0,0,0,0,0,0,0,0,0,
0,0,0,0,0,0,0,0,0,0,0,0,0,0,0,0,0,0,0,0,0,0,0,0,0,0,0,0,0,0,0,0,0,0,0,0,0,0,0,0,0,0,0,0,0,0,0,0,0,0,0,0,0,0,0,0,0,0,0,0,
0,0,0,0,0,0,0,0,0,0,0,0,0,0,0,0,0,0,0,0,0,0,0,170,131,131,131,131,132,133,134,135,136,131,131,131,171,172,0,0,0,0,0,0,0,0,0,0,0,0,0,0,0,0,0,0,0,0,0,0,
0,0,0,0,0,0,0,0,0,0,0,0,0,0,0,0,0,0,0,0,0,0,177,178,139,139,139,139,140,141,142,143,144,139,139,139,179,180,0,0,0,0,0,0,0,0,0,0,0,0,0,0,0,0,0,0,0,0,0,0,
0,0,0,0,0,0,0,0,0,0,0,0,0,0,0,0,0,0,0,0,0,0,185,186,147,147,147,147,148,149,150,151,152,147,147,147,187,188,0,0,0,0,0,0,0,0,0,0,0,0,0,0,0,0,0,0,0,0,0,0,
0,0,0,0,0,0,0,0,0,0,0,0,0,0,0,0,0,0,0,0,0,0,185,186,139,139,139,155,156,157,158,159,160,147,147,147,187,188,0,0,0,0,0,0,0,0,0,0,0,0,0,0,0,0,0,0,0,0,0,0,
0,0,0,0,0,0,0,0,0,0,0,0,0,0,0,0,0,0,0,0,0,0,185,186,147,147,147,163,164,165,166,167,168,147,147,147,187,188,0,0,0,0,0,0,0,0,0,0,0,0,0,0,0,0,0,0,0,0,0,0,
0,0,0,0,0,0,0,0,0,0,0,0,0,0,0,0,0,0,0,0,0,0,193,194,0,0,0,164,268,269,270,271,167,0,0,0,195,196,0,0,0,0,0,0,0,0,0,0,0,0,0,0,0,0,0,0,0,0,0,0,
0,0,0,0,0,0,0,0,0,0,0,0,0,0,0,0,0,0,0,0,0,0,201,0,0,0,0,275,276,0,0,279,280,0,0,0,203,204,0,0,0,0,0,0,0,0,0,0,0,0,0,0,0,0,0,0,0,0,0,0,
0,0,0,0,0,0,0,0,0,0,0,0,0,0,0,0,0,0,0,0,0,0,0,0,0,0,0,283,284,0,0,287,288,0,0,0,0,0,0,0,0,0,0,0,0,0,0,0,0,0,0,0,0,0,0,0,0,0,0,0,
0,0,0,0,0,0,0,0,0,0,0,0,0,0,0,0,0,0,0,0,0,0,0,0,0,0,0,0,0,0,0,0,0,0,0,0,0,0,0,0,0,0,0,0,0,0,0,0,0,0,0,0,0,0,0,0,0,0,0,0,
0,0,0,0,0,0,0,0,0,0,0,0,0,0,0,0,0,0,0,0,0,0,0,0,0,0,0,0,0,0,0,0,0,0,0,0,0,0,0,0,0,0,0,0,0,0,0,0,0,0,0,0,0,0,0,0,0,0,0,0,
0,0,0,0,0,0,0,0,0,0,0,0,0,0,0,0,0,0,0,0,0,0,0,0,0,0,0,0,0,0,0,0,0,0,0,0,0,0,0,0,0,0,0,0,0,0,0,0,0,0,0,0,0,0,0,0,0,0,0,0,
0,0,0,0,0,0,0,0,0,0,0,0,0,0,0,0,0,0,0,0,0,0,0,0,0,0,0,0,0,0,0,0,0,0,0,0,0,0,0,0,0,0,0,0,0,0,0,0,0,0,0,0,0,0,0,0,0,0,0,0,
0,0,0,0,0,0,0,0,0,0,0,0,0,0,0,0,0,0,0,0,0,0,0,0,0,0,0,0,0,0,0,0,0,0,0,0,0,0,0,0,0,0,0,0,0,0,0,0,0,0,0,0,0,0,0,0,0,0,0,0,
0,0,0,0,0,0,0,0,0,0,0,0,0,0,0,0,0,0,0,0,0,0,0,0,0,0,0,0,0,0,0,0,0,0,0,0,0,0,0,0,0,0,0,0,0,0,0,0,0,0,0,0,0,0,0,0,0,0,0,0,
0,0,0,0,0,0,0,0,0,0,0,0,0,0,0,0,0,0,0,0,0,0,0,0,0,0,0,0,0,0,0,0,0,0,0,0,0,0,0,0,0,0,0,0,0,0,0,0,0,0,0,0,0,0,0,0,0,0,0,0,
0,0,0,0,0,0,0,0,0,0,0,0,0,0,0,0,0,0,0,0,0,0,0,0,0,0,0,0,0,0,0,0,0,0,0,0,0,0,0,0,0,0,0,0,0,0,0,0,0,0,0,0,0,0,0,0,0,0,0,0,
0,0,0,0,0,0,0,0,0,0,0,0,0,0,0,0,0,0,0,0,0,0,0,0,0,0,0,0,0,0,0,0,0,0,0,0,0,0,0,0,0,0,0,0,0,0,0,0,0,0,0,0,0,0,0,0,0,0,0,0,
0,0,0,0,0,0,0,0,0,0,0,0,0,0,0,0,0,0,0,0,0,0,0,0,0,0,0,0,0,0,0,0,0,0,0,0,0,0,0,0,0,0,0,0,0,0,0,0,0,0,0,0,0,0,0,0,0,0,0,0,
0,0,0,0,0,0,0,0,0,0,0,0,0,0,0,0,0,0,0,0,0,0,0,0,0,0,0,0,0,0,0,0,0,0,0,0,0,0,0,0,0,0,0,0,0,0,0,0,0,0,0,0,0,0,0,0,0,0,0,0
</data>
 </layer>
 <objectgroup id="2" name="characters">
  <object id="1" name="elder" type="character" x="1104" y="992" width="32" height="32">
   <properties>
    <property name="controller.dialogueLines" type="list">
     <item value="이 물이 어디서 오는지 아나? 티르코네일 수로 끝에서 우리 들녘까지 흘러온다네."/>
     <item value="물이 마르면 마을도 마르는 게야. 그래서 우물을 늘 지키고 있지."/>
    </property>
    <property name="controller.messageDurationSeconds" type="float" value="2.8"/>
    <property name="controller.scriptId" value="vn-dialogue"/>
    <property name="displayText" value="마리네 촌장"/>
    <property name="type" value="character_elder_gray_hair"/>
   </properties>
  </object>
  <object id="2" name="farmer" type="character" x="1552" y="448" width="32" height="32">
   <properties>
    <property name="controller.dialogueLines" type="list">
     <item value="올해 이삭이 유난히 굵어. 슬라임 숲 쪽 바람만 안 불면 풍년일세."/>
     <item value="밀은 정직해. 물 준 만큼, 딱 그만큼 자라거든."/>
    </property>
    <property name="controller.messageDurationSeconds" type="float" value="2.8"/>
    <property name="controller.scriptId" value="vn-dialogue"/>
    <property name="displayText" value="파딘"/>
    <property name="type" value="character_bearded_apron_man"/>
   </properties>
  </object>
  <object id="3" name="rona" type="character" x="464" y="736" width="32" height="32">
   <properties>
    <property name="controller.dialogueLines" type="list">
     <item value="당근은 새벽에 뽑아야 달아요. 우리 집 양반은 그것도 모르고 한낮에 뽑는다니까요."/>
     <item value="텃밭 흙은 수로 물 덕에 늘 촉촉해요."/>
    </property>
    <property name="controller.messageDurationSeconds" type="float" value="2.8"/>
    <property name="controller.scriptId" value="vn-dialogue"/>
    <property name="displayText" value="로나"/>
    <property name="type" value="character_villager_flower_dress"/>
   </properties>
  </object>
  <object id="4" name="duran" type="character" x="1392" y="1632" width="32" height="32">
   <properties>
    <property name="controller.dialogueLines" type="list">
     <item value="오늘만 벌써 여섯 번째 왕복이야... 수레바퀴가 나보다 먼저 쓰러지겠어."/>
     <item value="건초 부스러기 흘린 거, 그거 다 내 발자국이라오."/>
    </property>
    <property name="controller.messageDurationSeconds" type="float" value="2.8"/>
    <property name="controller.scriptId" value="vn-dialogue"/>
    <property name="displayText" value="두란"/>
    <property name="type" value="character_villager_brown_tunic"/>
   </properties>
  </object>
  <object id="5" name="kian" type="character" x="560" y="1376" width="32" height="32">
   <properties>
    <property name="controller.dialogueLines" type="list">
     <item value="떨어진 사과는 주워 가도 좋아. 나무에 달린 건 방울 소리 나니까 손대지 말고."/>
     <item value="방죽못 벤치는 노을 명당이야. 오늘도 누가 앉아 있더군."/>
    </property>
    <property name="controller.messageDurationSeconds" type="float" value="2.8"/>
    <property name="controller.scriptId" value="vn-dialogue"/>
    <property name="displayText" value="키안"/>
    <property name="type" value="character_commoner_tan_tunic"/>
   </properties>
  </object>
  <object id="6" name="gatekeeper" type="character" x="1008" y="288" width="32" height="32">
   <properties>
    <property name="controller.dialogueLines" type="list">
     <item value="티르코네일에서 내려오셨소? 계단이 미끄러우니 조심하시오."/>
     <item value="물보라가 사철 마르질 않아서 아치 밑은 늘 서늘하오."/>
    </property>
    <property name="controller.messageDurationSeconds" type="float" value="2.8"/>
    <property name="controller.scriptId" value="vn-dialogue"/>
    <property name="displayText" value="헤나 경"/>
    <property name="type" value="character_knight_open_helmet"/>
   </properties>
  </object>
  <object id="7" name="broker" type="character" x="1168" y="832" width="32" height="32">
   <properties>
    <property name="controller.dialogueLines" type="list">
     <item value="물건은 좋은데 가게 낼 허가는 죄다 윗마을 차지라니까."/>
     <item value="그래도 맛은 우리 밭이 최고요! 밀 냄새 맡아보시오."/>
    </property>
    <property name="controller.messageDurationSeconds" type="float" value="2.8"/>
    <property name="controller.scriptId" value="vn-dialogue"/>
    <property name="displayText" value="브란"/>
    <property name="type" value="character_bearded_apron_man"/>
   </properties>
  </object>
  <object id="8" name="mage" type="character" x="368" y="288" width="32" height="32">
   <properties>
    <property name="controller.dialogueLines" type="list">
     <item value="수위 정상, 유속 양호... 이 폭포 소리를 들으면 계산이 잘 돼."/>
     <item value="분필 자국은 지우지 말게. 백 년치 수위 기록이니."/>
    </property>
    <property name="controller.messageDurationSeconds" type="float" value="2.8"/>
    <property name="controller.scriptId" value="vn-dialogue"/>
    <property name="displayText" value="이멜"/>
    <property name="type" value="character_wizard_purple"/>
   </properties>
  </object>
  <object id="9" name="teo" type="character" x="336" y="1408" width="32" height="32">
   <properties>
    <property name="controller.dialogueLines" type="list">
     <item value="수정 광산에서 곡괭이질 하다 왔어요. 여기 못가 벤치가 세상에서 제일 편하다니까요."/>
     <item value="광산 가려면 곡괭이부터 사요. 대장간에서 팔아요."/>
    </property>
    <property name="controller.messageDurationSeconds" type="float" value="2.8"/>
    <property name="controller.scriptId" value="vn-dialogue"/>
    <property name="displayText" value="테오"/>
    <property name="type" value="character_adventurer_brown_hair"/>
   </properties>
  </object>
  <object id="10" name="lady" type="character" x="976" y="1248" width="32" height="32">
   <properties>
    <property name="controller.dialogueLines" type="list">
     <item value="울타리 틈으로 다니지들 말라고 그렇게 일렀건만..."/>
     <item value="기사님들이 제일 말을 안 들어요. 풀이 다 누웠잖아요."/>
    </property>
    <property name="controller.messageDurationSeconds" type="float" value="2.8"/>
    <property name="controller.scriptId" value="vn-dialogue"/>
    <property name="displayText" value="세라핀 부인"/>
    <property name="type" value="character_villager_flower_dress"/>
   </properties>
  </object>
  <object id="11" name="patrol" type="character" x="912" y="1056" width="32" height="32">
   <properties>
    <property name="controller.radiusInTiles" type="float" value="4"/>
    <property name="controller.scriptId" value="wander-near-home"/>
    <property name="displayText" value="갈렌 경"/>
    <property name="type" value="character_knight_gray_helmet"/>
   </properties>
  </object>
  <object id="12" name="ranger" type="character" x="624" y="1184" width="32" height="32">
   <properties>
    <property name="controller.dialogueLines" type="list">
     <item value="왼쪽은 과수원, 곧장 가면 방죽못. 숲 쪽으론 요즘 슬라임이 극성이니 초보는 낮에만 다니게."/>
     <item value="티르코네일로 돌아가려면 북쪽 아치 밑 계단이오."/>
    </property>
    <property name="controller.messageDurationSeconds" type="float" value="2.8"/>
    <property name="controller.scriptId" value="vn-dialogue"/>
    <property name="displayText" value="마욘"/>
    <property name="type" value="character_ranger_green"/>
   </properties>
  </object>
  <object id="13" name="rine" type="character" x="368" y="640" width="32" height="32">
   <properties>
    <property name="controller.dialogueLines" type="list">
     <item value="빨래는 여기 물이 제일 잘 빠져요. 수로 물이 차고 깨끗하거든요."/>
     <item value="로나네 양반 흉은... 아니에요, 아무것도."/>
    </property>
    <property name="controller.messageDurationSeconds" type="float" value="2.8"/>
    <property name="controller.scriptId" value="vn-dialogue"/>
    <property name="displayText" value="리네"/>
    <property name="type" value="character_villager_brown_tunic"/>
   </properties>
  </object>
 </objectgroup>
 <objectgroup id="3" name="portals">
  <object id="14" name="north_arch_gate" type="portal" x="928" y="64" width="64" height="64">
   <properties>
    <property name="appearanceType" value="stairs_stone_step_base_00"/>
    <property name="targetFacing" value="up"/>
    <property name="targetSceneId" value="town"/>
    <property name="targetSpawnTileX" type="int" value="27"/>
    <property name="targetSpawnTileY" type="int" value="41"/>
   </properties>
  </object>
 </objectgroup>
 <objectgroup id="10" name="buildings">
  <object id="15" name="manor" type="building" x="704" y="1280" width="544" height="544">
   <properties>
    <property name="displayText" value="촌장 농원 저택"/>
   </properties>
  </object>
  <object id="16" name="bell_tower" type="building" x="736" y="640" width="160" height="256">
   <properties>
    <property name="displayText" value="수확 종탑"/>
   </properties>
  </object>
  <object id="17" name="produce_market" type="building" x="1056" y="544" width="256" height="256">
   <properties>
    <property name="displayText" value="장터 천막"/>
   </properties>
  </object>
  <object id="18" name="cottage_west" type="building" x="352" y="288" width="224" height="320">
   <properties>
    <property name="displayText" value="서쪽 오두막"/>
   </properties>
  </object>
  <object id="19" name="cottage_east" type="building" x="608" y="320" width="224" height="320">
   <properties>
    <property name="displayText" value="동쪽 오두막"/>
   </properties>
  </object>
  <object id="20" name="stall_north" type="building" x="1344" y="768" width="160" height="160">
   <properties>
    <property name="displayText" value="좌판(북)"/>
   </properties>
  </object>
  <object id="21" name="stall_south" type="building" x="1344" y="1088" width="160" height="160">
   <properties>
    <property name="displayText" value="좌판(남)"/>
   </properties>
  </object>
 </objectgroup>
 <objectgroup id="11" name="decorations">
  <object id="22" name="village_well" type="fountain" x="992" y="896" width="64" height="64">
   <properties>
    <property name="displayText" value="마을 우물"/>
   </properties>
  </object>
  <object id="23" name="millpond" type="fountain" x="64" y="1280" width="256" height="256">
   <properties>
    <property name="displayText" value="방죽못"/>
   </properties>
  </object>
  <object id="24" name="orchard" type="fountain" x="384" y="1056" width="384" height="640">
   <properties>
    <property name="displayText" value="과수원"/>
   </properties>
  </object>
 </objectgroup>
</map>
