<?xml version="1.0" encoding="UTF-8"?>
 <map version="1.10" tiledversion="1.12.1" orientation="orthogonal" renderorder="right-down" width="50" height="50" tilewidth="32" tileheight="32" infinite="0" nextlayerid="17" nextobjectid="10">
 <tileset firstgid="1" source="../tilesets/town-32.tsx"/>
 <layer id="10" name="ground" width="50" height="50">
  <data encoding="csv">
457,457,457,457,457,517,517,517,517,517,517,517,517,517,517,517,517,457,457,517,517,517,517,517,517,517,517,517,517,517,457,517,457,457,457,457,517,457,457,457,517,517,517,457,457,457,457,517,517,517,
457,457,457,457,457,517,517,517,517,517,517,517,517,517,457,517,457,517,517,517,517,517,517,517,517,517,517,517,517,517,517,517,517,517,457,457,457,457,457,457,457,517,457,457,457,457,457,517,517,517,
457,517,457,517,457,517,517,517,517,517,517,517,517,457,517,457,517,457,457,517,517,517,517,517,517,517,517,517,517,517,517,457,517,457,457,457,517,457,517,517,517,517,517,457,517,517,457,517,517,517,
517,517,517,517,517,517,517,517,517,517,517,517,517,517,517,457,457,457,517,517,517,517,517,517,517,517,517,517,517,517,517,517,517,457,457,457,457,517,517,457,457,517,517,517,588,580,580,580,582,517,
457,517,517,517,517,517,517,517,517,517,517,517,517,517,517,517,457,457,457,517,517,517,457,517,457,517,517,457,517,517,517,517,517,457,457,457,457,457,457,457,517,517,457,588,595,515,515,515,596,580,
457,457,457,517,517,517,517,517,517,517,517,517,517,517,517,517,457,517,517,517,517,457,457,517,457,457,457,457,517,457,517,517,517,457,457,457,457,457,457,517,517,517,588,595,515,515,515,515,515,515,
457,457,457,457,457,517,517,517,517,517,517,517,517,517,517,517,517,517,517,517,457,517,517,457,457,517,517,457,457,517,517,517,517,457,457,457,457,517,457,517,517,588,595,515,515,515,515,515,515,515,
457,457,517,517,457,517,517,517,517,517,517,517,517,517,517,517,517,517,517,569,561,561,561,561,561,561,563,457,457,457,457,517,517,517,457,457,517,457,517,457,517,587,515,515,515,515,515,515,515,515,
457,457,457,457,517,457,517,517,517,517,517,517,517,517,569,561,561,561,561,576,507,507,507,507,507,507,577,561,561,561,561,563,517,517,517,517,457,457,457,517,517,587,515,515,515,515,515,515,515,515,
457,457,457,457,457,517,517,517,517,517,517,569,561,561,576,507,507,507,507,578,564,564,564,564,564,579,507,507,507,507,507,577,561,561,563,517,517,517,517,517,588,595,515,515,515,515,515,515,515,515,
561,561,561,561,561,561,561,561,561,561,561,576,507,507,578,564,564,564,564,566,517,517,517,517,457,572,579,507,507,507,507,507,507,507,577,561,561,561,561,561,595,515,515,507,507,507,507,507,507,507,
507,507,507,507,507,507,507,507,507,507,507,507,578,564,566,517,517,517,517,517,457,517,517,517,517,517,568,507,507,507,578,564,564,579,507,507,507,507,507,507,507,507,507,507,507,507,507,507,507,507,
564,564,564,564,564,564,564,579,578,564,579,507,562,517,457,517,517,517,517,457,457,517,517,517,517,517,568,507,507,507,562,517,517,572,564,564,564,564,579,507,507,507,507,507,507,507,507,507,507,507,
457,457,517,517,517,517,457,568,562,517,568,507,562,457,457,517,517,517,457,457,457,457,457,457,517,517,568,507,507,507,562,517,517,517,517,517,517,457,572,564,564,579,507,507,507,515,515,515,515,515,
457,457,457,517,517,457,457,568,562,517,572,579,577,563,457,517,517,517,517,457,457,457,457,457,517,517,572,564,564,564,566,457,457,517,517,517,457,457,457,457,457,587,515,515,515,515,515,515,515,515,
457,457,517,517,457,457,457,568,562,517,457,568,507,562,517,517,517,517,457,517,457,457,457,517,517,517,457,457,457,457,457,457,457,457,517,457,457,457,457,457,457,587,515,515,515,515,515,515,515,515,
457,457,457,517,517,517,457,568,562,517,517,568,507,562,457,517,517,517,517,457,457,457,517,457,517,517,457,457,457,457,517,457,457,457,517,457,457,457,457,457,457,591,598,515,515,515,515,515,597,583,
457,457,517,517,517,517,457,568,562,517,517,568,507,562,517,517,517,517,517,457,457,457,517,457,517,517,517,517,457,457,457,457,517,457,457,457,457,457,457,457,457,517,591,583,583,515,583,583,585,517,
517,517,517,517,517,517,517,568,562,517,517,568,507,562,457,457,517,457,457,517,457,457,517,517,517,517,517,517,457,517,457,457,457,457,517,457,517,517,457,517,517,517,517,517,517,593,517,517,517,457,
517,457,517,517,517,517,517,568,562,517,517,568,507,577,563,457,517,457,457,457,457,457,517,517,517,517,457,457,457,457,457,517,457,457,517,457,517,457,457,457,517,517,517,517,517,517,517,517,517,517,
457,457,517,517,457,517,517,568,562,517,517,572,579,507,562,457,457,457,457,457,457,517,517,517,517,517,517,517,457,457,517,457,517,457,457,457,517,457,457,517,517,517,517,517,517,517,517,517,517,517,
457,457,457,457,457,517,517,568,562,517,517,517,568,507,562,457,457,457,457,457,517,517,517,517,517,517,457,457,457,457,517,517,457,457,457,517,457,457,457,457,457,517,517,517,517,517,457,517,517,517,
517,517,457,517,517,517,517,568,562,517,517,517,568,507,577,563,457,457,457,457,457,517,517,517,517,517,457,457,457,517,457,517,457,517,457,457,457,457,517,517,457,517,517,517,517,457,517,457,517,517,
517,457,517,517,569,561,561,576,577,563,517,517,572,579,507,562,457,457,457,457,517,517,517,517,517,457,457,457,517,517,457,517,457,457,457,457,457,457,457,457,457,457,517,517,517,457,457,457,517,517,
517,517,457,517,568,507,507,507,507,562,517,517,517,568,507,562,457,457,457,457,457,517,517,517,517,517,457,457,457,457,457,517,517,517,517,457,457,457,457,517,517,517,517,517,517,457,457,517,517,517,
517,457,457,457,572,564,564,564,564,566,517,517,517,568,507,577,563,517,457,457,517,517,517,517,517,457,457,457,457,457,457,517,517,517,517,517,457,457,457,517,517,517,517,517,517,517,457,517,517,517,
517,457,457,517,517,517,517,517,517,517,517,517,517,572,579,507,577,563,457,517,517,517,517,517,517,457,457,457,457,457,517,517,517,517,517,517,517,517,457,517,517,517,517,517,457,517,517,517,517,517,
517,457,457,457,517,517,517,517,517,517,517,517,517,517,572,579,507,577,561,563,517,517,517,517,517,517,457,457,457,517,517,588,580,580,582,517,517,517,517,517,517,517,517,457,457,457,517,517,517,517,
457,517,457,517,517,517,517,517,517,517,517,517,517,517,517,572,564,579,507,562,517,517,517,517,517,517,517,457,517,588,580,595,515,515,596,582,517,517,517,517,517,517,457,457,457,457,457,517,517,517,
517,517,517,517,517,517,517,517,517,517,517,517,517,517,517,457,457,572,564,507,561,563,517,517,517,517,517,517,588,595,515,515,515,515,515,596,582,517,517,517,517,517,517,517,457,517,517,457,457,517,
517,517,517,457,517,517,517,517,517,517,457,517,517,517,517,457,457,457,457,568,507,577,561,563,517,517,517,517,587,515,515,515,515,515,515,515,581,517,517,517,517,517,517,517,457,517,517,457,517,517,
517,517,457,457,457,517,517,517,517,457,457,457,517,457,457,457,457,457,457,572,579,507,507,577,561,561,561,580,595,515,515,515,515,515,515,597,585,517,517,517,517,517,517,517,517,517,457,457,457,457,
517,517,517,457,457,517,517,517,517,517,457,517,457,457,457,457,457,457,457,517,572,564,564,579,507,507,507,507,507,507,507,507,507,507,578,585,457,457,517,517,457,517,457,517,517,517,517,457,457,457,
517,517,517,457,457,457,517,517,517,517,517,457,457,517,457,457,457,457,457,457,517,517,517,572,564,564,579,507,507,507,507,507,507,507,562,457,457,517,517,457,457,457,457,457,457,457,517,457,457,457,
517,517,457,457,457,457,457,457,457,517,517,457,517,457,457,457,517,457,457,517,517,457,517,517,517,517,572,564,564,564,564,507,564,564,566,457,517,517,457,517,517,457,457,517,517,517,457,517,457,457,
517,517,517,457,517,457,517,457,517,517,517,517,457,457,457,457,457,457,457,517,517,457,457,517,517,457,517,517,517,517,517,593,517,457,517,457,457,457,517,517,517,517,517,517,517,457,457,517,517,517,
517,517,517,517,457,517,517,517,517,457,517,457,457,457,457,457,457,517,517,517,517,457,517,517,457,457,457,517,517,517,517,517,517,457,457,517,517,457,517,517,517,517,517,517,517,517,517,457,517,517,
517,517,517,517,517,517,517,517,517,517,517,517,517,457,457,517,517,517,517,517,517,517,517,517,517,517,517,517,517,517,517,517,517,517,517,457,517,517,517,517,517,517,517,517,517,517,517,517,517,517,
517,517,517,517,517,517,517,517,517,517,517,517,517,517,457,517,517,517,517,517,517,517,517,517,517,517,517,457,517,517,517,517,517,517,517,517,517,457,517,517,517,517,517,517,517,517,517,517,517,517,
517,517,517,517,517,517,517,517,517,457,517,517,517,517,517,457,517,517,517,517,517,517,517,517,517,517,457,457,517,517,517,517,517,517,517,457,457,517,457,457,517,517,517,517,517,517,517,517,517,517,
517,517,517,517,517,517,517,457,457,457,517,517,517,517,517,457,457,517,517,517,517,517,517,517,457,457,457,457,457,457,517,517,517,517,517,457,517,457,457,457,517,517,517,517,517,517,517,457,517,517,
517,517,517,517,517,517,517,457,457,457,457,457,517,517,457,457,457,517,517,457,517,517,517,517,457,457,457,457,457,517,517,517,517,517,457,517,457,517,457,457,457,517,517,517,517,517,517,457,517,517,
517,517,517,517,517,517,457,457,457,457,517,517,457,457,517,457,457,457,457,457,457,517,517,517,457,457,457,457,457,457,517,517,517,517,517,457,517,457,517,517,517,517,517,517,517,517,457,517,457,517,
517,517,517,517,517,517,517,457,517,457,457,457,517,517,457,457,457,517,517,517,517,457,457,517,517,457,457,457,457,517,517,517,517,517,517,517,517,517,457,517,517,517,517,517,517,457,457,457,457,517,
517,517,517,517,517,517,517,457,517,457,457,517,517,517,517,457,517,517,457,457,457,457,457,457,457,457,517,457,457,517,517,517,517,517,517,517,517,457,517,517,517,517,517,517,517,457,457,457,457,457,
517,517,517,517,517,517,517,517,517,457,517,517,517,517,517,517,517,457,457,457,517,517,517,517,517,517,517,517,517,517,517,517,517,517,517,517,517,517,517,517,517,457,517,517,517,457,457,457,457,517,
517,517,517,517,517,517,517,517,517,517,517,517,517,517,517,517,517,457,457,517,457,457,517,517,517,517,517,517,517,517,517,517,517,517,517,517,517,517,517,517,517,457,517,517,517,457,517,457,457,517,
517,517,517,517,517,457,517,517,517,517,517,517,517,517,517,517,457,517,457,457,457,457,457,517,517,457,457,457,517,517,517,517,517,517,517,517,517,517,517,457,457,457,517,457,457,457,457,457,457,517,
517,517,457,517,457,457,457,517,517,517,517,517,517,517,517,517,517,457,457,457,457,457,457,457,457,457,517,457,517,517,517,517,517,517,517,517,517,517,517,457,457,457,457,457,517,457,457,457,457,517,
517,457,457,457,517,457,517,517,517,517,517,517,517,517,517,517,517,457,457,457,457,457,457,457,457,517,457,457,457,517,517,517,517,517,517,517,517,517,457,517,457,457,457,457,457,457,457,457,457,457
</data>
 </layer>
 <layer id="11" name="shadow_lower" width="50" height="50">
  <data encoding="csv">
0,458,0,461,460,461,0,462,0,0,0,0,0,458,0,459,0,0,0,0,461,0,0,0,458,0,0,0,460,0,0,461,0,0,0,0,458,458,0,0,462,0,0,462,459,459,0,0,461,461,
0,0,0,0,462,0,462,0,0,0,0,458,0,0,0,0,0,0,0,0,0,0,0,0,0,0,0,0,0,458,0,458,0,0,0,459,462,0,0,461,0,462,0,0,0,0,0,0,462,460,
0,461,0,0,0,0,0,0,0,0,0,0,0,0,0,0,462,459,0,461,0,0,460,0,0,460,459,0,0,462,0,0,0,0,0,462,0,0,0,0,0,0,0,462,0,460,0,0,0,0,
0,0,0,0,0,0,461,459,0,0,0,0,0,0,0,0,0,0,461,461,0,0,0,0,0,0,0,0,0,0,0,0,459,0,0,0,0,0,0,0,0,0,0,0,462,458,0,0,0,0,
0,0,458,0,0,0,460,0,0,0,0,458,0,460,461,459,0,0,0,460,0,458,0,462,0,0,0,461,458,0,0,458,0,461,0,461,0,461,0,0,0,461,0,0,0,0,0,462,460,0,
0,461,0,459,459,0,0,461,0,0,0,460,461,0,0,462,460,459,0,0,0,0,0,0,458,460,0,0,459,0,459,461,459,0,0,0,0,0,462,0,460,0,458,461,0,0,0,0,0,0,
0,0,461,461,461,0,0,462,0,0,0,462,0,0,458,0,0,0,458,0,461,0,462,0,0,0,0,458,461,0,0,0,0,461,0,0,462,458,459,458,0,0,0,462,458,462,0,0,0,0,
0,460,0,0,0,0,0,0,0,0,0,459,459,460,0,462,0,458,462,0,0,0,0,0,460,0,0,461,0,0,0,0,0,0,0,0,0,0,0,461,0,0,459,0,0,0,0,460,0,461,
458,458,0,0,459,0,0,0,0,0,0,0,0,462,0,0,458,0,0,0,0,0,0,0,0,0,0,461,460,0,462,0,0,462,460,0,0,0,0,0,0,0,460,0,0,459,0,0,0,461,
0,459,0,462,462,0,0,0,461,459,0,0,458,0,0,0,0,0,0,0,461,459,0,0,0,0,0,0,0,0,0,0,460,0,0,0,0,0,0,0,0,0,0,0,0,0,0,460,460,461,
0,0,460,460,462,0,460,0,0,0,0,0,0,0,0,461,0,0,0,0,0,459,0,0,0,0,0,0,458,0,0,0,0,0,0,462,0,0,0,458,0,0,0,0,462,458,461,0,0,0,
0,0,0,0,0,0,0,0,0,0,0,0,0,458,0,0,0,0,0,0,459,458,0,0,458,0,0,0,0,0,0,0,0,0,0,0,0,0,0,0,0,0,0,0,0,0,0,0,0,0,
0,0,458,458,0,0,0,461,458,0,0,0,461,461,0,0,459,0,460,0,0,0,0,462,458,460,0,0,0,0,0,459,0,0,0,0,0,458,0,0,0,0,0,0,0,459,0,0,0,458,
462,462,0,0,0,460,0,0,0,0,461,0,0,0,0,458,459,0,0,0,0,0,461,459,0,459,460,0,0,0,0,462,0,0,0,461,460,0,0,0,0,461,458,0,461,0,0,0,459,462,
461,462,0,459,460,461,0,461,459,0,0,0,0,0,462,0,462,0,460,0,0,0,0,0,0,0,462,458,0,460,458,458,0,0,0,0,0,0,459,458,0,0,0,0,0,460,0,0,0,0,
0,0,0,0,460,461,0,0,0,461,459,0,0,458,0,0,0,0,459,460,0,462,0,459,0,0,460,0,0,0,0,458,0,0,0,0,458,0,460,462,459,458,0,459,461,460,0,0,0,0,
0,0,0,0,460,0,0,0,0,460,462,0,0,0,0,0,0,0,0,0,0,0,0,0,459,0,0,0,0,0,0,459,0,0,0,0,0,0,0,459,0,0,0,0,0,0,0,0,460,461,
0,0,462,458,462,0,0,0,458,64,458,0,0,0,458,461,0,0,0,0,0,460,0,0,0,461,460,0,0,459,0,0,0,0,0,460,458,461,461,0,0,459,459,462,0,0,0,0,0,0,
0,459,0,0,0,0,0,0,0,64,0,0,0,0,458,459,462,0,0,460,462,0,0,0,0,0,458,0,459,462,0,0,0,0,0,0,0,459,0,0,0,0,0,0,0,0,0,0,0,0,
0,460,459,0,0,0,0,0,0,64,461,0,0,0,0,461,0,459,0,0,459,0,0,462,460,0,0,0,0,0,0,0,0,0,458,458,0,0,0,461,0,0,0,460,462,0,0,458,459,461,
0,0,0,0,459,0,0,0,0,64,459,0,0,0,0,460,0,0,0,0,459,0,460,0,0,0,0,461,0,0,0,461,458,462,461,0,0,0,460,0,0,0,0,0,0,0,0,458,461,0,
0,460,462,0,0,0,0,0,0,64,0,0,0,0,0,460,0,0,0,461,0,0,0,0,0,0,0,0,0,461,0,462,0,0,459,0,0,462,0,0,0,0,461,0,0,461,0,0,461,0,
460,459,458,0,0,0,0,0,0,64,458,0,0,0,0,0,461,0,0,0,0,459,460,0,461,0,0,462,459,0,0,460,0,0,0,461,0,0,0,458,0,458,0,0,460,0,0,461,0,0,
462,461,0,462,459,0,0,0,0,63,0,0,0,0,0,0,460,0,0,0,461,0,0,461,0,458,460,0,460,0,0,0,0,0,0,459,460,0,0,0,0,0,0,0,458,0,0,462,0,0,
0,0,0,460,0,0,0,0,0,0,0,0,0,462,0,459,461,0,0,0,0,0,0,0,461,0,0,0,0,461,462,0,0,0,458,0,0,0,459,0,0,0,0,0,0,0,0,0,0,0,
0,0,0,0,460,0,0,0,459,0,461,0,460,0,0,0,459,461,0,459,0,0,0,0,0,0,0,0,0,0,460,0,0,0,0,458,0,0,0,0,0,0,0,0,0,0,0,0,0,0,
460,0,0,0,0,459,0,0,461,0,459,461,0,459,0,0,0,0,459,0,0,0,0,0,0,460,458,0,462,459,0,0,0,0,0,0,0,0,460,0,0,0,0,0,0,459,0,459,0,0,
0,461,0,460,0,0,461,462,460,0,0,0,0,458,0,0,0,0,0,0,458,458,458,0,0,0,0,0,460,0,0,0,459,0,0,0,0,0,0,460,0,0,461,0,461,0,0,0,0,0,
0,0,462,0,459,0,0,458,0,459,0,458,0,0,460,0,0,0,0,461,0,0,0,458,462,0,460,0,458,461,458,0,0,0,0,0,0,0,462,462,0,0,0,0,0,460,0,0,460,461,
0,459,462,0,461,0,458,0,0,458,458,0,0,0,0,460,462,0,0,0,0,0,0,458,0,0,0,0,0,0,0,0,0,0,0,0,0,0,0,0,459,0,461,461,0,0,0,462,0,0,
458,0,0,0,0,0,0,462,0,0,0,460,461,0,0,0,0,0,460,460,0,0,0,0,459,0,458,0,460,0,0,0,462,0,460,0,0,462,460,460,458,461,460,0,0,459,459,0,459,0,
460,0,0,0,0,0,0,459,0,461,0,0,461,0,459,459,460,459,0,459,0,0,0,0,0,458,458,0,0,0,0,0,0,0,461,0,0,0,459,0,461,0,0,0,0,458,461,0,460,0,
0,0,458,461,0,0,0,0,0,0,458,0,0,0,0,0,0,0,0,460,458,461,0,0,0,0,0,0,461,0,0,0,459,0,0,461,0,462,0,462,0,460,0,0,0,0,459,459,461,0,
0,0,0,458,0,0,0,0,461,0,0,461,0,0,462,0,0,458,0,461,0,460,462,0,0,0,0,0,0,0,0,0,0,0,0,460,459,462,0,0,0,0,0,0,0,0,0,0,459,0,
0,0,0,0,460,0,458,0,459,458,0,462,459,0,0,0,0,0,460,0,458,0,461,460,0,462,461,459,0,0,0,460,0,0,460,0,0,0,0,0,0,459,459,0,0,462,459,458,460,0,
0,460,0,0,0,458,0,0,0,0,0,0,0,0,0,0,0,0,0,0,0,0,459,0,0,0,0,0,460,0,0,0,0,461,0,460,459,0,0,0,0,458,462,0,0,0,459,460,0,0,
461,460,0,0,461,0,0,0,459,459,0,462,0,460,458,0,0,0,0,0,0,461,0,458,461,0,462,459,0,0,0,458,0,461,0,0,460,459,0,0,460,0,0,0,0,0,0,0,0,459,
458,0,461,0,0,0,0,462,462,462,0,0,458,0,0,459,0,459,462,460,0,459,462,0,462,459,0,0,0,460,459,0,459,459,462,0,458,458,0,0,0,459,459,0,461,458,0,0,458,458,
461,0,459,0,0,0,458,460,462,0,461,0,0,460,0,460,458,459,0,0,0,462,0,0,0,0,461,0,0,0,462,0,459,0,462,461,458,0,0,0,0,461,461,0,0,460,0,461,0,458,
0,0,0,0,0,0,0,458,0,0,462,0,0,0,0,0,0,0,0,0,0,462,0,462,0,458,0,462,0,0,0,0,0,0,458,0,0,0,0,0,0,0,0,0,0,0,459,0,0,0,
0,0,0,0,0,0,0,0,462,0,0,0,460,0,0,0,0,0,0,0,459,461,0,0,0,0,0,0,0,461,458,0,0,0,0,0,0,0,458,0,0,0,459,462,462,0,0,0,460,0,
0,0,0,0,459,462,0,0,0,0,0,0,0,0,460,0,0,0,0,460,0,459,0,0,460,462,0,0,0,0,462,0,0,0,0,0,0,0,460,0,0,0,459,0,0,460,0,458,0,0,
458,0,0,0,0,0,0,0,0,0,459,0,0,0,0,0,0,460,459,0,0,460,0,462,0,462,459,0,459,0,0,0,0,0,0,459,462,0,460,0,459,460,0,0,0,0,462,462,0,0,
461,0,0,0,0,460,459,0,458,0,0,0,0,462,0,458,0,459,0,0,460,461,0,0,0,0,0,0,461,0,0,0,0,459,462,0,0,0,0,462,460,0,0,0,0,0,0,0,0,459,
458,458,0,0,0,0,0,0,0,462,460,461,0,0,0,0,0,0,0,0,0,0,460,0,0,0,0,0,461,0,460,0,0,0,0,0,0,461,0,0,0,0,0,0,0,460,459,0,0,0,
459,0,0,0,0,458,0,0,0,0,0,0,0,462,0,459,0,462,0,0,458,0,0,0,0,0,460,0,0,0,458,0,0,0,0,0,460,0,462,0,0,461,0,0,0,0,459,462,0,0,
0,462,0,0,0,462,458,462,0,0,0,461,0,0,0,460,0,459,0,0,0,459,0,459,0,0,462,0,462,0,459,0,0,0,0,462,0,0,0,0,0,462,0,0,460,458,0,0,459,462,
0,0,0,0,461,0,0,0,0,458,0,459,0,462,0,0,0,0,0,460,0,0,461,459,0,0,458,0,0,459,0,0,0,0,0,0,0,0,0,0,462,0,0,0,0,0,0,0,0,458,
0,0,0,459,462,0,0,0,0,0,0,0,0,0,0,0,458,0,0,0,0,0,459,458,460,0,0,0,0,460,460,459,0,0,0,0,461,0,458,458,459,461,459,461,461,0,0,0,0,0,
460,0,0,0,461,0,459,462,0,0,0,0,0,0,459,459,0,0,459,0,0,0,0,0,0,0,0,0,0,0,0,0,0,0,0,459,462,0,0,0,0,461,0,0,0,0,459,461,0,0
</data>
 </layer>
 <layer id="12" name="object" width="50" height="50">
  <data encoding="csv">
0,0,0,0,0,0,0,0,0,0,0,0,0,0,0,0,0,0,0,0,0,0,0,0,0,0,0,0,0,0,0,0,0,0,0,0,0,0,0,0,0,0,325,0,0,0,0,0,0,0,
0,0,0,0,0,463,0,0,0,0,0,0,0,0,0,0,0,0,0,0,0,0,0,0,0,0,0,0,0,0,0,0,0,0,0,0,0,0,0,0,0,0,0,0,0,0,0,0,0,0,
0,0,0,0,0,0,325,0,0,0,0,0,325,0,0,0,0,0,528,0,0,0,0,0,0,0,0,0,325,0,0,0,0,0,0,0,0,0,0,0,0,325,0,0,0,0,0,0,0,463,
0,0,0,0,325,0,0,0,0,0,0,0,0,0,0,350,351,352,0,0,350,351,352,0,0,0,0,0,0,350,351,352,0,0,350,351,352,0,350,351,352,0,0,0,0,0,0,0,0,0,
0,0,0,0,0,0,0,0,0,0,527,0,0,0,0,0,0,0,0,0,0,0,527,0,0,0,0,0,0,0,0,0,0,0,0,0,0,0,0,0,0,0,0,528,0,0,0,0,0,0,
325,0,0,0,0,0,0,0,0,0,0,0,0,0,0,0,0,0,0,527,0,0,0,0,0,0,0,0,0,0,0,0,0,0,0,0,0,0,0,0,0,527,0,0,0,350,351,352,527,0,
0,0,0,0,0,0,0,0,0,0,0,0,0,0,0,0,0,0,0,0,0,0,0,0,0,0,0,0,0,0,0,0,0,0,0,325,0,0,0,0,0,0,0,0,0,0,0,0,527,528,
0,0,325,0,0,0,0,0,0,0,0,0,0,0,0,0,325,0,0,0,0,0,0,0,0,0,0,0,0,0,0,0,0,464,0,0,0,0,0,0,0,528,0,0,528,527,527,0,528,0,
0,0,0,0,0,527,0,0,0,0,0,0,0,0,0,0,0,0,0,0,0,0,0,0,0,0,0,0,0,0,0,0,527,0,0,0,0,0,0,0,0,0,0,0,528,0,0,528,0,0,
0,0,0,0,0,0,0,0,0,0,0,0,0,0,0,0,0,0,0,0,0,0,0,0,0,0,0,0,0,0,0,0,0,0,0,0,0,0,0,0,0,0,527,0,325,0,0,0,0,0,
0,0,0,0,0,0,0,0,0,0,0,0,0,0,0,0,0,0,0,0,0,0,325,0,0,0,0,0,0,0,0,0,0,0,0,0,0,0,0,0,0,0,0,0,0,0,0,0,0,0,
0,0,0,0,0,0,0,0,0,0,0,0,0,0,0,0,0,0,0,0,0,0,0,0,0,0,0,0,0,0,0,0,0,0,0,0,0,0,0,0,0,0,0,0,0,0,0,0,0,0,
0,0,0,0,0,0,0,0,0,0,0,0,0,0,0,0,0,0,0,0,0,0,0,0,0,0,0,420,353,419,305,0,0,0,0,0,0,0,0,0,0,0,0,0,0,0,0,0,0,0,
0,0,0,0,0,0,0,0,0,463,0,0,0,0,0,0,0,0,325,0,0,0,0,0,0,0,0,0,0,0,0,0,0,0,0,0,0,0,0,0,0,0,0,0,0,0,0,528,0,0,
0,0,0,0,0,0,0,0,0,0,0,0,0,0,0,0,0,0,0,0,0,0,0,0,0,0,0,0,0,0,0,0,0,0,0,0,463,0,0,0,0,0,0,0,0,0,527,0,528,0,
528,0,0,0,0,0,0,0,0,0,0,0,0,0,325,0,0,0,0,0,0,0,0,0,0,0,0,0,0,0,0,0,350,351,352,0,0,0,0,0,0,0,0,0,0,0,0,528,0,0,
0,0,0,0,0,0,325,0,0,0,0,0,0,0,0,0,0,0,0,0,350,351,352,0,0,0,0,350,351,352,0,0,0,0,325,0,0,464,0,0,0,0,0,0,0,0,0,527,0,0,
0,528,0,0,0,0,0,325,0,0,0,0,0,0,0,0,0,0,0,0,0,0,0,0,0,0,0,0,0,0,0,0,0,0,0,0,0,0,0,0,0,0,0,0,0,0,0,0,0,527,
0,0,0,0,0,82,82,82,82,0,0,0,0,0,0,0,0,0,0,0,0,0,0,0,0,0,0,0,0,0,0,0,0,0,0,0,0,0,0,0,0,528,0,0,0,0,0,0,0,528,
0,0,0,464,0,82,82,82,82,0,0,0,0,0,0,0,0,0,0,0,0,0,0,0,0,0,0,0,0,0,350,351,352,0,0,0,0,0,0,0,0,0,0,0,0,0,0,0,0,0,
0,0,0,0,0,81,98,98,83,412,0,0,0,0,0,0,0,0,0,0,0,0,0,0,0,0,0,0,0,0,0,0,0,0,0,0,0,0,0,0,0,0,350,351,352,527,463,0,0,0,
0,0,0,0,0,97,98,98,99,420,464,0,0,0,0,0,0,0,0,0,0,350,351,352,0,350,351,352,0,0,0,0,0,0,0,0,0,0,350,351,352,0,0,0,0,0,0,0,0,0,
0,0,0,0,0,97,98,98,99,419,0,0,0,0,0,0,0,325,0,0,0,0,0,0,0,0,0,0,0,0,0,0,0,0,0,0,0,0,0,0,0,0,0,0,0,0,0,0,0,0,
0,0,0,0,0,105,106,106,107,0,0,0,0,0,0,0,0,325,0,0,0,0,0,0,0,0,0,0,0,0,0,0,0,0,0,0,0,0,0,0,0,0,0,0,0,0,325,0,0,0,
0,0,0,0,0,493,0,350,351,352,0,0,0,0,0,0,0,0,0,0,0,0,0,0,0,0,0,0,0,0,0,463,0,0,0,0,0,0,0,0,0,350,351,352,0,0,0,0,0,0,
0,350,351,352,0,0,0,0,0,0,0,0,0,0,0,0,0,0,0,0,0,350,351,352,0,0,0,0,0,527,0,0,0,0,0,0,0,0,0,0,0,0,0,0,0,0,0,350,351,352,
0,0,0,0,0,0,0,0,0,0,0,0,0,0,0,0,0,0,0,0,0,0,0,0,0,0,0,0,0,0,0,0,0,0,0,0,0,0,0,0,0,0,0,0,0,0,0,0,0,0,
0,0,0,0,464,0,0,0,0,0,0,0,0,0,0,0,0,0,0,0,0,0,0,0,0,0,0,0,0,0,0,528,0,0,0,0,350,351,352,0,0,0,0,0,0,0,0,0,0,325,
0,0,0,0,0,0,0,0,0,0,0,0,0,0,0,0,0,0,0,0,0,0,0,0,0,0,0,0,0,0,0,0,350,351,352,0,0,0,0,0,0,527,0,0,0,0,0,0,0,0,
0,0,0,0,0,0,0,0,0,0,0,0,350,351,352,0,0,0,0,0,0,0,0,0,350,351,352,463,0,0,0,494,494,0,494,0,0,0,0,0,0,0,0,0,0,0,0,0,0,464,
0,0,0,0,0,0,0,0,350,351,352,0,0,0,0,0,0,527,0,0,0,0,0,0,0,0,0,0,0,0,494,494,0,0,0,528,0,0,0,0,0,0,0,0,0,0,0,0,0,0,
0,0,0,350,351,352,0,0,0,0,0,0,0,0,0,0,0,0,0,0,0,0,0,0,0,0,0,0,0,494,0,0,494,0,0,0,0,0,0,0,0,0,0,0,0,0,0,0,0,0,
0,0,0,0,0,0,0,0,0,0,0,0,0,0,0,0,0,0,0,0,0,0,0,0,0,0,0,0,0,0,0,0,0,494,0,0,0,0,0,0,0,0,0,0,0,0,0,0,0,0,
350,351,352,0,0,0,0,0,0,0,0,0,0,0,0,0,0,0,0,0,0,0,0,0,0,0,0,0,0,0,0,0,494,0,0,0,0,0,0,0,325,350,351,352,0,0,0,0,0,0,
325,0,0,0,0,0,0,0,0,0,325,0,0,0,0,0,0,0,0,0,0,0,0,0,0,0,0,0,0,0,0,0,0,0,0,0,0,0,0,0,0,0,0,325,0,0,0,0,0,0,
0,0,0,0,0,0,0,350,351,352,0,0,0,0,0,0,0,0,0,0,0,0,0,0,0,0,0,0,0,350,351,352,528,0,0,0,0,0,0,0,528,0,0,0,0,0,0,0,0,0,
0,0,0,0,0,0,0,0,0,0,0,0,0,0,0,0,0,0,325,0,0,0,0,0,0,0,0,0,0,0,0,0,0,0,0,0,0,0,0,0,0,0,0,0,0,0,350,351,352,0,
0,0,0,0,0,0,0,0,0,0,0,463,0,0,0,0,0,0,0,0,0,0,0,463,0,0,0,0,0,0,0,0,0,0,0,0,0,0,0,0,0,0,0,0,0,0,0,0,0,0,
0,0,0,0,0,0,0,0,0,0,0,0,0,0,0,0,0,0,0,0,0,0,0,0,0,0,0,0,0,0,0,0,0,0,0,0,0,0,0,0,0,0,0,0,0,0,0,0,0,0,
350,351,352,350,351,352,0,0,0,0,0,0,0,0,0,0,0,0,0,0,0,0,0,0,527,0,0,0,0,325,0,0,0,0,0,0,350,351,352,0,0,0,325,0,0,0,0,0,527,0,
527,0,0,325,0,0,0,0,0,0,0,0,0,350,351,352,0,350,351,352,0,0,0,0,0,0,0,0,0,0,0,350,351,352,0,0,0,0,0,350,351,352,0,0,0,350,351,352,0,463,
0,0,0,0,0,0,0,350,351,352,0,0,0,0,0,0,0,0,0,0,0,0,0,0,0,0,350,351,352,0,0,0,0,0,0,0,0,0,0,0,0,0,0,0,0,0,0,0,0,0,
0,0,0,0,0,0,0,0,0,0,0,0,0,0,0,0,0,0,0,0,0,0,0,0,0,0,0,0,0,0,0,0,0,0,0,0,0,0,0,0,0,0,0,325,0,0,0,0,0,0,
0,0,0,0,0,0,0,0,0,0,0,0,0,0,0,0,0,0,325,464,0,0,0,350,351,352,0,325,0,0,0,0,0,0,0,325,350,351,352,0,0,0,0,0,0,0,0,0,0,0,
0,0,0,0,0,0,0,0,0,0,0,0,0,350,351,352,0,325,0,0,0,0,0,0,0,0,0,0,0,0,0,0,0,0,0,0,0,0,0,0,350,351,352,0,0,0,0,0,0,0,
0,350,351,352,0,0,0,350,351,352,325,0,0,0,0,0,0,0,0,0,0,0,0,0,0,0,0,0,0,0,0,0,0,0,0,0,0,0,0,0,0,0,325,0,0,0,0,0,0,0,
0,0,0,0,0,0,0,0,0,0,0,0,0,0,0,0,0,0,0,0,325,0,0,0,0,0,0,0,0,0,0,0,0,0,0,0,0,0,0,0,0,0,0,0,0,0,0,0,0,0,
0,0,0,0,0,0,0,0,0,0,325,0,0,0,0,0,0,0,0,0,0,0,0,0,0,0,0,0,0,0,350,351,352,0,0,0,325,0,0,0,0,0,325,0,0,0,0,0,0,0,
464,0,0,0,0,0,0,325,0,0,325,0,0,350,351,352,0,350,351,352,0,0,0,0,0,0,0,0,0,0,0,0,325,0,0,0,0,0,0,0,0,0,0,0,0,0,0,350,351,352,
0,350,351,352,0,0,0,0,0,0,0,0,0,0,0,0,0,0,0,0,528,0,350,351,352,0,350,351,352,0,0,0,0,0,0,0,0,0,350,351,352,0,0,0,0,0,0,0,0,0
</data>
 </layer>
 <layer id="13" name="shadow_upper" width="50" height="50">
  <data encoding="csv">
0,0,0,0,0,0,0,0,0,0,0,0,0,0,0,0,0,0,0,0,0,0,0,0,0,0,0,0,0,0,0,0,0,0,0,0,0,0,0,0,0,0,0,0,0,0,0,0,0,0,
0,0,0,0,0,0,0,0,0,0,0,0,0,0,0,0,0,0,0,0,0,0,0,0,0,0,0,0,0,0,0,0,0,0,0,0,0,0,0,0,0,0,0,0,0,0,0,0,0,0,
0,0,0,0,0,0,0,0,0,0,0,0,0,0,0,0,0,0,0,0,0,0,0,0,0,0,0,0,0,0,0,0,0,0,0,0,0,0,0,0,0,0,0,0,0,0,0,0,0,0,
0,0,0,0,0,0,0,0,0,0,0,0,0,0,0,0,0,0,0,0,0,0,0,0,0,0,0,0,0,0,0,0,0,0,0,0,0,0,0,0,0,0,0,0,0,0,0,0,0,0,
0,0,0,0,0,0,0,0,0,0,0,0,0,0,0,0,0,0,0,0,0,0,0,0,0,0,0,0,0,0,0,0,0,0,0,0,0,0,0,0,0,0,0,0,0,0,0,0,0,0,
0,0,0,0,0,0,0,0,0,0,0,0,0,0,0,0,0,0,0,0,0,0,0,0,0,0,0,0,0,0,0,0,0,0,0,0,0,0,0,0,0,0,0,0,0,0,0,0,0,0,
0,0,0,0,0,0,0,0,0,0,0,0,0,0,0,0,0,0,0,0,0,0,0,0,0,0,0,0,0,0,0,0,0,0,0,0,0,0,0,0,0,0,0,0,0,0,0,0,0,0,
0,0,0,0,0,0,0,0,0,0,0,0,0,0,0,0,0,0,0,0,0,0,0,0,0,0,0,0,0,0,0,0,0,0,0,0,0,0,0,0,0,0,0,0,0,0,0,0,0,0,
0,0,0,0,0,0,0,0,0,0,0,0,0,0,0,0,0,0,0,0,0,0,0,0,0,0,0,0,0,0,0,0,0,0,0,0,0,0,0,0,0,0,0,0,0,0,0,0,0,0,
0,0,0,0,0,0,0,0,0,0,0,0,0,0,0,0,0,0,0,0,0,0,0,0,0,0,0,0,0,0,0,0,0,0,0,0,0,0,0,0,0,0,0,0,0,0,0,0,0,0,
0,0,0,0,0,0,0,0,0,0,0,0,0,0,0,0,0,0,0,0,0,0,0,0,0,0,0,0,0,0,0,0,0,0,0,0,0,0,0,0,0,0,0,0,0,0,0,0,0,0,
0,0,0,0,0,0,0,0,0,0,0,0,0,0,0,0,0,0,0,0,0,0,0,0,0,0,0,0,0,0,0,0,0,0,0,0,0,0,0,0,0,0,0,0,0,0,0,0,0,0,
0,0,0,0,0,0,0,0,0,0,0,0,0,0,0,0,0,0,0,0,0,0,0,0,0,0,0,0,0,0,0,0,0,0,0,0,0,0,0,0,0,0,0,0,0,0,0,0,0,0,
0,0,0,0,0,0,0,0,0,0,0,0,0,0,0,0,0,0,0,0,0,0,0,0,0,0,0,0,0,0,0,0,0,0,0,0,0,0,0,0,0,0,0,0,0,0,0,0,0,0,
0,0,0,0,0,0,0,0,0,0,0,0,0,0,0,0,0,0,0,0,0,0,0,0,0,0,0,0,0,0,0,0,0,0,0,0,0,0,0,0,0,0,0,0,0,0,0,0,0,0,
0,0,0,0,0,0,0,0,0,0,0,0,0,0,0,0,0,0,0,0,0,0,0,0,0,0,0,0,0,0,0,0,0,0,0,0,0,0,0,0,0,0,0,0,0,0,0,0,0,0,
0,0,0,0,0,0,0,0,0,0,0,0,0,0,0,0,0,0,0,0,0,0,0,0,0,0,0,0,0,0,0,0,0,0,0,0,0,0,0,0,0,0,0,0,0,0,0,0,0,0,
0,0,0,0,0,0,0,0,0,0,0,0,0,0,0,0,0,0,0,0,0,0,0,0,0,0,0,0,0,0,0,0,0,0,0,0,0,0,0,0,0,0,0,0,0,0,0,0,0,0,
0,0,0,0,0,0,0,0,0,0,0,0,0,0,0,0,0,0,0,0,0,0,0,0,0,0,0,0,0,0,0,0,0,0,0,0,0,0,0,0,0,0,0,0,0,0,0,0,0,0,
0,0,0,0,0,0,0,0,0,0,0,0,0,0,0,0,0,0,0,0,0,0,0,0,0,0,0,0,0,0,0,0,0,0,0,0,0,0,0,0,0,0,0,0,0,0,0,0,0,0,
0,0,0,0,0,0,0,0,0,0,0,0,0,0,0,0,0,0,0,0,0,0,0,0,0,0,0,0,0,0,0,0,0,0,0,0,0,0,0,0,0,0,0,0,0,0,0,0,0,0,
0,0,0,0,0,0,0,0,0,0,0,0,0,0,0,0,0,0,0,0,0,0,0,0,0,0,0,0,0,0,0,0,0,0,0,0,0,0,0,0,0,0,0,0,0,0,0,0,0,0,
0,0,0,0,0,0,0,0,0,0,0,0,0,0,0,0,0,0,0,0,0,0,0,0,0,0,0,0,0,0,0,0,0,0,0,0,0,0,0,0,0,0,0,0,0,0,0,0,0,0,
0,0,0,0,0,0,0,0,0,0,0,0,0,0,0,0,0,0,0,0,0,0,0,0,0,0,0,0,0,0,0,0,0,0,0,0,0,0,0,0,0,0,0,0,0,0,0,0,0,0,
0,0,0,0,0,0,0,0,0,0,0,0,0,0,0,0,0,0,0,0,0,0,0,0,0,0,0,0,0,0,0,0,0,0,0,0,0,0,0,0,0,0,0,0,0,0,0,0,0,0,
0,0,0,0,0,0,0,0,0,0,0,0,0,0,0,0,0,0,0,0,0,0,0,0,0,0,0,0,0,0,0,0,0,0,0,0,0,0,0,0,0,0,0,0,0,0,0,0,0,0,
0,0,0,0,0,0,0,0,0,0,0,0,0,0,0,0,0,0,0,0,0,0,0,0,0,0,0,0,0,0,0,0,0,0,0,0,0,0,0,0,0,0,0,0,0,0,0,0,0,0,
0,0,0,0,0,0,0,0,0,0,0,0,0,0,0,0,0,0,0,0,0,0,0,0,0,0,0,0,0,0,0,0,0,0,0,0,0,0,0,0,0,0,0,0,0,0,0,0,0,0,
0,0,0,0,0,0,0,0,0,0,0,0,0,0,0,0,0,0,0,0,0,0,0,0,0,0,0,0,0,0,0,0,0,0,0,0,0,0,0,0,0,0,0,0,0,0,0,0,0,0,
0,0,0,0,0,0,0,0,0,0,0,0,0,0,0,0,0,0,0,0,0,0,0,0,0,0,0,0,0,0,0,0,0,0,0,0,0,0,0,0,0,0,0,0,0,0,0,0,0,0,
0,0,0,0,0,0,0,0,0,0,0,0,0,0,0,0,0,0,0,0,0,0,0,0,0,0,0,0,0,0,0,0,0,0,0,0,0,0,0,0,0,0,0,0,0,0,0,0,0,0,
0,0,0,0,0,0,0,0,0,0,0,0,0,0,0,0,0,0,0,0,0,0,0,0,0,0,0,0,0,0,0,0,0,0,0,0,0,0,0,0,0,0,0,0,0,0,0,0,0,0,
0,0,0,0,0,0,0,0,0,0,0,0,0,0,0,0,0,0,0,0,0,0,0,0,0,0,0,0,0,0,0,0,0,0,0,0,0,0,0,0,0,0,0,0,0,0,0,0,0,0,
0,0,0,0,0,0,0,0,0,0,0,0,0,0,0,0,0,0,0,0,0,0,0,0,0,0,0,0,0,0,0,0,0,0,0,0,0,0,0,0,0,0,0,0,0,0,0,0,0,0,
0,0,0,0,0,0,0,0,0,0,0,0,0,0,0,0,0,0,0,0,0,0,0,0,0,0,0,0,0,0,0,0,0,0,0,0,0,0,0,0,0,0,0,0,0,0,0,0,0,0,
0,0,0,0,0,0,0,0,0,0,0,0,0,0,0,0,0,0,0,0,0,0,0,0,0,0,0,0,0,0,0,0,0,0,0,0,0,0,0,0,0,0,0,0,0,0,0,0,0,0,
0,0,0,0,0,0,0,0,0,0,0,0,0,0,0,0,0,0,0,0,0,0,0,0,0,0,0,0,0,0,0,0,0,0,0,0,0,0,0,0,0,0,0,0,0,0,0,0,0,0,
0,0,0,0,0,0,0,0,0,0,0,0,0,0,0,0,0,0,0,0,0,0,0,0,0,0,0,0,0,0,0,0,0,0,0,0,0,0,0,0,0,0,0,0,0,0,0,0,0,0,
0,0,0,0,0,0,0,0,0,0,0,0,0,0,0,0,0,0,0,0,0,0,0,0,0,0,0,0,0,0,0,0,0,0,0,0,0,0,0,0,0,0,0,0,0,0,0,0,0,0,
0,0,0,0,0,0,0,0,0,0,0,0,0,0,0,0,0,0,0,0,0,0,0,0,0,0,0,0,0,0,0,0,0,0,0,0,0,0,0,0,0,0,0,0,0,0,0,0,0,0,
0,0,0,0,0,0,0,0,0,0,0,0,0,0,0,0,0,0,0,0,0,0,0,0,0,0,0,0,0,0,0,0,0,0,0,0,0,0,0,0,0,0,0,0,0,0,0,0,0,0,
0,0,0,0,0,0,0,0,0,0,0,0,0,0,0,0,0,0,0,0,0,0,0,0,0,0,0,0,0,0,0,0,0,0,0,0,0,0,0,0,0,0,0,0,0,0,0,0,0,0,
0,0,0,0,0,0,0,0,0,0,0,0,0,0,0,0,0,0,0,0,0,0,0,0,0,0,0,0,0,0,0,0,0,0,0,0,0,0,0,0,0,0,0,0,0,0,0,0,0,0,
0,0,0,0,0,0,0,0,0,0,0,0,0,0,0,0,0,0,0,0,0,0,0,0,0,0,0,0,0,0,0,0,0,0,0,0,0,0,0,0,0,0,0,0,0,0,0,0,0,0,
0,0,0,0,0,0,0,0,0,0,0,0,0,0,0,0,0,0,0,0,0,0,0,0,0,0,0,0,0,0,0,0,0,0,0,0,0,0,0,0,0,0,0,0,0,0,0,0,0,0,
0,0,0,0,0,0,0,0,0,0,0,0,0,0,0,0,0,0,0,0,0,0,0,0,0,0,0,0,0,0,0,0,0,0,0,0,0,0,0,0,0,0,0,0,0,0,0,0,0,0,
0,0,0,0,0,0,0,0,0,0,0,0,0,0,0,0,0,0,0,0,0,0,0,0,0,0,0,0,0,0,0,0,0,0,0,0,0,0,0,0,0,0,0,0,0,0,0,0,0,0,
0,0,0,0,0,0,0,0,0,0,0,0,0,0,0,0,0,0,0,0,0,0,0,0,0,0,0,0,0,0,0,0,0,0,0,0,0,0,0,0,0,0,0,0,0,0,0,0,0,0,
0,0,0,0,0,0,0,0,0,0,0,0,0,0,0,0,0,0,0,0,0,0,0,0,0,0,0,0,0,0,0,0,0,0,0,0,0,0,0,0,0,0,0,0,0,0,0,0,0,0,
0,0,0,0,0,0,0,0,0,0,0,0,0,0,0,0,0,0,0,0,0,0,0,0,0,0,0,0,0,0,0,0,0,0,0,0,0,0,0,0,0,0,0,0,0,0,0,0,0,0
</data>
 </layer>
 <layer id="14" name="object_upper" width="50" height="50">
  <data encoding="csv">
0,0,0,0,0,0,0,0,0,0,0,0,0,0,0,326,327,328,0,0,326,327,328,0,0,0,0,0,0,326,327,328,0,0,326,327,328,0,326,327,328,0,0,0,0,0,0,0,0,0,
0,0,0,0,0,0,0,0,0,0,0,0,0,0,0,334,335,336,0,0,334,335,336,0,0,0,0,0,0,334,335,336,0,0,334,335,336,0,334,335,336,0,0,0,0,0,0,0,0,0,
0,0,0,0,0,0,0,0,0,0,0,0,0,0,0,342,343,344,0,0,342,343,344,0,0,0,0,0,0,342,343,344,0,0,342,343,344,0,342,343,344,0,0,0,0,326,327,328,0,0,
0,0,0,0,0,0,0,0,0,0,0,0,0,0,0,0,0,0,0,0,0,0,0,0,0,0,0,0,0,0,0,0,0,0,0,0,0,0,0,0,0,0,0,0,0,334,335,336,0,0,
0,0,0,0,0,0,0,0,0,0,0,0,0,0,0,0,0,0,0,0,0,0,0,0,0,0,0,0,0,0,0,0,0,0,0,0,0,0,0,0,0,0,0,0,0,342,343,344,0,0,
0,0,0,0,0,0,0,0,0,0,0,0,0,0,0,0,0,0,0,0,0,0,0,0,0,0,0,0,0,0,0,0,0,0,0,0,0,0,0,0,0,0,0,0,0,0,0,0,0,0,
0,0,0,0,0,0,0,0,0,0,0,0,0,0,0,0,0,0,0,0,0,0,0,0,0,0,0,0,0,0,0,0,0,0,0,0,0,0,0,0,0,0,0,0,0,0,0,0,0,0,
0,0,0,0,0,0,0,0,0,0,0,0,0,0,0,0,0,0,0,0,0,0,0,0,0,0,0,0,0,0,0,0,0,0,0,0,0,0,0,0,0,0,0,0,0,0,0,0,0,0,
0,0,0,0,0,0,0,0,0,0,0,0,0,0,0,0,0,0,0,0,0,0,0,0,0,0,0,0,0,0,0,0,0,0,0,0,0,0,0,0,0,0,0,0,0,0,0,0,0,0,
0,0,0,0,0,0,0,0,0,0,0,0,0,0,0,0,0,0,0,0,0,0,0,0,0,0,0,0,0,0,313,0,0,0,0,0,0,0,0,0,0,0,0,0,0,0,0,0,0,0,
0,0,0,0,0,0,0,0,0,0,0,0,0,0,0,0,0,0,0,0,0,0,0,0,0,0,0,0,0,0,329,0,0,0,0,0,0,0,0,0,0,0,0,0,0,0,0,0,0,0,
0,0,0,0,0,0,0,0,0,0,0,0,0,0,0,0,0,0,0,0,0,0,0,0,0,0,0,0,0,0,345,0,0,0,0,0,0,0,0,0,0,0,0,0,0,0,0,0,0,0,
0,0,0,0,0,0,0,0,0,0,0,0,0,0,0,0,0,0,0,0,0,0,0,0,0,0,0,0,0,0,0,0,326,327,328,0,0,0,0,0,0,0,0,0,0,0,0,0,0,0,
0,0,0,0,0,0,0,0,0,0,0,0,0,0,0,0,0,0,0,0,326,327,328,0,0,0,0,326,327,328,0,0,334,335,336,0,0,0,0,0,0,0,0,0,0,0,0,0,0,0,
0,0,0,0,0,0,0,0,0,0,0,0,0,0,0,0,0,0,0,0,334,335,336,0,0,0,0,334,335,336,0,0,342,343,344,0,0,0,0,0,0,0,0,0,0,0,0,0,0,0,
0,0,0,0,0,0,0,0,0,0,0,0,0,0,0,0,0,0,0,0,342,343,344,0,0,0,0,342,343,344,0,0,0,0,0,0,0,0,0,0,0,0,0,0,0,0,0,0,0,0,
0,0,0,0,0,0,0,0,0,0,0,0,0,0,0,0,0,0,0,0,0,0,0,0,0,0,0,0,0,0,326,327,328,0,0,0,0,0,0,0,0,0,0,0,0,0,0,0,0,0,
0,0,0,0,0,0,0,0,0,0,0,0,0,0,0,0,0,0,0,0,0,0,0,0,0,0,0,0,0,0,334,335,336,0,0,0,0,0,0,0,0,0,326,327,328,0,0,0,0,0,
0,0,0,0,0,0,0,0,0,0,0,0,0,0,0,0,0,0,0,0,0,326,327,328,0,326,327,328,0,0,342,343,344,0,0,0,0,0,326,327,328,0,334,335,336,0,0,0,0,0,
0,0,0,0,0,0,0,0,0,0,0,0,0,0,0,0,0,0,0,0,0,334,335,336,0,334,335,336,0,0,0,0,0,0,0,0,0,0,334,335,336,0,342,343,344,0,0,0,0,0,
0,0,0,0,0,0,0,0,0,0,0,0,0,0,0,0,0,0,0,0,0,342,343,344,0,342,343,344,0,0,0,0,0,0,0,0,0,0,342,343,344,0,0,0,0,0,0,0,0,0,
0,0,0,0,0,0,0,326,327,328,0,0,0,0,0,0,0,0,0,0,0,0,0,0,0,0,0,0,0,0,0,0,0,0,0,0,0,0,0,0,0,326,327,328,0,0,0,0,0,0,
0,326,327,328,0,0,0,334,335,336,0,0,0,0,0,0,0,0,0,0,0,326,327,328,0,0,0,0,0,0,0,0,0,0,0,0,0,0,0,0,0,334,335,336,0,0,0,326,327,328,
0,334,335,336,0,0,0,342,343,344,0,0,0,0,0,0,0,0,0,0,0,334,335,336,0,0,0,0,0,0,0,0,0,0,0,0,0,0,0,0,0,342,343,344,0,0,0,334,335,336,
0,342,343,344,0,0,0,0,0,0,0,0,0,0,0,0,0,0,0,0,0,342,343,344,0,0,0,0,0,0,0,0,0,0,0,0,326,327,328,0,0,0,0,0,0,0,0,342,343,344,
0,0,0,0,0,0,0,0,0,0,0,0,0,0,0,0,0,0,0,0,0,0,0,0,0,0,0,0,0,0,0,0,326,327,328,0,334,335,336,0,0,0,0,0,0,0,0,0,0,0,
0,0,0,0,0,0,0,0,0,0,0,0,326,327,328,0,0,0,0,0,0,0,0,0,326,327,328,0,0,0,0,0,334,335,336,0,342,343,344,0,0,0,0,0,0,0,0,0,0,0,
0,0,0,0,0,0,0,0,326,327,328,0,334,335,336,0,0,0,0,0,0,0,0,0,334,335,336,0,0,0,0,0,342,343,344,0,0,0,0,0,0,0,0,0,0,0,0,0,0,0,
0,0,0,326,327,328,0,0,334,335,336,0,342,343,344,0,0,0,0,0,0,0,0,0,342,343,344,0,0,0,0,0,0,0,0,0,0,0,0,0,0,0,0,0,0,0,0,0,0,0,
0,0,0,334,335,336,0,0,342,343,344,0,0,0,0,0,0,0,0,0,0,0,0,0,0,0,0,0,0,0,0,0,0,0,0,0,0,0,0,0,0,0,0,0,0,0,0,0,0,0,
326,327,328,342,343,344,0,0,0,0,0,0,0,0,0,0,0,0,0,0,0,0,0,0,0,0,0,0,0,0,0,0,0,0,0,0,0,0,0,0,0,326,327,328,0,0,0,0,0,0,
334,335,336,0,0,0,0,0,0,0,0,0,0,0,0,0,0,0,0,0,0,0,0,0,0,0,0,0,0,0,0,0,0,0,0,0,0,0,0,0,0,334,335,336,0,0,0,0,0,0,
342,343,344,0,0,0,0,326,327,328,0,0,0,0,0,0,0,0,0,0,0,0,0,0,0,0,0,0,0,326,327,328,0,0,0,0,0,0,0,0,0,342,343,344,0,0,0,0,0,0,
0,0,0,0,0,0,0,334,335,336,0,0,0,0,0,0,0,0,0,0,0,0,0,0,0,0,0,0,0,334,335,336,0,0,0,0,0,0,0,0,0,0,0,0,0,0,326,327,328,0,
0,0,0,0,0,0,0,342,343,344,0,0,0,0,0,0,0,0,0,0,0,0,0,0,0,0,0,0,0,342,343,344,0,0,0,0,0,0,0,0,0,0,0,0,0,0,334,335,336,0,
0,0,0,0,0,0,0,0,0,0,0,0,0,0,0,0,0,0,0,0,0,0,0,0,0,0,0,0,0,0,0,0,0,0,0,0,0,0,0,0,0,0,0,0,0,0,342,343,344,0,
326,327,328,326,327,328,0,0,0,0,0,0,0,0,0,0,0,0,0,0,0,0,0,0,0,0,0,0,0,0,0,0,0,0,0,0,326,327,328,0,0,0,0,0,0,0,0,0,0,0,
334,335,336,334,335,336,0,0,0,0,0,0,0,326,327,328,0,326,327,328,0,0,0,0,0,0,0,0,0,0,0,326,327,328,0,0,334,335,336,326,327,328,0,0,0,326,327,328,0,0,
342,343,344,342,343,344,0,326,327,328,0,0,0,334,335,336,0,334,335,336,0,0,0,0,0,0,326,327,328,0,0,334,335,336,0,0,342,343,344,334,335,336,0,0,0,334,335,336,0,0,
0,0,0,0,0,0,0,334,335,336,0,0,0,342,343,344,0,342,343,344,0,0,0,0,0,0,334,335,336,0,0,342,343,344,0,0,0,0,0,342,343,344,0,0,0,342,343,344,0,0,
0,0,0,0,0,0,0,342,343,344,0,0,0,0,0,0,0,0,0,0,0,0,0,326,327,328,342,343,344,0,0,0,0,0,0,0,326,327,328,0,0,0,0,0,0,0,0,0,0,0,
0,0,0,0,0,0,0,0,0,0,0,0,0,326,327,328,0,0,0,0,0,0,0,334,335,336,0,0,0,0,0,0,0,0,0,0,334,335,336,0,326,327,328,0,0,0,0,0,0,0,
0,326,327,328,0,0,0,326,327,328,0,0,0,334,335,336,0,0,0,0,0,0,0,342,343,344,0,0,0,0,0,0,0,0,0,0,342,343,344,0,334,335,336,0,0,0,0,0,0,0,
0,334,335,336,0,0,0,334,335,336,0,0,0,342,343,344,0,0,0,0,0,0,0,0,0,0,0,0,0,0,0,0,0,0,0,0,0,0,0,0,342,343,344,0,0,0,0,0,0,0,
0,342,343,344,0,0,0,342,343,344,0,0,0,0,0,0,0,0,0,0,0,0,0,0,0,0,0,0,0,0,326,327,328,0,0,0,0,0,0,0,0,0,0,0,0,0,0,0,0,0,
0,0,0,0,0,0,0,0,0,0,0,0,0,326,327,328,0,326,327,328,0,0,0,0,0,0,0,0,0,0,334,335,336,0,0,0,0,0,0,0,0,0,0,0,0,0,0,326,327,328,
0,326,327,328,0,0,0,0,0,0,0,0,0,334,335,336,0,334,335,336,0,0,326,327,328,0,326,327,328,0,342,343,344,0,0,0,0,0,326,327,328,0,0,0,0,0,0,334,335,336,
0,334,335,336,0,0,0,0,0,0,0,0,0,342,343,344,0,342,343,344,0,0,334,335,336,0,334,335,336,0,0,0,0,0,0,0,0,0,334,335,336,0,0,0,0,0,0,342,343,344,
0,342,343,344,0,0,0,0,0,0,0,0,0,0,0,0,0,0,0,0,0,0,342,343,344,0,342,343,344,0,0,0,0,0,0,0,0,0,342,343,344,0,0,0,0,0,0,0,0,0,
0,0,0,0,0,0,0,0,0,0,0,0,0,0,0,0,0,0,0,0,0,0,0,0,0,0,0,0,0,0,0,0,0,0,0,0,0,0,0,0,0,0,0,0,0,0,0,0,0,0
</data>
 </layer>
 <layer id="15" name="deco" width="50" height="50">
  <data encoding="csv">
0,0,0,0,0,0,0,0,0,0,0,0,0,0,0,0,0,0,0,0,0,0,0,0,0,0,0,0,0,0,0,0,0,0,0,0,0,0,0,0,0,0,0,0,0,0,0,0,0,0,
0,0,0,0,0,0,0,0,0,0,0,0,0,0,0,0,0,0,0,0,0,0,0,0,0,0,0,0,0,0,0,0,0,0,0,0,0,0,0,0,0,0,0,0,0,0,0,0,0,0,
0,0,0,0,0,0,0,0,0,0,0,0,0,0,0,0,0,0,0,0,0,0,0,0,0,0,0,0,0,0,0,0,0,0,0,0,0,0,0,0,0,0,0,0,0,0,0,0,0,0,
0,0,0,0,0,0,0,0,0,0,0,0,0,0,0,0,0,0,0,0,0,0,0,0,0,0,0,0,0,0,0,0,0,0,0,0,0,0,0,0,0,0,0,0,0,0,0,0,0,0,
0,0,0,0,0,0,0,0,0,0,0,0,0,0,0,0,0,0,0,0,0,0,0,0,0,0,0,0,0,0,0,0,0,0,0,0,0,0,0,0,0,0,0,0,0,0,0,0,0,0,
0,0,0,0,0,0,0,0,0,0,0,0,0,0,0,0,0,0,0,0,0,0,0,0,0,0,0,0,0,0,0,0,0,0,0,0,0,0,0,0,0,0,0,0,0,0,0,0,0,0,
0,0,0,0,0,0,0,0,0,0,0,0,0,0,0,0,0,0,0,0,0,0,0,0,0,0,0,0,0,0,0,0,0,0,0,0,0,0,0,0,0,0,0,0,0,0,0,0,0,0,
0,0,0,0,0,0,0,0,0,0,0,0,0,0,0,0,0,0,0,0,0,0,0,0,0,0,0,0,0,0,0,0,0,0,0,0,0,0,0,0,0,0,0,0,0,0,0,0,0,0,
0,0,0,0,0,0,0,0,0,0,0,0,0,0,0,0,0,0,0,0,0,0,0,0,0,0,0,0,0,0,0,0,0,0,0,0,0,0,0,0,0,0,0,0,0,0,0,0,0,0,
0,0,0,0,0,0,0,0,0,0,0,0,0,0,0,0,0,0,0,0,0,0,0,0,0,0,0,0,0,0,0,0,0,0,0,0,0,0,0,0,0,0,0,0,0,0,0,0,0,0,
0,0,0,0,0,0,0,0,0,0,0,0,0,0,0,0,0,0,0,0,0,0,0,0,0,0,0,0,0,0,0,0,0,0,0,0,0,0,0,0,0,0,0,0,0,0,0,0,0,0,
0,0,0,0,0,0,0,0,0,0,0,0,0,0,0,0,0,0,0,0,0,0,0,0,0,0,0,0,0,0,0,0,0,0,0,0,0,0,0,0,0,0,0,0,0,0,0,0,0,0,
0,0,0,0,0,0,0,0,0,0,0,0,0,0,0,0,0,0,0,0,0,0,0,0,0,0,0,0,0,0,0,0,0,0,0,0,0,0,0,0,0,0,0,0,0,0,0,0,0,0,
0,0,0,0,0,0,0,0,0,0,0,0,0,0,0,0,0,0,0,0,0,0,0,0,0,0,0,0,0,0,0,0,0,0,0,0,0,0,0,0,0,0,0,0,0,0,0,0,0,0,
0,0,0,0,0,0,0,0,0,0,0,0,0,0,0,0,0,0,0,0,0,0,0,0,0,0,0,0,0,0,0,0,0,0,0,0,0,0,0,0,0,0,0,0,0,0,0,0,0,0,
0,0,0,0,0,0,0,0,0,0,0,0,0,0,0,0,0,0,0,0,0,0,0,0,0,0,0,0,0,0,0,0,0,0,0,0,0,0,0,0,0,0,0,0,0,0,0,0,0,0,
0,0,0,0,0,0,0,0,0,0,0,0,0,0,0,0,0,0,0,0,0,0,0,0,0,0,0,0,0,0,0,0,0,0,0,0,0,0,0,0,0,0,0,0,0,0,0,0,0,0,
0,0,0,0,0,0,0,0,0,0,0,0,0,0,0,0,0,0,0,0,0,0,0,0,0,0,0,0,0,0,0,0,0,0,0,0,0,0,0,0,0,0,0,0,0,0,0,0,0,0,
0,0,0,0,0,0,0,0,0,0,0,0,0,0,0,0,0,0,0,0,0,0,0,0,0,0,0,0,0,0,0,0,0,0,0,0,0,0,0,0,0,0,0,0,0,0,0,0,0,0,
0,0,0,0,0,0,0,0,0,0,0,0,0,0,0,0,0,0,0,0,0,0,0,0,0,0,0,0,0,0,0,0,0,0,0,0,0,0,0,0,0,0,0,0,0,0,0,0,0,0,
0,0,0,0,0,0,5,5,0,0,0,0,0,0,0,0,0,0,0,0,0,0,0,0,0,0,0,0,0,0,0,0,0,0,0,0,0,0,0,0,0,0,0,0,0,0,0,0,0,0,
0,0,0,0,0,0,29,13,0,0,0,0,0,0,0,0,0,0,0,0,0,0,0,0,0,0,0,0,0,0,0,0,0,0,0,0,0,0,0,0,0,0,0,0,0,0,0,0,0,0,
0,0,0,0,0,0,0,0,0,0,0,0,0,0,0,0,0,0,0,0,0,0,0,0,0,0,0,0,0,0,0,0,0,0,0,0,0,0,0,0,0,0,0,0,0,0,0,0,0,0,
0,0,0,0,0,0,0,0,0,0,0,0,0,0,0,0,0,0,0,0,0,0,0,0,0,0,0,0,0,0,0,0,0,0,0,0,0,0,0,0,0,0,0,0,0,0,0,0,0,0,
0,0,0,0,0,0,0,0,0,0,0,0,0,0,0,0,0,0,0,0,0,0,0,0,0,0,0,0,0,0,0,0,0,0,0,0,0,0,0,0,0,0,0,0,0,0,0,0,0,0,
0,0,0,0,0,0,0,0,0,0,0,0,0,0,0,0,0,0,0,0,0,0,0,0,0,0,0,0,0,0,0,0,0,0,0,0,0,0,0,0,0,0,0,0,0,0,0,0,0,0,
0,0,0,0,0,0,0,0,0,0,0,0,0,0,0,0,0,0,0,0,0,0,0,0,0,0,0,0,0,0,0,0,0,0,0,0,0,0,0,0,0,0,0,0,0,0,0,0,0,0,
0,0,0,0,0,0,0,0,0,0,0,0,0,0,0,0,0,0,0,0,0,0,0,0,0,0,0,0,0,0,0,0,0,0,0,0,0,0,0,0,0,0,0,0,0,0,0,0,0,0,
0,0,0,0,0,0,0,0,0,0,0,0,0,0,0,0,0,0,0,0,0,0,0,0,0,0,0,0,0,0,0,0,0,0,0,0,0,0,0,0,0,0,0,0,0,0,0,0,0,0,
0,0,0,0,0,0,0,0,0,0,0,0,0,0,0,0,0,0,0,0,0,0,0,0,0,0,0,0,0,0,0,0,0,0,0,0,0,0,0,0,0,0,0,0,0,0,0,0,0,0,
0,0,0,0,0,0,0,0,0,0,0,0,0,0,0,0,0,0,0,0,0,0,0,0,0,0,0,0,0,0,0,0,0,0,0,0,0,0,0,0,0,0,0,0,0,0,0,0,0,0,
0,0,0,0,0,0,0,0,0,0,0,0,0,0,0,0,0,0,0,0,0,0,0,0,0,0,0,0,0,0,0,0,0,0,0,0,0,0,0,0,0,0,0,0,0,0,0,0,0,0,
0,0,0,0,0,0,0,0,0,0,0,0,0,0,0,0,0,0,0,0,0,0,0,0,0,0,0,0,0,0,0,0,0,0,0,0,0,0,0,0,0,0,0,0,0,0,0,0,0,0,
0,0,0,0,0,0,0,0,0,0,0,0,0,0,0,0,0,0,0,0,0,0,0,0,0,0,0,0,0,0,0,0,0,0,0,0,0,0,0,0,0,0,0,0,0,0,0,0,0,0,
0,0,0,0,0,0,0,0,0,0,0,0,0,0,0,0,0,0,0,0,0,0,0,0,0,0,0,0,0,0,0,0,0,0,0,0,0,0,0,0,0,0,0,0,0,0,0,0,0,0,
0,0,0,0,0,0,0,0,0,0,0,0,0,0,0,0,0,0,0,0,0,0,0,0,0,0,0,0,0,0,0,0,0,0,0,0,0,0,0,0,0,0,0,0,0,0,0,0,0,0,
0,0,0,0,0,0,0,0,0,0,0,0,0,0,0,0,0,0,0,0,0,0,0,0,0,0,0,0,0,0,0,0,0,0,0,0,0,0,0,0,0,0,0,0,0,0,0,0,0,0,
0,0,0,0,0,0,0,0,0,0,0,0,0,0,0,0,0,0,0,0,0,0,0,0,0,0,0,0,0,0,0,0,0,0,0,0,0,0,0,0,0,0,0,0,0,0,0,0,0,0,
0,0,0,0,0,0,0,0,0,0,0,0,0,0,0,0,0,0,0,0,0,0,0,0,0,0,0,0,0,0,0,0,0,0,0,0,0,0,0,0,0,0,0,0,0,0,0,0,0,0,
0,0,0,0,0,0,0,0,0,0,0,0,0,0,0,0,0,0,0,0,0,0,0,0,0,0,0,0,0,0,0,0,0,0,0,0,0,0,0,0,0,0,0,0,0,0,0,0,0,0,
0,0,0,0,0,0,0,0,0,0,0,0,0,0,0,0,0,0,0,0,0,0,0,0,0,0,0,0,0,0,0,0,0,0,0,0,0,0,0,0,0,0,0,0,0,0,0,0,0,0,
0,0,0,0,0,0,0,0,0,0,0,0,0,0,0,0,0,0,0,0,0,0,0,0,0,0,0,0,0,0,0,0,0,0,0,0,0,0,0,0,0,0,0,0,0,0,0,0,0,0,
0,0,0,0,0,0,0,0,0,0,0,0,0,0,0,0,0,0,0,0,0,0,0,0,0,0,0,0,0,0,0,0,0,0,0,0,0,0,0,0,0,0,0,0,0,0,0,0,0,0,
0,0,0,0,0,0,0,0,0,0,0,0,0,0,0,0,0,0,0,0,0,0,0,0,0,0,0,0,0,0,0,0,0,0,0,0,0,0,0,0,0,0,0,0,0,0,0,0,0,0,
0,0,0,0,0,0,0,0,0,0,0,0,0,0,0,0,0,0,0,0,0,0,0,0,0,0,0,0,0,0,0,0,0,0,0,0,0,0,0,0,0,0,0,0,0,0,0,0,0,0,
0,0,0,0,0,0,0,0,0,0,0,0,0,0,0,0,0,0,0,0,0,0,0,0,0,0,0,0,0,0,0,0,0,0,0,0,0,0,0,0,0,0,0,0,0,0,0,0,0,0,
0,0,0,0,0,0,0,0,0,0,0,0,0,0,0,0,0,0,0,0,0,0,0,0,0,0,0,0,0,0,0,0,0,0,0,0,0,0,0,0,0,0,0,0,0,0,0,0,0,0,
0,0,0,0,0,0,0,0,0,0,0,0,0,0,0,0,0,0,0,0,0,0,0,0,0,0,0,0,0,0,0,0,0,0,0,0,0,0,0,0,0,0,0,0,0,0,0,0,0,0,
0,0,0,0,0,0,0,0,0,0,0,0,0,0,0,0,0,0,0,0,0,0,0,0,0,0,0,0,0,0,0,0,0,0,0,0,0,0,0,0,0,0,0,0,0,0,0,0,0,0,
0,0,0,0,0,0,0,0,0,0,0,0,0,0,0,0,0,0,0,0,0,0,0,0,0,0,0,0,0,0,0,0,0,0,0,0,0,0,0,0,0,0,0,0,0,0,0,0,0,0
</data>
 </layer>
 <layer id="16" name="roof" width="50" height="50">
  <data encoding="csv">
0,0,0,0,0,0,0,0,0,0,0,0,0,0,0,0,0,0,0,0,0,0,0,0,0,0,0,0,0,0,0,0,0,0,0,0,0,0,0,0,0,0,0,0,0,0,0,0,0,0,
0,0,0,0,0,0,0,0,0,0,0,0,0,0,0,0,0,0,0,0,0,0,0,0,0,0,0,0,0,0,0,0,0,0,0,0,0,0,0,0,0,0,0,0,0,0,0,0,0,0,
0,0,0,0,0,0,0,0,0,0,0,0,0,0,0,0,0,0,0,0,0,0,0,0,0,0,0,0,0,0,0,0,0,0,0,0,0,0,0,0,0,0,0,0,0,0,0,0,0,0,
0,0,0,0,0,0,0,0,0,0,0,0,0,0,0,0,0,0,0,0,0,0,0,0,0,0,0,0,0,0,0,0,0,0,0,0,0,0,0,0,0,0,0,0,0,0,0,0,0,0,
0,0,0,0,0,0,0,0,0,0,0,0,0,0,0,0,0,0,0,0,0,0,0,0,0,0,0,0,0,0,0,0,0,0,0,0,0,0,0,0,0,0,0,0,0,0,0,0,0,0,
0,0,0,0,0,0,0,0,0,0,0,0,0,0,0,0,0,0,0,0,0,0,0,0,0,0,0,0,0,0,0,0,0,0,0,0,0,0,0,0,0,0,0,0,0,0,0,0,0,0,
0,0,0,0,0,0,0,0,0,0,0,0,0,0,0,0,0,0,0,0,0,0,0,0,0,0,0,0,0,0,0,0,0,0,0,0,0,0,0,0,0,0,0,0,0,0,0,0,0,0,
0,0,0,0,0,0,0,0,0,0,0,0,0,0,0,0,0,0,0,0,0,0,0,0,0,0,0,0,0,0,0,0,0,0,0,0,0,0,0,0,0,0,0,0,0,0,0,0,0,0,
0,0,0,0,0,0,0,0,0,0,0,0,0,0,0,0,0,0,0,0,0,0,0,0,0,0,0,0,0,0,0,0,0,0,0,0,0,0,0,0,0,0,0,0,0,0,0,0,0,0,
0,0,0,0,0,0,0,0,0,0,0,0,0,0,0,0,0,0,0,0,0,0,0,0,0,0,0,0,0,0,0,0,0,0,0,0,0,0,0,0,0,0,0,0,0,0,0,0,0,0,
0,0,0,0,0,0,0,0,0,0,0,0,0,0,0,0,0,0,0,0,0,0,0,0,0,0,0,0,0,0,0,0,0,0,0,0,0,0,0,0,0,0,0,0,0,0,0,0,0,0,
0,0,0,0,0,0,0,0,0,0,0,0,0,0,0,0,0,0,0,0,0,0,0,0,0,0,0,0,0,0,0,0,0,0,0,0,0,0,0,0,0,0,0,0,0,0,0,0,0,0,
0,0,0,0,0,0,0,0,0,0,0,0,0,0,0,0,0,0,0,0,0,0,0,0,0,0,0,0,0,0,0,0,0,0,0,0,0,0,0,0,0,0,0,0,0,0,0,0,0,0,
0,0,0,0,0,0,0,0,0,0,0,0,0,0,0,0,0,0,0,0,0,0,0,0,0,0,0,0,0,0,0,0,0,0,0,0,0,0,0,0,0,0,0,0,0,0,0,0,0,0,
0,0,0,0,0,0,0,0,0,0,0,0,0,0,0,0,0,0,0,0,0,0,0,0,0,0,0,0,0,0,0,0,0,0,0,0,0,0,0,0,0,0,0,0,0,0,0,0,0,0,
0,0,0,0,0,0,0,0,0,0,0,0,0,0,0,0,0,0,0,0,0,0,0,0,0,0,0,0,0,0,0,0,0,0,0,0,0,0,0,0,0,0,0,0,0,0,0,0,0,0,
0,0,0,0,0,173,174,175,176,0,0,0,0,0,0,0,0,0,0,0,0,0,0,0,0,0,0,0,0,0,0,0,0,0,0,0,0,0,0,0,0,0,0,0,0,0,0,0,0,0,
0,0,0,0,0,181,182,183,184,0,0,0,0,0,0,0,0,0,0,0,0,0,0,0,0,0,0,0,0,0,0,0,0,0,0,0,0,0,0,0,0,0,0,0,0,0,0,0,0,0,
0,0,0,0,0,189,190,191,192,0,0,0,0,0,0,0,0,0,0,0,0,0,0,0,0,0,0,0,0,0,0,0,0,0,0,0,0,0,0,0,0,0,0,0,0,0,0,0,0,0,
0,0,0,0,0,197,198,199,200,0,0,0,0,0,0,0,0,0,0,0,0,0,0,0,0,0,0,0,0,0,0,0,0,0,0,0,0,0,0,0,0,0,0,0,0,0,0,0,0,0,
0,0,0,0,0,205,206,207,208,0,0,0,0,0,0,0,0,0,0,0,0,0,0,0,0,0,0,0,0,0,0,0,0,0,0,0,0,0,0,0,0,0,0,0,0,0,0,0,0,0,
0,0,0,0,0,0,0,0,0,0,0,0,0,0,0,0,0,0,0,0,0,0,0,0,0,0,0,0,0,0,0,0,0,0,0,0,0,0,0,0,0,0,0,0,0,0,0,0,0,0,
0,0,0,0,0,0,0,0,0,0,0,0,0,0,0,0,0,0,0,0,0,0,0,0,0,0,0,0,0,0,0,0,0,0,0,0,0,0,0,0,0,0,0,0,0,0,0,0,0,0,
0,0,0,0,0,0,0,0,0,0,0,0,0,0,0,0,0,0,0,0,0,0,0,0,0,0,0,0,0,0,0,0,0,0,0,0,0,0,0,0,0,0,0,0,0,0,0,0,0,0,
0,0,0,0,0,0,0,0,0,0,0,0,0,0,0,0,0,0,0,0,0,0,0,0,0,0,0,0,0,0,0,0,0,0,0,0,0,0,0,0,0,0,0,0,0,0,0,0,0,0,
0,0,0,0,0,0,0,0,0,0,0,0,0,0,0,0,0,0,0,0,0,0,0,0,0,0,0,0,0,0,0,0,0,0,0,0,0,0,0,0,0,0,0,0,0,0,0,0,0,0,
0,0,0,0,0,0,0,0,0,0,0,0,0,0,0,0,0,0,0,0,0,0,0,0,0,0,0,0,0,0,0,0,0,0,0,0,0,0,0,0,0,0,0,0,0,0,0,0,0,0,
0,0,0,0,0,0,0,0,0,0,0,0,0,0,0,0,0,0,0,0,0,0,0,0,0,0,0,0,0,0,0,0,0,0,0,0,0,0,0,0,0,0,0,0,0,0,0,0,0,0,
0,0,0,0,0,0,0,0,0,0,0,0,0,0,0,0,0,0,0,0,0,0,0,0,0,0,0,0,0,0,0,0,0,0,0,0,0,0,0,0,0,0,0,0,0,0,0,0,0,0,
0,0,0,0,0,0,0,0,0,0,0,0,0,0,0,0,0,0,0,0,0,0,0,0,0,0,0,0,0,0,0,0,0,0,0,0,0,0,0,0,0,0,0,0,0,0,0,0,0,0,
0,0,0,0,0,0,0,0,0,0,0,0,0,0,0,0,0,0,0,0,0,0,0,0,0,0,0,0,0,0,0,0,0,0,0,0,0,0,0,0,0,0,0,0,0,0,0,0,0,0,
0,0,0,0,0,0,0,0,0,0,0,0,0,0,0,0,0,0,0,0,0,0,0,0,0,0,0,0,0,0,0,0,0,0,0,0,0,0,0,0,0,0,0,0,0,0,0,0,0,0,
0,0,0,0,0,0,0,0,0,0,0,0,0,0,0,0,0,0,0,0,0,0,0,0,0,0,0,0,0,0,0,0,0,0,0,0,0,0,0,0,0,0,0,0,0,0,0,0,0,0,
0,0,0,0,0,0,0,0,0,0,0,0,0,0,0,0,0,0,0,0,0,0,0,0,0,0,0,0,0,0,0,0,0,0,0,0,0,0,0,0,0,0,0,0,0,0,0,0,0,0,
0,0,0,0,0,0,0,0,0,0,0,0,0,0,0,0,0,0,0,0,0,0,0,0,0,0,0,0,0,0,0,0,0,0,0,0,0,0,0,0,0,0,0,0,0,0,0,0,0,0,
0,0,0,0,0,0,0,0,0,0,0,0,0,0,0,0,0,0,0,0,0,0,0,0,0,0,0,0,0,0,0,0,0,0,0,0,0,0,0,0,0,0,0,0,0,0,0,0,0,0,
0,0,0,0,0,0,0,0,0,0,0,0,0,0,0,0,0,0,0,0,0,0,0,0,0,0,0,0,0,0,0,0,0,0,0,0,0,0,0,0,0,0,0,0,0,0,0,0,0,0,
0,0,0,0,0,0,0,0,0,0,0,0,0,0,0,0,0,0,0,0,0,0,0,0,0,0,0,0,0,0,0,0,0,0,0,0,0,0,0,0,0,0,0,0,0,0,0,0,0,0,
0,0,0,0,0,0,0,0,0,0,0,0,0,0,0,0,0,0,0,0,0,0,0,0,0,0,0,0,0,0,0,0,0,0,0,0,0,0,0,0,0,0,0,0,0,0,0,0,0,0,
0,0,0,0,0,0,0,0,0,0,0,0,0,0,0,0,0,0,0,0,0,0,0,0,0,0,0,0,0,0,0,0,0,0,0,0,0,0,0,0,0,0,0,0,0,0,0,0,0,0,
0,0,0,0,0,0,0,0,0,0,0,0,0,0,0,0,0,0,0,0,0,0,0,0,0,0,0,0,0,0,0,0,0,0,0,0,0,0,0,0,0,0,0,0,0,0,0,0,0,0,
0,0,0,0,0,0,0,0,0,0,0,0,0,0,0,0,0,0,0,0,0,0,0,0,0,0,0,0,0,0,0,0,0,0,0,0,0,0,0,0,0,0,0,0,0,0,0,0,0,0,
0,0,0,0,0,0,0,0,0,0,0,0,0,0,0,0,0,0,0,0,0,0,0,0,0,0,0,0,0,0,0,0,0,0,0,0,0,0,0,0,0,0,0,0,0,0,0,0,0,0,
0,0,0,0,0,0,0,0,0,0,0,0,0,0,0,0,0,0,0,0,0,0,0,0,0,0,0,0,0,0,0,0,0,0,0,0,0,0,0,0,0,0,0,0,0,0,0,0,0,0,
0,0,0,0,0,0,0,0,0,0,0,0,0,0,0,0,0,0,0,0,0,0,0,0,0,0,0,0,0,0,0,0,0,0,0,0,0,0,0,0,0,0,0,0,0,0,0,0,0,0,
0,0,0,0,0,0,0,0,0,0,0,0,0,0,0,0,0,0,0,0,0,0,0,0,0,0,0,0,0,0,0,0,0,0,0,0,0,0,0,0,0,0,0,0,0,0,0,0,0,0,
0,0,0,0,0,0,0,0,0,0,0,0,0,0,0,0,0,0,0,0,0,0,0,0,0,0,0,0,0,0,0,0,0,0,0,0,0,0,0,0,0,0,0,0,0,0,0,0,0,0,
0,0,0,0,0,0,0,0,0,0,0,0,0,0,0,0,0,0,0,0,0,0,0,0,0,0,0,0,0,0,0,0,0,0,0,0,0,0,0,0,0,0,0,0,0,0,0,0,0,0,
0,0,0,0,0,0,0,0,0,0,0,0,0,0,0,0,0,0,0,0,0,0,0,0,0,0,0,0,0,0,0,0,0,0,0,0,0,0,0,0,0,0,0,0,0,0,0,0,0,0,
0,0,0,0,0,0,0,0,0,0,0,0,0,0,0,0,0,0,0,0,0,0,0,0,0,0,0,0,0,0,0,0,0,0,0,0,0,0,0,0,0,0,0,0,0,0,0,0,0,0
</data>
 </layer>
 <objectgroup id="2" name="characters">
  <object id="5" name="꿀꿀이-1" type="character" x="224" y="160" width="32" height="32">
   <properties>
    <property name="blocksMovement" type="bool" value="true"/>
    <property name="monster.level" type="int" value="2"/>
    <property name="type" value="monster_pig"/>
   </properties>
  </object>
  <object id="6" name="말캉이-1" type="character" x="416" y="224" width="32" height="32">
   <properties>
    <property name="blocksMovement" type="bool" value="true"/>
    <property name="monster.level" type="int" value="1"/>
    <property name="type" value="monster_slime"/>
   </properties>
  </object>
  <object id="8" name="꿀꿀이-2" type="character" x="832" y="160" width="32" height="32">
   <properties>
    <property name="blocksMovement" type="bool" value="true"/>
    <property name="monster.level" type="int" value="2"/>
    <property name="type" value="monster_pig"/>
   </properties>
  </object>
  <object id="9" name="말캉이-2" type="character" x="512" y="512" width="32" height="32">
   <properties>
    <property name="blocksMovement" type="bool" value="true"/>
    <property name="monster.level" type="int" value="1"/>
    <property name="type" value="monster_slime"/>
   </properties>
  </object>
  <object id="11" name="cave_entrance_sign" type="character" x="1440" y="384" width="32" height="32">
   <properties>
    <property name="type" value="sign_inn"/>
    <property name="blocksMovement" type="bool" value="false"/>
    <property name="displayText" value="동굴입구"/>
   </properties>
  </object>
 </objectgroup>
 <objectgroup id="3" name="portals">
  <object id="4" name="return_gate" type="portal" x="0" y="320" width="32" height="64">
   <properties>
    <property name="appearanceType" value="stairs_stone_step_base_00"/>
    <property name="targetFacing" value="right"/>
    <property name="targetSceneId" value="town"/>
    <property name="targetSpawnTileX" type="int" value="46"/>
    <property name="targetSpawnTileY" type="int" value="17"/>
   </properties>
  </object>
  <object id="10" name="cave_entrance" type="portal" x="1568" y="320" width="32" height="64">
   <properties>
    <property name="appearanceType" value="cave_entrance"/>
    <property name="targetFacing" value="left"/>
    <property name="targetSceneId" value="cave"/>
    <property name="targetSpawnTileX" type="int" value="2"/>
    <property name="targetSpawnTileY" type="int" value="10"/>
   </properties>
  </object>
 </objectgroup>
</map>
