<?xml version="1.0" encoding="UTF-8"?>
<map version="1.10" tiledversion="1.12.1" orientation="orthogonal" renderorder="right-down" width="44" height="36" tilewidth="32" tileheight="32" infinite="0" nextlayerid="17" nextobjectid="50">
<!-- scripts/generate-reed-village.py 가 생성한다. 손으로 고치지 말고 스크립트를 고친 뒤 다시 돌릴 것. -->
 <tileset firstgid="1" source="../tilesets/town-32.tsx"/>
 <layer id="10" name="ground" width="44" height="36">
  <data encoding="csv">
639,639,639,639,639,639,639,639,639,639,639,639,639,639,639,639,639,639,639,639,639,639,639,639,639,639,639,1353,1354,1353,1353,1353,1354,1353,639,639,639,639,639,639,639,639,639,639,
639,639,639,639,639,639,639,639,639,639,639,639,639,639,639,639,639,639,639,639,639,639,639,639,639,639,1353,1353,1354,1354,1353,1353,1354,1354,1353,1353,1354,639,639,639,639,639,639,639,
639,639,639,639,639,639,639,639,639,639,639,639,639,639,639,639,639,639,639,639,639,639,639,639,639,639,1353,1354,1353,1354,1353,1354,1353,1354,1353,1354,1353,639,639,639,639,639,639,639,
639,639,639,639,639,639,639,639,639,639,639,639,639,639,639,639,639,639,639,639,639,639,639,639,639,1353,1353,1354,1353,1353,1353,1354,1353,1353,1353,1354,1353,639,639,639,639,639,639,639,
639,639,639,639,639,639,639,1353,1353,639,639,639,639,639,639,639,639,639,639,639,639,639,639,639,639,1353,1354,1354,1353,1353,1354,1353,1353,1353,1354,1353,1353,639,639,639,639,639,639,639,
639,639,639,639,639,639,1354,1354,1353,639,639,639,639,639,639,639,639,639,639,639,639,639,639,639,1353,1353,1353,1354,1353,1353,1354,1354,1353,1353,1353,1354,1353,1353,639,639,639,639,639,639,
639,639,639,639,639,639,639,1353,1353,639,639,639,639,639,639,639,639,639,639,639,639,639,639,639,639,1353,1353,1353,1353,1353,1353,1353,1354,1353,1353,1353,1353,1353,639,639,639,639,639,639,
639,639,639,639,639,639,639,639,639,639,639,639,639,639,639,639,639,639,639,639,639,639,639,639,639,1353,1354,1353,1353,1354,1353,1353,1354,1353,1354,1353,639,639,639,639,1354,1353,639,639,
639,639,639,639,639,639,639,639,639,639,639,639,639,639,639,639,639,639,639,639,639,639,639,639,639,639,639,639,1354,1353,1353,1354,1353,1353,639,639,639,639,639,639,1353,1354,639,639,
639,639,639,639,639,639,639,639,639,639,639,639,639,639,639,639,639,639,639,639,639,639,639,639,639,639,639,639,639,1353,639,639,639,639,639,639,639,639,639,639,1354,1354,639,639,
639,639,639,639,639,639,639,639,639,639,639,639,639,639,639,639,639,639,639,639,639,639,639,639,639,639,639,639,639,639,639,639,639,639,639,639,639,639,639,639,1353,639,639,639,
639,639,639,639,639,639,639,639,639,639,639,639,639,639,639,639,639,639,639,639,639,639,639,639,639,639,639,639,639,639,639,639,639,639,639,639,639,639,639,639,639,639,639,639,
639,639,639,639,639,639,639,639,639,639,639,639,639,639,639,639,1353,1354,1354,1354,639,639,639,639,639,639,639,639,639,639,639,639,639,639,639,639,639,639,639,639,639,639,639,639,
639,639,639,639,639,639,639,639,639,639,639,639,639,639,639,639,1354,1353,1354,1353,1353,1353,639,639,639,639,639,639,639,639,639,639,639,639,639,639,639,639,639,639,639,639,639,639,
639,639,639,1354,1353,1354,639,639,639,639,639,639,639,639,1353,1353,1354,1353,1353,1353,1353,1354,1353,1353,639,639,639,639,639,639,639,639,639,639,639,1353,1353,1354,639,639,639,639,639,639,
639,639,1353,1354,1353,1354,639,639,639,639,639,639,639,1353,1353,1353,1354,1353,1353,1354,1353,1354,1354,1360,1360,1360,639,639,639,639,639,639,639,639,639,1354,1353,1354,639,639,639,639,639,639,
639,639,1354,1354,1353,1353,639,639,639,639,639,639,639,1353,1353,1354,1353,1353,1353,1353,1353,1353,1360,1360,1360,1360,639,639,639,639,639,639,639,639,639,639,639,639,639,639,639,639,639,639,
639,639,1354,1353,1353,1353,639,639,639,639,639,639,1353,1353,1354,1354,1353,1353,1354,1353,1353,1360,1360,1360,1360,1353,1353,639,639,639,639,639,639,639,639,639,639,639,639,639,639,639,639,639,
639,1353,1353,1353,1353,1353,639,639,639,639,639,639,1360,1360,1353,1353,1354,1353,1353,1353,1360,1360,1360,1360,1354,1353,1353,1353,639,639,639,639,639,639,639,639,639,639,639,639,639,639,639,639,
639,639,1353,1354,1353,1353,639,639,639,639,639,639,1360,1360,1360,1360,1354,1354,1353,1353,1360,1360,1360,1353,1354,1354,1354,639,639,639,639,639,639,639,639,639,639,639,639,639,639,639,639,639,
639,639,1353,1353,1353,1354,639,639,639,639,639,639,1360,1360,1360,1360,1360,1360,1360,1360,1360,1360,1360,1353,1353,1353,1353,639,639,639,639,639,639,639,639,639,639,639,639,639,639,639,639,639,
639,639,1353,1353,1353,1354,639,639,639,639,639,639,1354,1360,1360,1360,1360,1360,1360,1360,1360,1360,1360,1360,1360,1354,1353,1353,639,639,639,639,639,639,639,639,639,639,1353,1353,639,639,639,639,
639,639,639,639,639,639,639,639,639,639,639,1354,1353,1360,1360,1360,1353,1353,1360,1360,1360,1360,1360,1360,1360,1360,1353,639,639,639,639,639,639,639,639,639,1354,1354,1354,1353,1353,1353,1353,639,
639,639,639,639,639,639,639,639,639,639,639,639,1353,1360,1360,1360,1353,1353,1353,1354,1353,1353,1353,1360,1360,1360,1353,639,639,639,639,639,639,639,639,639,1353,1353,1354,1354,1353,1354,1353,1354,
639,639,639,639,639,639,639,639,639,639,639,639,1353,1360,1360,1360,1353,1353,1353,1354,1353,1353,1353,1354,1360,1360,639,639,639,639,639,639,639,639,639,1354,1353,1353,1354,1353,1353,1353,1354,1353,
639,639,639,639,639,639,639,639,639,639,639,639,639,1360,1360,1360,1354,1353,1353,1354,1353,1353,1353,1353,1353,1353,639,639,639,639,639,639,639,639,639,1353,1353,1353,1353,1354,1353,1353,1353,1353,
639,639,639,639,639,639,639,639,639,639,639,639,639,639,1360,1360,1354,1353,1353,1353,1353,1354,1354,1354,1353,639,639,639,639,639,639,639,639,639,639,1353,1353,1353,1353,1353,1353,1353,1353,1354,
639,639,639,639,639,639,639,639,639,639,639,639,639,639,639,1353,1353,1353,1353,1353,1353,1354,1354,639,639,639,639,639,639,639,639,639,639,639,1353,1354,1353,1353,1354,1353,1353,1353,1354,1353,
639,639,639,639,639,639,639,639,639,639,639,639,639,639,639,639,1353,639,639,639,639,639,639,639,639,639,639,639,639,639,639,639,639,639,1353,1353,1353,1354,1353,1353,1353,1353,1353,1354,
639,639,639,639,1353,1353,1353,1353,639,639,639,639,639,639,639,639,639,639,639,639,639,639,639,639,639,639,639,639,639,639,639,639,639,639,639,1353,1353,1354,1353,1353,1354,1353,1353,1354,
639,639,639,639,1353,1353,1354,1354,639,639,639,639,639,639,639,639,639,639,639,639,639,639,639,639,639,639,639,639,639,639,639,639,639,639,639,1353,1354,1353,1353,1354,1354,1354,1353,1353,
639,639,639,639,639,639,639,639,639,639,639,639,639,639,639,639,639,639,639,639,639,639,639,639,639,639,639,639,639,639,639,639,639,639,639,639,1354,1353,1353,1354,1353,1354,1353,639,
639,639,639,639,639,639,639,639,639,639,639,639,639,639,639,639,639,639,639,639,639,639,639,639,639,639,639,639,639,639,1353,1353,1353,639,639,639,639,639,639,639,639,639,639,639,
639,639,639,639,639,639,639,639,639,639,639,639,639,639,639,639,639,639,639,639,639,639,639,639,639,639,639,639,639,639,1353,1353,639,639,639,639,639,639,639,639,639,639,639,639,
639,639,639,639,639,639,639,639,639,639,639,639,639,639,639,639,639,639,639,639,639,639,639,639,639,639,639,639,639,639,639,639,639,639,639,639,639,639,639,639,639,639,639,639,
639,639,639,639,639,639,639,639,639,639,639,639,639,639,639,639,639,639,639,639,639,639,639,639,639,639,639,639,639,639,639,639,639,639,639,639,639,639,639,639,639,639,639,639
</data>
 </layer>
 <layer id="11" name="shadow_lower" width="44" height="36">
  <data encoding="csv">
0,0,0,0,0,0,0,0,0,0,0,0,0,0,0,0,0,0,0,0,0,0,0,0,1419,1445,1465,0,0,0,0,0,0,0,1456,1450,1449,1395,0,0,0,0,0,0,
0,0,0,0,0,0,0,0,0,0,0,0,0,0,0,0,0,0,0,0,0,0,0,0,1372,1443,0,0,0,0,1356,0,0,0,0,0,0,1405,0,0,0,0,0,0,
0,0,0,0,0,0,0,0,0,0,0,0,0,0,0,0,0,0,0,0,0,0,0,0,1423,1470,0,0,0,0,0,0,0,0,0,0,0,1460,1389,0,0,0,0,0,
0,0,0,0,0,0,1418,1447,1445,1394,0,0,0,1606,0,1608,0,0,0,0,0,0,0,0,1430,0,1694,1695,0,1697,1698,0,1359,0,1164,1164,1164,1412,1362,0,0,0,0,0,
1719,1720,0,1722,1723,1418,1468,0,1359,1404,0,0,0,0,0,0,1674,1675,0,1677,1678,0,0,1416,1465,0,0,0,0,0,0,0,1359,0,1165,1165,1165,1461,1396,1694,1695,0,1697,1698,
0,0,0,0,1421,1469,0,0,0,1401,0,0,0,0,0,0,0,0,0,0,0,0,0,1427,1719,1720,0,1722,1723,0,0,0,0,0,1166,1166,1166,1358,1404,0,0,0,0,0,
0,0,0,0,1377,1380,1441,1359,1356,1400,1739,1740,0,1742,1743,0,0,0,0,0,0,0,0,1375,1443,0,0,0,0,0,0,0,0,0,1167,1167,1167,1358,1401,1423,1446,1450,1396,0,
0,1606,0,1608,0,0,1377,1386,1384,1362,0,0,0,1649,1650,0,1652,1653,1624,1625,0,1627,1628,0,1434,1356,0,0,0,0,0,1356,0,0,0,1359,1412,1383,1425,1466,1359,1356,1404,0,
0,0,0,0,1674,1675,0,1677,1678,0,0,0,0,0,0,0,0,0,0,0,0,0,0,0,1378,1443,1415,1443,0,0,0,0,0,0,1407,1385,1369,0,1373,1438,0,1355,1402,0,
0,0,0,0,0,0,0,0,0,0,1694,1695,0,1697,1698,0,0,0,0,0,0,0,0,0,0,1783,1783,1377,1439,0,1408,1382,1436,1409,1361,0,0,0,1421,1466,1359,1356,1403,0,
0,0,0,0,0,0,0,0,0,0,0,0,0,0,0,0,0,0,0,0,0,0,0,0,0,1783,1783,0,1375,1387,1366,0,1371,1368,0,0,0,0,1378,1443,1356,1411,1362,0,
0,0,0,0,0,0,0,0,0,0,0,0,0,0,0,1416,1450,1452,1446,1447,1392,0,0,0,0,1783,1783,0,0,0,0,0,0,0,0,0,0,0,0,1377,1380,1364,0,0,
0,0,0,1424,1393,0,0,0,0,0,0,0,0,0,0,1426,1356,1356,0,0,1457,1451,1396,1419,1445,1783,1783,0,0,0,0,0,0,0,0,0,0,0,0,0,0,0,0,0,
0,0,1417,1468,1457,1451,1393,0,0,0,0,0,0,1418,1447,1463,0,0,0,0,0,0,1461,1464,1408,1783,1783,0,0,0,0,0,0,0,1423,1449,1448,1448,1389,0,0,0,0,0,
0,1417,1465,0,0,0,1401,0,0,0,0,0,1419,1469,0,0,0,0,0,0,0,0,0,0,1457,1451,1446,1391,0,0,0,0,0,0,1430,1359,0,1359,1398,0,0,0,0,0,
0,1431,0,0,0,0,1457,1392,0,0,0,0,1427,1356,0,0,0,0,0,0,0,0,0,1523,1494,1549,1409,1364,0,0,0,0,0,0,1431,0,0,1358,1402,0,0,0,0,0,
0,1434,0,0,0,0,1410,1365,0,0,1419,1445,1465,0,0,0,0,0,0,1359,0,1355,1525,1473,1528,1575,1461,1390,0,0,0,0,0,0,1377,1383,1386,1387,1369,0,0,0,0,0,
1782,1782,1782,1782,0,0,1782,1782,1782,1782,1782,1782,0,0,0,0,0,0,0,0,1359,1521,1478,1527,1578,0,0,1453,1394,0,0,0,0,0,0,0,0,0,0,0,0,0,0,0,
1782,1782,1782,1782,0,0,1782,1782,1782,1782,1782,1782,1522,1549,0,0,0,1358,0,0,1522,1475,1530,1576,0,0,0,0,1403,0,0,0,0,0,0,0,0,0,0,0,0,0,0,0,
1377,1436,0,0,0,0,1404,1784,1784,1784,1421,1463,1513,1483,1492,1552,0,0,0,0,1515,0,1539,0,0,0,0,1409,1361,0,0,0,0,0,0,0,0,0,0,0,0,0,0,0,
0,1426,1357,0,0,0,1402,0,0,0,1376,1438,1565,1503,0,1487,1493,1493,1490,1495,1479,0,1537,0,0,0,0,1459,1388,0,0,0,0,0,0,0,0,1421,1451,1452,1396,0,0,0,
0,1428,1359,0,0,0,1403,0,0,0,1417,1465,0,1510,0,1529,1561,1556,1498,1534,1500,0,1483,1492,1546,0,0,0,1398,0,0,0,0,0,1419,1451,1452,1470,0,1355,1460,1445,1444,1394,
0,1377,1380,1385,1440,1415,1363,0,0,0,1430,1357,1359,1507,0,1536,0,0,1565,1580,1563,1557,1561,1506,1482,1550,0,1415,1366,0,0,0,0,0,1372,1443,0,1624,1625,0,1627,1628,0,1460,
0,0,0,0,1373,1367,0,0,0,0,1375,1437,0,1507,0,1536,1359,0,0,0,0,0,0,1569,1501,1540,1359,1404,0,0,0,0,0,0,1417,1468,1359,0,0,0,0,0,0,0,
0,0,0,0,0,0,0,0,0,0,0,1426,1359,1509,0,1536,0,1355,0,0,0,0,0,0,1567,1576,1410,1782,1782,1782,1782,1782,1782,1782,1782,0,0,0,0,0,0,0,1356,0,
0,0,0,0,0,0,0,0,0,0,0,1372,1443,1569,1504,1537,0,0,0,0,0,0,0,0,0,1359,1399,1782,1782,1782,1782,1782,1782,1782,1782,0,0,0,0,0,0,0,0,0,
0,0,0,0,0,0,0,0,0,0,0,0,1377,1439,1569,1575,0,0,0,1694,1695,0,1697,1698,1359,1415,1369,1784,1784,1784,1784,1784,1784,1417,1462,0,0,0,0,0,0,0,0,0,
0,0,0,0,1422,1390,0,0,0,0,0,0,0,1374,1439,0,0,0,0,0,0,0,1359,1415,1387,1369,0,0,0,0,0,0,0,1429,0,0,0,0,0,0,0,0,0,0,
0,0,0,1420,1463,1454,1445,1444,1394,0,0,0,0,0,1375,1440,0,1412,1439,1407,1379,1379,1382,1368,0,0,0,0,0,0,0,0,0,1426,0,0,0,0,0,0,0,0,0,0,
0,0,0,1431,0,1355,0,1359,1405,0,0,0,0,0,0,1373,1382,1368,1374,1362,0,0,0,0,0,0,0,0,0,0,0,0,0,1370,1441,1359,0,1739,1740,0,1742,1743,0,0,
0,0,0,1434,0,0,0,1358,1403,0,0,0,0,0,0,0,0,0,0,0,0,0,0,0,0,0,0,0,0,0,0,0,0,0,1434,1358,0,0,0,0,0,0,0,0,
0,0,0,1378,1381,1438,1409,1382,1362,0,0,0,0,0,0,0,0,0,0,0,0,0,0,0,0,0,0,0,0,1421,1448,1445,1447,1395,1376,1441,0,0,0,0,0,0,0,1409,
0,0,0,0,0,1375,1369,0,0,0,0,0,0,0,0,0,0,0,0,0,0,0,0,0,0,0,0,0,1420,1469,0,1355,0,1405,0,1376,1435,1409,1435,1412,1436,1410,1380,1367,
0,0,0,0,0,0,0,0,0,0,0,0,0,0,0,0,0,0,0,0,0,0,0,0,0,0,0,0,1374,1439,1355,0,1415,1369,0,0,1372,1369,1372,1369,1371,1362,0,0,
0,0,0,0,0,0,0,0,0,0,0,0,0,0,0,0,0,0,0,0,0,0,0,0,0,0,0,0,0,1374,1380,1385,1369,0,0,0,0,0,0,0,0,0,0,0,
0,0,0,0,0,0,0,0,0,0,0,0,0,0,0,0,0,0,0,0,0,0,0,0,0,0,0,0,0,0,0,0,0,0,0,0,0,0,0,0,0,0,0,0
</data>
 </layer>
 <layer id="12" name="object" width="44" height="36">
  <data encoding="csv">
302,302,302,302,302,302,302,302,302,302,302,302,302,302,302,302,302,302,302,302,302,302,302,302,302,302,302,302,302,302,302,1150,463,1150,302,302,302,302,302,302,302,302,302,302,
302,302,302,302,302,302,302,302,302,302,302,302,302,302,302,302,302,302,302,302,302,302,302,302,302,0,1594,1595,1596,0,0,0,0,0,1594,1595,1596,302,302,302,302,302,302,302,
302,302,302,302,302,302,302,302,302,302,302,302,302,302,302,302,302,302,302,302,302,302,302,302,302,0,0,0,0,1753,1753,1753,1753,0,0,0,0,0,302,302,302,302,302,302,
302,302,302,302,302,302,302,302,302,302,302,302,302,302,1607,302,302,302,302,302,302,302,302,302,302,0,0,0,1696,1753,1753,1753,1753,0,0,0,0,0,302,302,302,302,302,302,
302,302,1721,302,302,302,302,1150,302,302,302,302,302,302,302,302,302,302,1676,302,302,302,302,302,0,0,0,0,0,1752,1756,1756,1754,0,0,0,0,0,302,302,302,1696,302,302,
302,302,302,302,302,302,1150,1150,302,302,302,302,302,302,302,302,302,302,302,302,302,302,302,302,0,0,1721,0,0,1755,1756,1756,1757,0,0,0,0,0,302,302,302,302,302,302,
302,302,302,302,302,302,302,302,302,302,302,302,1741,302,302,302,302,302,302,302,302,302,302,302,1158,0,0,0,0,1755,1756,1756,1757,0,0,0,0,0,302,302,302,302,302,302,
302,302,1607,302,302,302,302,302,302,302,302,302,302,302,302,1651,302,302,302,302,1626,302,302,302,302,0,0,0,0,1758,1759,1759,1760,0,0,0,0,302,302,302,302,302,302,302,
302,302,302,302,302,302,1676,302,302,302,302,302,302,302,302,302,302,302,302,302,302,302,302,302,302,0,0,1158,0,0,0,0,0,0,0,302,302,302,302,302,302,1158,302,302,
302,302,302,302,302,302,302,302,302,302,302,302,1696,302,302,302,302,302,302,302,302,302,302,302,302,0,0,302,0,0,0,302,0,0,302,302,302,302,302,302,302,1158,302,302,
302,302,302,302,302,302,302,302,302,302,302,302,302,302,302,302,302,302,302,302,302,302,302,302,302,0,0,302,302,302,302,302,302,302,302,302,302,302,302,1150,1158,302,302,302,
302,302,302,302,302,302,302,302,302,302,302,302,302,302,302,302,302,302,302,302,302,302,302,302,302,0,0,302,302,302,302,302,302,302,302,302,302,302,302,302,302,302,302,302,
302,302,302,302,302,302,302,302,302,302,302,302,302,302,302,302,0,0,0,0,0,302,302,302,302,0,0,302,302,302,302,302,302,302,302,302,302,302,302,302,302,302,302,302,
302,302,302,302,302,302,302,302,302,302,302,302,302,302,302,0,0,0,0,0,0,0,0,0,0,0,0,302,302,302,302,302,302,302,302,302,302,302,302,302,302,302,302,302,
302,302,302,1594,1595,1596,302,302,302,302,302,302,302,1594,1595,1596,0,1753,1753,1753,1753,0,0,0,0,302,302,302,302,302,302,302,302,302,302,302,302,302,302,302,302,302,302,302,
302,302,1158,527,0,0,0,302,302,302,302,302,302,0,0,0,0,1753,1753,1753,1753,0,0,0,0,0,0,302,302,302,302,302,302,302,302,1158,1158,1158,302,302,302,302,302,302,
302,302,0,0,0,0,0,302,302,302,302,302,0,0,0,0,0,1752,1756,1756,1754,0,0,0,0,0,0,302,302,302,302,302,302,302,302,302,302,302,302,302,302,302,302,302,
0,0,0,0,0,0,0,0,0,0,0,0,0,0,0,0,0,1755,1756,1756,1757,0,0,0,0,0,0,0,302,302,302,302,302,302,302,302,302,302,302,302,302,302,302,302,
0,0,0,0,0,0,0,0,0,0,0,0,0,0,0,0,0,1755,1756,1756,1757,0,0,0,0,0,1189,1158,302,302,302,302,302,302,302,302,302,302,302,302,302,302,302,302,
302,0,0,0,0,0,302,302,302,302,302,0,0,0,0,0,0,1758,1759,1759,1760,0,1189,1190,0,0,0,0,302,302,302,302,302,302,302,302,302,302,302,302,302,302,302,302,
302,302,0,0,0,0,302,302,302,302,302,0,1753,1753,1753,1753,0,0,0,0,0,0,0,0,0,0,0,1158,302,302,302,302,302,302,302,302,302,302,302,302,302,302,302,302,
302,302,1158,0,0,0,302,302,302,302,302,1158,1753,1753,1753,1753,0,0,0,0,0,0,0,0,0,0,0,0,302,302,302,302,302,302,302,302,302,0,0,0,0,302,302,302,
302,302,302,302,0,1158,302,302,302,302,302,1150,1752,1756,1756,1754,0,0,0,0,0,0,0,0,0,0,0,0,302,302,302,302,302,302,302,0,0,0,0,1626,463,1594,1595,1596,
302,302,302,302,302,302,302,302,302,302,302,1150,1755,1756,1756,1757,0,0,0,0,0,0,0,0,0,0,0,302,302,302,302,302,302,302,302,0,0,0,0,0,0,0,1150,1151,
302,302,302,302,302,302,302,302,302,302,302,302,1755,1756,1756,1757,0,0,0,0,0,0,0,0,0,0,0,0,0,0,0,0,0,0,0,1158,0,0,0,0,0,0,0,1151,
302,302,302,302,302,302,302,302,302,302,302,302,1758,1759,1759,1760,0,0,0,0,0,0,0,0,0,0,302,0,0,0,0,0,0,0,0,0,0,0,0,0,0,0,0,527,
302,302,302,302,302,302,302,302,302,302,302,302,302,0,0,0,0,0,0,0,0,1696,0,1594,1595,1596,302,302,302,302,302,302,302,302,0,0,0,0,0,0,0,0,0,0,
302,302,302,302,302,302,302,302,302,302,302,302,302,302,0,0,0,0,0,0,0,0,1158,302,302,302,302,302,302,302,302,302,302,302,0,0,0,0,0,0,0,0,0,0,
302,302,302,302,302,1150,302,302,302,302,302,302,302,302,302,0,0,0,0,1158,302,302,302,302,302,302,302,302,302,302,302,302,302,302,0,0,0,0,0,0,0,0,1150,1150,
302,302,302,302,302,1150,302,302,302,302,302,302,302,302,302,302,302,302,302,302,302,302,302,302,302,302,302,302,302,302,302,302,302,302,1594,1595,1596,0,0,1741,0,0,0,1151,
302,302,302,302,1150,302,1158,1158,302,302,302,302,302,302,302,302,302,302,302,302,302,302,302,302,302,302,302,302,302,302,302,302,302,302,302,0,0,0,0,0,0,0,0,464,
302,302,302,302,302,302,1158,302,302,302,302,302,302,302,302,302,302,302,302,302,302,302,302,302,302,302,302,302,302,302,302,302,302,302,302,0,0,0,0,0,0,0,0,527,
302,302,302,302,302,302,302,302,302,302,302,302,302,302,302,302,302,302,302,302,302,302,302,302,302,302,302,302,302,302,1150,302,302,302,302,302,1594,1595,1596,1594,1595,1596,302,302,
302,302,302,302,302,302,302,302,302,302,302,302,302,302,302,302,302,302,302,302,302,302,302,302,302,302,302,302,302,1594,1595,1596,1158,302,302,302,302,302,302,302,302,302,302,302,
302,302,302,302,302,302,302,302,302,302,302,302,302,302,302,302,302,302,302,302,302,302,302,302,302,302,302,302,302,302,302,302,302,302,302,302,302,302,302,302,302,302,302,302,
302,302,302,302,302,302,302,302,302,302,302,302,302,302,302,302,302,302,302,302,302,302,302,302,302,302,302,302,302,302,302,302,302,302,302,302,302,302,302,302,302,302,302,302
</data>
 </layer>
 <layer id="13" name="shadow_upper" width="44" height="36">
  <data encoding="csv">
0,0,0,0,0,0,0,0,0,0,0,0,0,0,0,0,0,0,0,0,0,0,0,0,0,0,0,0,0,0,0,0,0,0,0,0,0,0,0,0,0,0,0,0,
0,0,0,0,0,0,0,0,0,0,0,0,0,0,0,0,0,0,0,0,0,0,0,0,0,0,0,0,0,0,0,0,0,0,0,0,0,0,0,0,0,0,0,0,
0,0,0,0,0,0,0,0,0,0,0,0,0,0,0,0,0,0,0,0,0,0,0,0,0,0,0,0,0,0,0,0,0,0,0,0,0,0,0,0,0,0,0,0,
0,0,0,0,0,0,0,0,0,0,0,0,0,0,0,0,0,0,0,0,0,0,0,0,0,0,0,0,0,0,0,0,0,0,0,0,0,0,0,0,0,0,0,0,
0,0,0,0,0,0,0,0,0,0,0,0,0,0,0,0,0,0,0,0,0,0,0,0,0,0,0,0,0,0,0,0,0,64,0,0,0,0,0,0,0,0,0,0,
0,0,0,0,0,0,0,0,0,0,0,0,0,0,0,0,0,0,0,0,0,0,0,0,0,0,0,0,0,0,0,0,0,64,0,0,0,0,0,0,0,0,0,0,
0,0,0,0,0,0,0,0,0,0,0,0,0,0,0,0,0,0,0,0,0,0,0,0,0,0,0,0,0,0,0,0,0,64,0,0,0,0,0,0,0,0,0,0,
0,0,0,0,0,0,0,0,0,0,0,0,0,0,0,0,0,0,0,0,0,0,0,0,0,0,0,0,0,0,0,0,0,63,0,0,0,0,0,0,0,0,0,0,
0,0,0,0,0,0,0,0,0,0,0,0,0,0,0,0,0,0,0,0,0,0,0,0,0,0,0,0,0,0,0,0,0,0,0,0,0,0,0,0,0,0,0,0,
0,0,0,0,0,0,0,0,0,0,0,0,0,0,0,0,0,0,0,0,0,0,0,0,0,0,0,0,0,0,0,0,0,0,0,0,0,0,0,0,0,0,0,0,
0,0,0,0,0,0,0,0,0,0,0,0,0,0,0,0,0,0,0,0,0,0,0,0,0,0,0,0,0,0,0,0,0,0,0,0,0,0,0,0,0,0,0,0,
0,0,0,0,0,0,0,0,0,0,0,0,0,0,0,0,0,0,0,0,0,0,0,0,0,0,0,0,0,0,0,0,0,0,0,0,0,0,0,0,0,0,0,0,
0,0,0,0,0,0,0,0,0,0,0,0,0,0,0,0,0,0,0,0,0,0,0,0,0,0,0,0,0,0,0,0,0,0,0,0,0,0,0,0,0,0,0,0,
0,0,0,0,0,0,0,0,0,0,0,0,0,0,0,0,0,0,0,0,0,0,0,0,0,0,0,0,0,0,0,0,0,0,0,0,0,0,0,0,0,0,0,0,
0,0,0,0,0,0,0,0,0,0,0,0,0,0,0,0,0,0,0,0,0,0,0,0,0,0,0,0,0,0,0,0,0,0,0,0,0,0,0,0,0,0,0,0,
0,0,0,0,0,0,0,0,0,0,0,0,0,0,0,0,0,0,0,0,0,0,0,0,0,0,0,0,0,0,0,0,0,0,0,0,0,0,0,0,0,0,0,0,
0,0,0,0,0,0,0,0,0,0,0,0,0,0,0,0,0,0,0,0,0,64,0,0,0,0,0,0,0,0,0,0,0,0,0,0,0,0,0,0,0,0,0,0,
0,0,0,0,0,0,0,0,0,0,0,0,0,0,0,0,0,0,0,0,0,64,0,0,0,0,0,0,0,0,0,0,0,0,0,0,0,0,0,0,0,0,0,0,
0,0,0,0,0,0,0,0,0,0,0,0,0,0,0,0,0,0,0,0,0,64,0,0,0,0,0,0,0,0,0,0,0,0,0,0,0,0,0,0,0,0,0,0,
0,0,0,0,0,0,0,0,0,0,0,0,0,0,0,0,0,0,0,0,0,63,0,0,0,0,0,0,0,0,0,0,0,0,0,0,0,0,0,0,0,0,0,0,
0,0,0,0,0,0,0,0,0,0,0,0,0,0,0,0,0,0,0,0,0,0,0,0,0,0,0,0,0,0,0,0,0,0,0,0,0,0,0,0,0,0,0,0,
0,0,0,0,0,0,0,0,0,0,0,0,0,0,0,0,0,0,0,0,0,0,0,0,0,0,0,0,0,0,0,0,0,0,0,0,0,0,0,0,0,0,0,0,
0,0,0,0,0,0,0,0,0,0,0,0,0,0,0,0,64,0,0,0,0,0,0,0,0,0,0,0,0,0,0,0,0,0,0,0,0,0,0,0,0,0,0,0,
0,0,0,0,0,0,0,0,0,0,0,0,0,0,0,0,64,0,0,0,0,0,0,0,0,0,0,0,0,0,0,0,0,0,0,0,0,0,0,0,0,0,0,0,
0,0,0,0,0,0,0,0,0,0,0,0,0,0,0,0,64,0,0,0,0,0,0,0,0,0,0,0,0,0,0,0,0,0,0,0,0,0,0,0,0,0,0,0,
0,0,0,0,0,0,0,0,0,0,0,0,0,0,0,0,63,0,0,0,0,0,0,0,0,0,0,0,0,0,0,0,0,0,0,0,0,0,0,0,0,0,0,0,
0,0,0,0,0,0,0,0,0,0,0,0,0,0,0,0,0,0,0,0,0,0,0,0,0,0,0,0,0,0,0,0,0,0,0,0,0,0,0,0,0,0,0,0,
0,0,0,0,0,0,0,0,0,0,0,0,0,0,0,0,0,0,0,0,0,0,0,0,0,0,0,0,0,0,0,0,0,0,0,0,0,0,0,0,0,0,0,0,
0,0,0,0,0,0,0,0,0,0,0,0,0,0,0,0,0,0,0,0,0,0,0,0,0,0,0,0,0,0,0,0,0,0,0,0,0,0,0,0,0,0,0,0,
0,0,0,0,0,0,0,0,0,0,0,0,0,0,0,0,0,0,0,0,0,0,0,0,0,0,0,0,0,0,0,0,0,0,0,0,0,0,0,0,0,0,0,0,
0,0,0,0,0,0,0,0,0,0,0,0,0,0,0,0,0,0,0,0,0,0,0,0,0,0,0,0,0,0,0,0,0,0,0,0,0,0,0,0,0,0,0,0,
0,0,0,0,0,0,0,0,0,0,0,0,0,0,0,0,0,0,0,0,0,0,0,0,0,0,0,0,0,0,0,0,0,0,0,0,0,0,0,0,0,0,0,0,
0,0,0,0,0,0,0,0,0,0,0,0,0,0,0,0,0,0,0,0,0,0,0,0,0,0,0,0,0,0,0,0,0,0,0,0,0,0,0,0,0,0,0,0,
0,0,0,0,0,0,0,0,0,0,0,0,0,0,0,0,0,0,0,0,0,0,0,0,0,0,0,0,0,0,0,0,0,0,0,0,0,0,0,0,0,0,0,0,
0,0,0,0,0,0,0,0,0,0,0,0,0,0,0,0,0,0,0,0,0,0,0,0,0,0,0,0,0,0,0,0,0,0,0,0,0,0,0,0,0,0,0,0,
0,0,0,0,0,0,0,0,0,0,0,0,0,0,0,0,0,0,0,0,0,0,0,0,0,0,0,0,0,0,0,0,0,0,0,0,0,0,0,0,0,0,0,0
</data>
 </layer>
 <layer id="14" name="object_upper" width="44" height="36">
  <data encoding="csv">
1699,1700,1701,1702,1703,0,0,0,0,0,0,0,0,1597,1598,1599,1654,1655,1656,1657,1658,0,0,0,0,0,1591,1592,1593,1682,1683,0,0,0,1591,1592,1593,0,0,0,0,0,0,0,
1704,1705,1706,1707,1708,0,0,0,0,0,0,0,0,1600,1601,1602,1659,1660,1661,1662,1663,0,0,0,1699,1700,1684,1685,1686,1687,1688,0,0,0,0,0,0,0,0,1679,1680,1681,1682,1683,
1709,1710,1711,1712,1713,0,0,0,0,0,0,0,0,1603,1604,1605,1664,1665,1666,1667,1668,0,0,0,1704,1705,1689,1690,1691,1692,1693,0,0,0,0,0,0,0,0,1684,1685,1686,1687,1688,
1714,1715,1716,1717,1718,0,0,0,0,0,1724,1725,1726,1727,1728,1631,1669,1670,1671,1672,1673,0,0,0,1709,1710,1711,1712,1713,0,0,0,0,0,0,0,0,0,0,1689,1690,1691,1692,1693,
0,1597,1598,1599,1654,1655,1656,1657,1658,0,1729,1730,1731,1732,1733,1636,1637,1638,1609,1610,1611,1612,1613,0,1714,1715,1716,1717,1718,0,0,0,0,0,0,0,0,0,0,0,0,0,0,0,
0,1600,1601,1602,1659,1660,1661,1662,1663,0,1734,1735,1736,1737,1738,1641,1642,1643,1614,1615,1616,1617,1618,0,1157,0,0,0,0,0,0,0,0,0,0,0,0,0,0,0,0,0,0,0,
0,1603,1604,1605,1664,1665,1666,1667,1668,0,1679,1680,1681,1644,1645,1646,1647,1648,1619,1620,1621,1622,1623,0,0,0,0,0,0,0,0,0,0,0,0,0,0,0,0,0,0,0,0,0,
0,0,0,0,1669,1670,1671,1672,1673,0,1684,1685,1686,1687,1688,0,0,0,0,0,0,0,0,0,0,0,0,1157,0,0,0,0,0,0,0,0,0,0,0,0,0,1157,0,0,
0,0,0,0,0,0,0,0,0,0,1689,1690,1691,1692,1693,0,0,0,0,0,0,0,0,0,0,0,0,0,0,0,0,0,0,0,0,0,0,0,0,0,0,1157,0,0,
0,0,0,0,0,0,0,0,0,0,0,0,0,0,0,0,0,0,0,0,0,0,0,0,0,0,0,0,0,0,0,0,0,0,0,0,0,0,0,0,1157,0,0,0,
0,0,0,0,0,0,0,0,0,0,0,0,0,0,0,0,0,0,0,0,0,0,0,0,0,0,0,0,0,0,0,0,0,0,0,0,0,0,0,0,0,0,0,0,
0,0,0,1585,1586,1587,0,0,0,0,0,0,0,1585,1586,1587,0,0,0,0,0,0,0,0,0,0,0,0,0,0,0,0,0,0,0,0,0,0,0,0,0,0,0,0,
0,0,0,1588,1589,1590,0,0,0,0,0,0,0,1588,1589,1590,0,0,0,0,0,0,0,0,0,0,0,0,0,0,0,0,0,0,0,0,0,0,0,0,0,0,0,0,
0,0,0,1591,1592,1593,0,0,0,0,0,0,0,1591,1592,1593,0,0,0,0,0,0,0,0,0,0,0,0,0,0,0,0,0,0,0,0,0,0,0,0,0,0,0,0,
0,0,1157,0,0,0,0,0,0,0,0,0,0,0,0,0,0,0,0,0,0,0,0,0,0,0,0,0,0,0,0,0,0,0,0,1157,1157,1157,0,0,0,0,0,0,
0,0,0,0,0,0,0,0,0,0,0,0,0,0,0,0,0,0,0,0,0,0,0,0,0,0,0,0,0,0,0,0,0,0,0,0,0,0,0,0,0,0,0,0,
0,0,0,0,0,0,0,0,0,0,0,0,0,0,0,0,0,0,0,0,0,0,0,0,0,0,0,0,0,0,0,0,0,0,0,0,0,0,0,0,0,0,0,0,
0,0,0,0,0,0,0,0,0,0,0,0,0,0,0,0,0,0,0,0,0,0,0,0,0,0,0,1157,0,0,0,0,0,0,0,0,0,0,0,0,0,0,0,0,
0,0,0,0,0,0,0,0,0,0,0,0,0,0,0,0,0,0,0,0,0,0,1187,1188,0,0,0,0,0,0,0,0,0,0,0,0,0,0,0,0,0,0,0,0,
0,0,0,0,0,0,0,0,0,0,0,0,0,0,0,0,0,0,0,0,0,0,0,0,0,0,0,1157,0,0,0,0,0,0,0,0,0,1609,1610,1611,1612,1613,1586,1587,
0,0,1157,0,0,0,0,0,0,0,0,1157,0,0,0,0,0,0,0,0,0,0,0,0,0,0,0,0,0,0,0,0,0,0,0,0,0,1614,1615,1616,1617,1618,1589,1590,
0,0,0,0,0,1157,0,0,0,0,0,0,0,0,0,0,0,0,0,0,0,0,0,0,0,0,0,0,0,0,0,0,0,0,0,0,0,1619,1620,1621,1622,1623,1592,1593,
0,0,0,0,0,0,0,0,0,0,0,0,0,0,0,0,0,0,0,0,0,0,0,0,0,0,0,0,0,0,0,0,0,0,0,0,0,0,0,0,0,0,0,0,
0,0,0,0,0,0,0,0,0,0,0,0,0,0,0,0,0,0,0,1679,1680,1681,1682,1585,1586,1587,0,0,0,0,0,0,0,0,0,1157,0,0,0,0,0,0,0,0,
0,0,0,0,0,0,0,0,0,0,0,0,0,0,0,0,0,0,0,1684,1685,1686,1687,1588,1589,1590,0,0,0,0,0,0,0,0,0,0,0,0,0,0,0,0,0,0,
0,0,0,0,0,0,0,0,0,0,0,0,0,0,0,0,0,0,0,1689,1690,1691,1692,1591,1592,1593,0,0,0,0,0,0,0,0,0,0,0,0,0,0,0,0,0,0,
0,0,0,0,0,0,0,0,0,0,0,0,0,0,0,0,0,0,0,0,0,0,1157,0,0,0,0,0,0,0,0,0,0,0,1585,1586,1587,1724,1725,1726,1727,1728,0,0,
0,0,0,0,0,0,0,0,0,0,0,0,0,0,0,0,0,0,0,1157,0,0,0,0,0,0,0,0,0,0,0,0,0,0,1588,1589,1590,1729,1730,1731,1732,1733,0,0,
0,0,0,0,0,0,0,0,0,0,0,0,0,0,0,0,0,0,0,0,0,0,0,0,0,0,0,0,0,0,0,0,0,0,1591,1592,1593,1734,1735,1736,1737,1738,0,0,
0,0,0,0,0,0,1157,1157,0,0,0,0,0,0,0,0,0,0,0,0,0,0,0,0,0,0,0,0,0,0,0,0,0,0,0,0,1585,1586,1587,1585,1586,1587,0,0,
0,0,0,0,0,0,1157,0,0,0,0,0,0,0,0,0,0,0,0,0,0,0,0,0,0,0,0,0,0,1585,1586,1587,0,0,0,0,1588,1589,1590,1588,1589,1590,0,0,
0,0,0,0,0,0,0,0,0,0,0,0,0,0,0,0,0,0,0,0,0,0,0,0,0,0,0,0,0,1588,1589,1590,0,0,0,0,1591,1592,1593,1591,1592,1593,0,0,
0,0,0,0,0,0,0,0,0,0,0,0,0,0,0,0,0,0,0,0,0,0,0,0,0,0,0,0,0,1591,1592,1593,1157,0,0,0,0,0,0,0,0,0,0,0,
0,0,0,0,0,0,0,0,0,0,0,0,0,0,0,0,0,0,0,0,0,0,0,0,0,0,0,0,0,0,0,0,0,0,0,0,0,0,0,0,0,0,0,0,
0,0,0,0,0,0,0,0,0,0,0,0,0,0,0,0,0,0,0,0,0,0,0,0,0,0,0,0,0,0,0,0,0,0,0,0,0,0,0,0,0,0,0,0,
0,0,0,0,0,0,0,0,0,0,0,0,0,0,0,0,0,0,0,0,0,0,0,0,0,0,0,0,0,0,0,0,0,0,0,0,0,0,0,0,0,0,0,0
</data>
 </layer>
 <layer id="15" name="deco" width="44" height="36">
  <data encoding="csv">
0,0,0,0,0,0,0,0,0,0,0,0,0,0,0,0,0,0,0,0,0,0,0,0,0,0,1679,1680,1681,0,0,0,0,0,0,0,0,0,0,0,0,0,0,0,
0,0,0,0,0,0,0,0,0,0,0,0,0,0,0,0,0,0,0,0,0,0,0,0,0,0,1701,1702,1703,0,0,0,0,0,0,0,0,0,0,0,0,0,0,0,
0,0,0,0,0,0,0,0,0,0,0,0,0,0,0,0,0,0,0,0,0,0,0,0,0,0,1706,1707,1708,0,0,0,0,0,0,0,0,0,0,0,0,0,0,0,
0,0,0,0,0,0,0,0,0,0,0,0,0,1629,1630,0,1632,1633,0,0,0,0,0,0,0,0,0,0,0,0,0,0,0,0,0,0,0,0,0,0,0,0,0,0,
0,0,0,0,0,0,0,0,0,0,0,0,0,1634,1635,0,0,0,0,0,0,0,0,0,0,0,0,0,0,0,1744,0,0,0,0,0,0,0,0,0,0,0,0,0,
0,0,0,0,0,0,0,0,0,0,0,0,0,1639,1640,0,0,0,0,0,0,0,0,0,0,0,0,0,0,0,1751,0,0,0,0,0,0,0,0,0,0,0,0,0,
0,0,0,0,0,0,0,0,0,0,0,0,0,1682,1683,0,0,0,0,0,0,0,0,0,0,0,0,0,0,0,1745,1746,1747,0,0,0,0,0,0,0,0,0,0,0,
0,0,0,0,0,0,0,0,0,0,0,0,0,0,0,0,0,0,0,0,0,0,0,0,0,0,0,0,0,0,1748,1749,1750,0,0,0,0,0,0,0,0,0,0,0,
0,0,0,0,0,0,0,0,0,0,0,0,0,0,0,0,0,0,0,0,0,0,0,0,0,0,0,0,0,0,0,0,0,0,0,0,0,0,0,0,0,0,0,0,
0,0,0,0,0,0,0,0,0,0,0,0,0,0,0,0,0,0,0,0,0,0,0,0,0,0,0,0,0,0,0,0,0,0,0,0,0,0,0,0,0,0,0,0,
0,0,0,0,0,0,0,0,0,0,0,0,0,0,0,0,0,0,0,0,0,0,0,0,0,0,0,0,0,0,0,0,0,0,0,0,0,0,0,0,0,0,0,0,
0,0,0,0,0,0,0,0,0,0,0,0,0,0,0,0,0,0,0,0,0,0,0,0,0,0,0,0,0,0,0,0,0,0,0,0,0,0,0,0,0,0,0,0,
0,0,0,0,0,0,0,0,0,0,0,0,0,0,0,0,0,0,0,0,0,0,0,0,0,0,0,0,0,0,0,0,0,0,0,0,0,0,0,0,0,0,0,0,
0,0,0,0,0,0,0,0,0,0,0,0,0,0,0,0,0,0,0,0,0,0,0,0,0,0,0,0,0,0,0,0,0,0,0,0,0,0,0,0,0,0,0,0,
0,0,0,0,0,0,0,0,0,0,0,0,0,0,0,0,0,0,0,0,0,0,0,0,0,0,0,0,0,0,0,0,0,0,0,0,0,0,0,0,0,0,0,0,
0,0,0,0,0,0,0,0,0,0,0,0,0,0,0,0,0,0,0,0,0,0,0,0,0,0,0,0,0,0,0,0,0,0,0,0,0,0,0,0,0,0,0,0,
0,0,0,0,0,0,0,0,0,0,0,0,0,0,0,0,0,0,1744,0,0,0,0,0,0,0,0,0,0,0,0,0,0,0,0,0,0,0,0,0,0,0,0,0,
0,0,0,0,0,0,0,0,0,0,0,0,0,0,0,0,0,0,1751,0,0,0,0,0,0,0,0,0,0,0,0,0,0,0,0,0,0,0,0,0,0,0,0,0,
0,0,0,0,0,0,0,0,0,0,0,0,0,0,0,0,0,0,1745,1746,1747,0,0,0,0,0,0,0,0,0,0,0,0,0,0,0,0,0,0,0,0,0,0,0,
0,0,0,0,0,0,0,0,0,0,0,0,0,0,0,0,0,0,1748,1749,1750,0,0,0,0,0,0,0,0,0,0,0,0,0,0,0,0,0,0,0,0,1585,0,0,
0,0,0,0,0,0,0,0,0,0,0,0,0,0,0,0,0,0,0,0,0,0,0,0,0,0,0,0,0,0,0,0,0,0,0,0,0,0,0,0,0,1588,0,0,
0,0,0,0,0,0,0,0,0,0,0,0,0,0,0,0,0,0,0,0,0,0,0,0,0,0,0,0,0,0,0,0,0,0,0,0,0,0,0,0,0,1591,0,0,
0,0,0,0,0,0,0,0,0,0,0,0,0,1744,0,0,0,0,0,0,0,0,0,0,0,0,0,0,0,0,0,0,0,0,0,0,0,0,0,0,0,0,0,0,
0,0,0,0,0,0,0,0,0,0,0,0,0,1751,0,0,0,0,0,0,0,0,0,1683,0,0,0,0,0,0,0,0,0,0,0,0,0,0,0,0,0,0,0,0,
0,0,0,0,0,0,0,0,0,0,0,0,0,1745,1746,1747,0,0,0,0,0,0,0,1688,0,0,0,0,0,0,0,0,0,0,0,0,0,0,0,0,0,0,0,0,
0,0,0,0,0,0,0,0,0,0,0,0,0,1748,1749,1750,0,0,0,0,0,0,0,1693,0,0,0,0,0,0,0,0,0,0,0,0,0,0,0,0,0,0,0,0,
0,0,0,0,0,0,0,0,0,0,0,0,0,0,0,0,0,0,0,0,0,0,0,0,0,0,0,0,0,0,0,0,0,0,0,0,0,0,0,0,0,0,0,0,
0,0,0,0,0,0,0,0,0,0,0,0,0,0,0,0,0,0,0,0,0,0,0,0,0,0,0,0,0,0,0,0,0,0,0,0,0,0,0,0,0,0,0,0,
0,0,0,0,0,0,0,0,0,0,0,0,0,0,0,0,0,0,0,0,0,0,0,0,0,0,0,0,0,0,0,0,0,0,0,0,0,0,0,0,0,0,0,0,
0,0,0,0,0,0,0,0,0,0,0,0,0,0,0,0,0,0,0,0,0,0,0,0,0,0,0,0,0,0,0,0,0,0,0,0,0,0,0,0,0,0,0,0,
0,0,0,0,0,0,0,0,0,0,0,0,0,0,0,0,0,0,0,0,0,0,0,0,0,0,0,0,0,0,0,0,0,0,0,0,0,0,0,0,0,0,0,0,
0,0,0,0,0,0,0,0,0,0,0,0,0,0,0,0,0,0,0,0,0,0,0,0,0,0,0,0,0,0,0,0,0,0,0,0,0,0,0,0,0,0,0,0,
0,0,0,0,0,0,0,0,0,0,0,0,0,0,0,0,0,0,0,0,0,0,0,0,0,0,0,0,0,0,0,0,0,0,0,0,0,0,0,0,0,0,0,0,
0,0,0,0,0,0,0,0,0,0,0,0,0,0,0,0,0,0,0,0,0,0,0,0,0,0,0,0,0,0,0,0,0,0,0,0,0,0,0,0,0,0,0,0,
0,0,0,0,0,0,0,0,0,0,0,0,0,0,0,0,0,0,0,0,0,0,0,0,0,0,0,0,0,0,0,0,0,0,0,0,0,0,0,0,0,0,0,0,
0,0,0,0,0,0,0,0,0,0,0,0,0,0,0,0,0,0,0,0,0,0,0,0,0,0,0,0,0,0,0,0,0,0,0,0,0,0,0,0,0,0,0,0
</data>
 </layer>
 <layer id="16" name="roof" width="44" height="36">
  <data encoding="csv">
0,0,0,0,0,0,0,0,0,0,0,0,0,0,0,0,0,0,0,0,0,0,0,0,0,0,0,0,0,173,1761,1762,176,0,0,0,0,0,0,0,0,0,0,0,
0,0,0,0,0,0,0,0,0,0,0,0,0,0,0,0,0,0,0,0,0,0,0,0,0,0,0,0,0,1763,1764,1765,1766,0,0,0,0,0,0,0,0,0,0,0,
0,0,0,0,0,0,0,0,0,0,0,0,0,0,0,0,0,0,0,0,0,0,0,0,0,0,0,0,0,1767,1768,1769,1770,0,0,0,0,0,0,0,0,0,0,0,
0,0,0,0,0,0,0,0,0,0,0,0,0,0,0,0,0,0,0,0,0,0,0,0,0,0,0,0,0,1771,1772,1773,1774,0,0,0,0,0,0,0,0,0,0,0,
0,0,0,0,0,0,0,0,0,0,0,0,0,0,0,0,0,0,0,0,0,0,0,0,0,0,0,0,0,1775,206,207,1776,0,0,0,0,0,0,0,0,0,0,0,
0,0,0,0,0,0,0,0,0,0,0,0,0,0,0,0,0,0,0,0,0,0,0,0,0,0,0,0,0,0,0,0,0,0,0,0,0,0,0,0,0,0,0,0,
0,0,0,0,0,0,0,0,0,0,0,0,0,0,0,0,0,0,0,0,0,0,0,0,0,0,0,0,0,0,0,0,0,0,0,0,0,0,0,0,0,0,0,0,
0,0,0,0,0,0,0,0,0,0,0,0,0,0,0,0,0,0,0,0,0,0,0,0,0,0,0,0,0,0,0,0,0,0,0,0,0,0,0,0,0,0,0,0,
0,0,0,0,0,0,0,0,0,0,0,0,0,0,0,0,0,0,0,0,0,0,0,0,0,0,0,0,0,0,0,0,0,0,0,0,0,0,0,0,0,0,0,0,
0,0,0,0,0,0,0,0,0,0,0,0,0,0,0,0,0,0,0,0,0,0,0,0,0,0,0,0,0,0,0,0,0,0,0,0,0,0,0,0,0,0,0,0,
0,0,0,0,0,0,0,0,0,0,0,0,0,0,0,0,0,0,0,0,0,0,0,0,0,0,0,0,0,0,0,0,0,0,0,0,0,0,0,0,0,0,0,0,
0,0,0,0,0,0,0,0,0,0,0,0,0,0,0,0,0,0,0,0,0,0,0,0,0,0,0,0,0,0,0,0,0,0,0,0,0,0,0,0,0,0,0,0,
0,0,0,0,0,0,0,0,0,0,0,0,0,0,0,0,0,173,1761,1762,176,0,0,0,0,0,0,0,0,0,0,0,0,0,0,0,0,0,0,0,0,0,0,0,
0,0,0,0,0,0,0,0,0,0,0,0,0,0,0,0,0,1763,1764,1765,1766,0,0,0,0,0,0,0,0,0,0,0,0,0,0,0,0,0,0,0,0,0,0,0,
0,0,0,0,0,0,0,0,0,0,0,0,0,0,0,0,0,1767,1768,1769,1770,0,0,0,0,0,0,0,0,0,0,0,0,0,0,0,0,0,0,0,0,0,0,0,
0,0,0,0,0,0,0,0,0,0,0,0,0,0,0,0,0,1771,1772,1773,1774,0,0,0,0,0,0,0,0,0,0,0,0,0,0,0,0,0,0,0,0,0,0,0,
0,0,0,0,0,0,0,0,0,0,0,0,0,0,0,0,0,1775,206,207,1776,0,0,0,0,0,0,0,0,0,0,0,0,0,0,0,0,0,0,0,0,0,0,0,
0,0,0,0,0,0,0,0,0,0,0,0,0,0,0,0,0,0,0,0,0,0,0,0,0,0,0,0,0,0,0,0,0,0,0,0,0,0,0,0,0,0,0,0,
0,0,0,0,0,0,0,0,0,0,0,0,173,1761,1762,176,0,0,0,0,0,0,0,0,0,0,0,0,0,0,0,0,0,0,0,0,0,0,0,0,0,0,0,0,
0,0,0,0,0,0,0,0,0,0,0,0,1763,1764,1765,1766,0,0,0,0,0,0,0,0,0,0,0,0,0,0,0,0,0,0,0,0,0,0,0,0,0,0,0,0,
0,0,0,0,0,0,0,0,0,0,0,0,1767,1768,1769,1770,0,0,0,0,0,0,0,0,0,0,0,0,0,0,0,0,0,0,0,0,0,0,0,0,0,0,0,0,
0,0,0,0,0,0,0,0,0,0,0,0,1771,1772,1773,1774,0,0,0,0,0,0,0,0,0,0,0,0,0,0,0,0,0,0,0,0,0,0,0,0,0,0,0,0,
0,0,0,0,0,0,0,0,0,0,0,0,1775,206,207,1776,0,0,0,0,0,0,0,0,0,0,0,0,0,0,0,0,0,0,0,0,0,0,0,0,0,0,0,0,
0,0,0,0,0,0,0,0,0,0,0,0,0,0,0,0,0,0,0,0,0,0,0,0,0,0,0,0,0,0,0,0,0,0,0,0,0,0,0,0,0,0,0,0,
0,0,0,0,0,0,0,0,0,0,0,0,0,0,0,0,0,0,0,0,0,0,0,0,0,0,0,0,0,0,0,0,0,0,0,0,0,0,0,0,0,0,0,0,
0,0,0,0,0,0,0,0,0,0,0,0,0,0,0,0,0,0,0,0,0,0,0,0,0,0,0,0,0,0,0,0,0,0,0,0,0,0,0,0,0,0,0,0,
0,0,0,0,0,0,0,0,0,0,0,0,0,0,0,0,0,0,0,0,0,0,0,0,0,0,0,0,0,0,0,0,0,0,0,0,0,0,0,0,0,0,0,0,
0,0,0,0,0,0,0,0,0,0,0,0,0,0,0,0,0,0,0,0,0,0,0,0,0,0,0,0,0,0,0,0,0,0,0,0,0,0,0,0,0,0,0,0,
0,0,0,0,0,0,0,0,0,0,0,0,0,0,0,0,0,0,0,0,0,0,0,0,0,0,0,0,0,0,0,0,0,0,0,0,0,0,0,0,0,0,0,0,
0,0,0,0,0,0,0,0,0,0,0,0,0,0,0,0,0,0,0,0,0,0,0,0,0,0,0,0,0,0,0,0,0,0,0,0,0,0,0,0,0,0,0,0,
0,0,0,0,0,0,0,0,0,0,0,0,0,0,0,0,0,0,0,0,0,0,0,0,0,0,0,0,0,0,0,0,0,0,0,0,0,0,0,0,0,0,0,0,
0,0,0,0,0,0,0,0,0,0,0,0,0,0,0,0,0,0,0,0,0,0,0,0,0,0,0,0,0,0,0,0,0,0,0,0,0,0,0,0,0,0,0,0,
0,0,0,0,0,0,0,0,0,0,0,0,0,0,0,0,0,0,0,0,0,0,0,0,0,0,0,0,0,0,0,0,0,0,0,0,0,0,0,0,0,0,0,0,
0,0,0,0,0,0,0,0,0,0,0,0,0,0,0,0,0,0,0,0,0,0,0,0,0,0,0,0,0,0,0,0,0,0,0,0,0,0,0,0,0,0,0,0,
0,0,0,0,0,0,0,0,0,0,0,0,0,0,0,0,0,0,0,0,0,0,0,0,0,0,0,0,0,0,0,0,0,0,0,0,0,0,0,0,0,0,0,0,
0,0,0,0,0,0,0,0,0,0,0,0,0,0,0,0,0,0,0,0,0,0,0,0,0,0,0,0,0,0,0,0,0,0,0,0,0,0,0,0,0,0,0,0
</data>
 </layer>
 <objectgroup id="2" name="characters">
  <!-- 사공 토빈, 촌장 미렌(c2-02 보고), 약초꾼 오디, 문지기 하르, 주민 둘 / 표지판 / 가라앉은 숲 문(닫힘) -->
  <object id="1" name="tobin" type="character" x="112" y="640" width="32" height="32">
   <properties>
    <property name="blocksMovement" type="bool" value="true"/>
    <property name="controller.dialogueLines" type="list">
     <item value="물길이 이렇게 불어난 건 처음이야. 노를 젓는 팔이 다 아프다니까."/>
     <item value="상류길 전망 둑으로 돌아가고 싶으면 나룻배에 타."/>
    </property>
    <property name="controller.scriptId" value="vn-dialogue"/>
    <property name="displayText" value="사공 토빈"/>
    <property name="type" value="character_commoner_tan_tunic"/>
   </properties>
  </object>
  <object id="2" name="miren" type="character" x="688" y="672" width="32" height="32">
   <properties>
    <property name="blocksMovement" type="bool" value="true"/>
    <property name="controller.dialogueLines" type="list">
     <item value="갈대골은 가난해도 서로 돕고 사는 마을이라네."/>
     <item value="숲 쪽 일이라면 언제든 내게 묻게."/>
    </property>
    <property name="controller.scriptId" value="vn-dialogue"/>
    <property name="displayText" value="촌장 미렌"/>
    <property name="type" value="character_elder_gray_hair"/>
   </properties>
  </object>
  <object id="3" name="odi" type="character" x="1072" y="288" width="32" height="32">
   <properties>
    <property name="blocksMovement" type="bool" value="true"/>
    <property name="controller.dialogueLines" type="list">
     <item value="늪 약초는 독이 되기도 하고 약이 되기도 해요."/>
     <item value="독안개 냄새가 요즘 부쩍 짙어졌어요."/>
    </property>
    <property name="controller.scriptId" value="vn-dialogue"/>
    <property name="displayText" value="약초꾼 오디"/>
    <property name="type" value="character_villager_flower_dress"/>
   </properties>
  </object>
  <object id="4" name="reed_guard" type="character" x="1296" y="832" width="32" height="32">
   <properties>
    <property name="blocksMovement" type="bool" value="true"/>
    <property name="controller.dialogueLines" type="list">
     <item value="저 문 너머가 가라앉은 숲이다. 숲길은 위험하다."/>
     <item value="촌장님 말씀을 듣고 가라. 개구리 녀석들이 떼로 다닌다."/>
    </property>
    <property name="controller.scriptId" value="vn-dialogue"/>
    <property name="displayText" value="문지기 하르"/>
    <property name="type" value="character_villager_brown_tunic"/>
   </properties>
  </object>
  <object id="5" name="reed_weaver" type="character" x="784" y="736" width="32" height="32">
   <properties>
    <property name="blocksMovement" type="bool" value="true"/>
    <property name="controller.dialogueLines" type="list">
     <item value="갈대로 지붕을 이고, 갈대로 바구니를 엮지."/>
     <item value="물이 불어나서 갈대밭이 반이나 잠겼어."/>
    </property>
    <property name="controller.scriptId" value="vn-dialogue"/>
    <property name="displayText" value="갈대 엮는 네아"/>
    <property name="type" value="character_villager_flower_dress"/>
   </properties>
  </object>
  <object id="6" name="reed_fisher" type="character" x="208" y="544" width="32" height="32">
   <properties>
    <property name="blocksMovement" type="bool" value="true"/>
    <property name="controller.dialogueLines" type="list">
     <item value="요즘은 물고기도 숲 쪽으로 안 가."/>
     <item value="숲에서 종소리가 울리던 밤부터 다들 숨어 버렸지."/>
    </property>
    <property name="controller.scriptId" value="vn-dialogue"/>
    <property name="displayText" value="낚시꾼 베른"/>
    <property name="type" value="character_bearded_apron_man"/>
   </properties>
  </object>
  <object id="20" name="reed_village_sign" type="character" x="144" y="512" width="32" height="32">
   <properties>
    <property name="type" value="sign_inn"/>
    <property name="blocksMovement" type="bool" value="false"/>
    <property name="displayText" value="갈대골"/>
   </properties>
  </object>
  <object id="21" name="herb_hut_sign" type="character" x="1104" y="256" width="32" height="32">
   <properties>
    <property name="type" value="sign_inn"/>
    <property name="blocksMovement" type="bool" value="false"/>
    <property name="displayText" value="약초 오두막"/>
   </properties>
  </object>
  <object id="22" name="forest_gate_sign" type="character" x="1328" y="800" width="32" height="32">
   <properties>
    <property name="type" value="sign_inn"/>
    <property name="blocksMovement" type="bool" value="false"/>
    <property name="displayText" value="가라앉은 숲 →"/>
   </properties>
  </object>
  <object id="30" name="forest_gate_0" type="character" x="1392" y="864" width="32" height="32">
   <properties>
    <property name="blocksMovement" type="bool" value="true"/>
    <property name="controller.dialogueLines" type="list">
     <item value="굵은 밧줄로 단단히 묶인 나무 문이다."/>
     <item value="문지기 하르가 지키고 있다."/>
    </property>
    <property name="controller.scriptId" value="vn-dialogue"/>
    <property name="quest.hiddenWhenCompleted" value="q017-reed-village"/>
    <property name="type" value="town_prop_fence_gate"/>
   </properties>
  </object>
  <object id="31" name="forest_gate_1" type="character" x="1392" y="896" width="32" height="32">
   <properties>
    <property name="blocksMovement" type="bool" value="true"/>
    <property name="controller.dialogueLines" type="list">
     <item value="굵은 밧줄로 단단히 묶인 나무 문이다."/>
     <item value="문지기 하르가 지키고 있다."/>
    </property>
    <property name="controller.scriptId" value="vn-dialogue"/>
    <property name="quest.hiddenWhenCompleted" value="q017-reed-village"/>
    <property name="type" value="town_prop_fence_gate"/>
   </properties>
  </object>
 </objectgroup>
 <objectgroup id="3" name="portals">
  <!-- 서쪽 나루 → 수로 상류길 전망 둑 (33, 14). 상류길의 나룻배(reed_ferry)는 이 맵의 도착 칸 (3, 17) 을 들고 있다. -->
  <object id="40" name="ferry_dock" type="portal" x="0" y="544" width="32" height="64">
   <properties>
    <property name="appearanceType" value="swamp_raft"/>
    <property name="targetFacing" value="left"/>
    <property name="targetSceneId" value="upstream-waterway"/>
    <property name="targetSpawnTileX" type="int" value="33"/>
    <property name="targetSpawnTileY" type="int" value="14"/>
   </properties>
  </object>
  <object id="41" name="forest_gate" type="portal" x="1376" y="832" width="32" height="64">
   <properties>
    <property name="appearanceType" value="swamp_deck_h"/>
    <property name="quest.requiresCompleted" value="q017-reed-village"/>
    <property name="targetFacing" value="right"/>
    <property name="targetSceneId" value="sunken-forest"/>
    <property name="targetSpawnTileX" type="int" value="2"/>
    <property name="targetSpawnTileY" type="int" value="22"/>
   </properties>
  </object>
 </objectgroup>
</map>
