<?xml version="1.0" encoding="UTF-8"?>
<map version="1.10" tiledversion="1.12.1" orientation="orthogonal" renderorder="right-down" width="60" height="45" tilewidth="32" tileheight="32" infinite="0" nextlayerid="17" nextobjectid="60">
<!-- scripts/generate-sunken-forest.py 가 생성한다. 손으로 고치지 말고 스크립트를 고친 뒤 다시 돌릴 것. -->
 <tileset firstgid="1" source="../tilesets/town-32.tsx"/>
 <layer id="10" name="ground" width="60" height="45">
  <data encoding="csv">
639,639,639,639,639,639,639,639,639,639,639,639,639,639,639,639,639,639,639,639,639,639,639,639,639,639,639,639,639,639,639,639,639,639,639,639,639,639,639,639,639,639,639,639,639,639,639,639,639,639,639,639,639,639,639,639,639,639,639,639,
639,639,639,639,639,639,639,639,639,639,639,639,639,639,639,639,639,639,639,639,639,639,639,639,639,639,639,639,639,639,639,639,639,639,639,639,639,639,639,639,639,639,639,639,639,639,639,639,639,639,639,639,639,639,639,639,639,639,639,639,
639,639,639,639,639,639,639,639,639,639,639,639,639,639,639,639,639,639,639,639,639,639,639,639,639,639,639,639,639,639,639,639,639,639,639,639,639,639,639,639,639,639,639,639,639,639,639,639,639,639,639,639,639,639,639,639,639,639,639,639,
639,639,639,639,639,639,639,639,639,639,639,639,639,639,639,639,639,639,639,639,639,639,639,639,639,639,639,639,639,639,639,639,639,639,639,639,639,639,639,639,639,639,639,639,639,639,639,639,639,639,639,639,639,639,639,639,639,639,639,639,
639,639,639,639,639,639,639,639,639,639,639,639,639,639,639,639,639,639,639,639,639,639,639,639,639,639,639,639,639,639,639,639,639,639,639,639,639,639,639,639,639,639,639,639,639,639,639,639,639,639,639,639,639,639,639,639,639,639,639,639,
639,639,639,639,639,639,639,639,639,639,639,639,639,639,639,639,639,639,639,639,639,639,639,639,639,639,639,639,639,639,639,639,639,639,639,639,639,639,639,639,639,639,639,639,639,639,639,639,639,639,639,639,639,639,639,639,639,639,639,639,
639,639,639,639,639,639,639,639,639,639,639,639,639,639,639,639,639,639,639,639,639,639,639,639,1354,1353,1353,1353,639,639,639,639,639,639,639,639,639,639,639,639,639,639,639,639,639,639,639,639,639,639,639,639,639,639,639,639,639,639,639,639,
639,639,639,639,639,639,639,639,639,639,639,639,639,639,639,639,639,639,639,639,639,639,639,1353,1354,1353,1354,1353,1353,1354,639,639,639,639,639,639,639,639,639,1353,1354,639,639,639,639,639,639,639,639,639,639,639,639,639,639,639,639,639,639,639,
639,639,639,639,639,639,639,639,639,639,639,639,639,639,639,639,639,639,639,639,639,639,1353,1353,1353,1354,1353,1354,1354,1353,1353,1354,639,639,639,639,639,639,639,1353,1353,639,639,639,639,639,639,639,639,639,639,639,639,639,639,639,639,639,639,639,
639,639,639,639,639,639,639,639,639,639,639,639,639,639,639,639,639,639,639,639,639,639,1353,1353,1354,1354,1353,1353,1353,1353,1353,1353,639,639,639,639,639,639,639,1353,1354,1354,639,639,639,639,639,639,639,639,639,639,639,639,639,639,639,639,639,639,
639,639,639,639,639,639,639,639,639,639,639,639,639,639,639,639,639,639,639,639,639,1353,1353,1353,1354,1353,1353,1353,1353,1354,1354,639,639,639,639,639,639,639,639,639,1353,1353,639,639,639,639,639,639,639,639,639,639,639,639,639,639,639,639,639,639,
639,639,639,639,639,639,639,639,639,639,639,639,639,639,639,639,639,639,639,1353,1353,1353,1353,1353,1353,1353,1353,1354,1353,1354,1354,639,639,639,639,639,639,639,639,639,1353,1353,639,639,639,639,639,639,639,639,1353,1353,1353,1353,1353,639,639,639,639,639,
639,639,639,639,639,639,639,639,639,639,639,639,639,639,639,639,639,639,1354,1354,639,639,639,639,1353,1353,1353,1353,1353,639,639,639,639,639,639,639,639,639,639,639,1353,1353,1353,639,639,639,639,639,1353,1354,1354,1354,1353,1353,1353,1353,639,639,639,639,
639,639,639,639,639,639,639,639,639,639,639,639,639,639,639,639,639,1353,639,639,639,639,639,639,639,639,639,639,639,639,639,639,639,639,639,639,639,639,639,639,1353,1353,1353,639,639,639,639,639,1354,1354,1354,1354,1353,1353,1353,1354,639,639,639,639,
639,639,639,639,639,639,639,639,639,639,639,639,639,639,639,639,1354,639,639,639,639,639,639,639,639,639,639,639,639,639,639,639,639,639,639,639,639,639,639,639,1353,1353,1354,639,639,639,639,639,1353,1353,1353,1353,1353,1353,1353,1353,639,639,639,639,
639,639,639,639,639,639,639,639,639,639,639,639,639,639,1353,1353,639,639,639,639,639,639,639,639,639,639,639,639,639,639,639,639,639,639,639,639,639,639,639,639,1354,1353,1353,639,639,639,639,639,1353,1353,1353,1353,1353,1354,1354,639,639,639,639,639,
639,639,639,639,639,639,639,639,639,639,639,639,639,639,1353,639,639,639,639,639,639,639,639,639,639,639,639,639,639,639,639,639,639,639,639,639,639,639,639,639,1353,1354,1354,639,639,639,639,639,639,1353,1354,1353,1353,1353,1353,639,639,639,639,639,
639,639,639,639,639,639,639,639,639,639,639,639,639,1353,639,639,639,639,639,639,639,639,639,639,639,639,639,639,639,639,639,639,639,639,639,639,639,639,639,639,1353,1353,1354,639,639,639,639,639,639,639,639,1353,1353,1353,1353,1354,1354,1353,1353,1354,
639,639,639,639,639,1353,1353,639,639,639,639,639,1353,639,639,639,639,639,639,639,639,639,639,639,639,639,639,639,639,639,639,639,639,639,639,639,639,639,639,639,1353,1353,1353,639,639,639,639,639,639,639,639,1353,1354,1353,1354,1353,1354,1353,1354,1353,
639,639,639,639,1353,1353,1353,1353,1353,1353,1353,1353,1354,639,639,639,639,639,639,639,639,639,639,639,639,639,639,639,639,639,639,639,1353,1353,1354,639,639,639,639,639,1353,1353,1353,639,639,639,639,639,639,639,1353,1353,1354,1353,1354,1353,639,639,639,639,
639,639,1353,1353,1353,1354,1354,1353,1354,1353,1353,1353,1354,639,639,639,639,639,639,639,639,639,639,639,639,639,639,639,639,639,639,639,1354,1353,1353,639,639,639,639,639,1354,1353,1353,1353,639,639,1353,1353,1353,1353,1353,639,639,639,639,639,639,639,639,639,
1354,1353,1353,1353,1353,1354,1353,1353,1354,1353,1353,1353,1354,1353,639,639,639,639,639,639,639,639,639,639,639,639,639,639,639,639,639,639,1354,1353,1354,639,639,639,639,639,1353,1353,1353,1353,1353,1354,1353,1353,1353,639,639,639,639,639,639,639,639,639,639,639,
1354,1354,1353,1353,1354,1353,1353,1354,1353,1354,1354,1354,1353,1353,639,639,639,639,639,639,639,639,639,639,639,639,639,639,639,639,639,639,639,639,639,639,639,639,639,639,1353,1353,1353,1354,1353,1353,1354,639,639,639,639,639,639,639,639,639,639,639,639,639,
1353,1354,1353,1353,1354,1353,1354,1354,1353,1354,1353,1353,1353,639,639,639,639,639,639,639,639,639,639,639,639,639,639,639,639,639,639,639,639,639,639,639,639,639,639,639,1353,1354,1353,639,639,639,639,639,639,639,639,639,639,639,639,639,639,639,639,639,
639,639,639,639,1354,1353,1354,1354,1354,1353,1354,1353,1353,639,639,639,639,639,639,639,639,639,639,639,639,639,639,639,639,639,639,639,639,639,639,639,639,639,639,639,1353,1353,1354,639,639,639,639,639,639,639,639,639,639,639,639,639,639,639,639,639,
639,639,639,639,1353,1353,1354,639,639,639,639,639,639,1353,639,639,639,639,639,639,639,639,639,639,639,639,639,639,639,639,639,639,639,639,639,639,639,639,639,639,639,1353,1353,639,639,639,639,639,639,639,639,639,639,639,639,639,639,639,639,639,
639,639,639,639,639,639,639,639,639,639,639,639,639,1353,1353,639,639,639,639,639,639,639,639,639,639,639,639,639,639,639,639,639,639,639,639,639,639,639,639,639,639,1353,1353,639,639,639,639,639,639,639,639,639,639,1353,639,639,639,639,639,639,
639,639,639,639,639,639,639,639,639,639,639,639,639,639,1353,1353,639,639,639,639,639,639,639,639,639,639,639,639,639,639,639,639,639,639,639,639,639,639,639,639,639,1353,1354,639,639,639,639,639,639,639,639,1353,1354,1354,1353,1354,639,639,639,639,
639,639,639,639,639,639,639,639,639,639,639,639,639,639,639,1353,1353,639,639,639,639,639,639,1353,1354,1354,1354,1353,639,639,639,639,639,639,639,639,639,639,639,639,639,1353,1353,639,639,639,639,639,639,639,1353,1353,1354,1354,1353,1353,1354,1354,639,639,
639,639,639,639,639,639,639,639,639,639,639,639,639,639,639,639,1353,1353,1353,639,639,639,1353,1353,1354,1354,1354,1353,1354,639,639,639,639,639,639,639,639,639,639,639,639,1353,1353,639,639,639,639,639,639,639,1353,1353,1354,1353,1354,1353,1353,1354,639,639,
639,639,639,639,639,639,639,639,639,639,639,639,639,639,639,639,639,639,1354,1353,1354,1353,1353,1353,1353,1353,1353,1354,1353,1354,639,639,639,639,639,639,639,639,639,639,639,1354,1353,639,639,639,639,639,639,1353,1354,1354,1353,1353,1353,1354,1353,1353,1353,639,
639,639,639,639,639,639,639,639,639,639,639,639,639,639,639,639,639,639,639,639,1353,1353,1353,1353,1353,1353,1353,1353,1353,1354,1353,639,639,639,639,639,639,639,639,639,1353,1354,1353,639,639,639,639,639,639,639,639,1353,1353,1353,1353,1353,1353,639,639,639,
639,639,639,639,639,1353,639,639,639,639,639,639,639,639,639,639,639,639,639,639,1353,1354,1353,1354,1353,1353,1353,1353,1353,1353,1353,639,639,639,639,639,639,639,639,639,1353,1353,639,639,639,639,639,639,639,639,639,1354,1353,1353,1353,1353,1353,639,639,639,
639,639,639,1353,1353,1353,1353,639,639,639,639,639,639,639,639,639,639,639,639,639,639,1353,1353,1353,1354,1353,1354,1353,1353,1353,639,639,639,639,639,639,639,639,639,639,1353,1353,639,639,639,639,639,639,639,639,639,639,639,1353,639,639,639,639,639,639,
639,639,639,639,1353,1354,639,639,639,639,639,639,639,639,639,639,639,639,639,639,639,1353,1354,1353,1354,1353,1353,1353,1353,1354,639,639,639,639,639,639,639,639,639,639,1353,1353,639,639,639,639,639,639,639,639,639,639,639,639,639,639,639,639,639,639,
639,639,639,639,639,639,639,639,639,639,639,639,639,639,639,639,639,639,639,639,639,639,1354,1354,1354,1354,1353,1353,1353,639,639,639,639,639,639,639,639,639,639,1354,1353,1354,639,639,639,639,639,639,639,639,639,639,639,639,639,639,639,639,639,639,
639,639,639,639,639,639,639,639,639,639,639,639,639,639,639,639,639,639,639,639,639,639,639,639,639,639,639,639,639,639,639,639,639,639,639,639,639,639,639,1353,1354,1354,639,639,639,639,639,639,639,639,639,639,639,639,639,639,639,639,639,639,
639,639,639,639,639,639,639,639,639,639,639,639,639,639,639,639,639,639,639,639,639,639,639,639,639,639,639,639,639,639,639,639,639,639,639,639,639,639,639,639,639,639,639,639,639,639,639,639,639,639,639,639,639,639,639,639,639,639,639,639,
639,639,639,639,639,639,639,639,639,639,639,639,639,639,639,639,639,639,639,639,639,639,639,639,639,639,639,639,639,639,639,639,639,639,639,639,639,639,639,639,639,639,639,639,639,639,639,639,639,639,639,639,639,639,639,639,639,639,639,639,
639,639,639,639,639,639,639,639,639,1354,1354,1353,1353,1353,1354,639,639,639,639,639,639,639,639,639,639,639,639,639,639,639,639,639,639,639,639,639,639,639,639,639,639,639,639,639,639,639,639,639,639,639,639,639,639,639,639,639,639,639,639,639,
639,639,639,639,639,639,639,639,639,1353,1353,1354,1353,1353,1353,1353,639,639,639,639,639,639,639,639,639,639,639,639,639,639,639,639,639,639,1354,1353,1353,1353,1354,1353,639,639,639,639,639,639,639,639,639,639,639,639,639,639,639,639,639,639,639,639,
639,639,639,639,639,639,639,639,639,1353,1354,1354,1354,1353,1353,639,639,639,639,639,639,639,639,639,639,639,639,639,639,639,639,639,639,1354,1353,1353,1353,1353,1354,1353,1353,639,639,639,639,639,639,639,639,639,639,639,639,639,639,639,639,639,639,639,
639,639,639,639,639,639,639,639,639,639,639,639,1354,639,639,639,639,639,639,639,639,639,639,639,639,639,639,639,639,639,639,639,639,1354,1353,1354,1354,1353,1353,1354,1353,639,639,639,639,639,639,639,639,639,639,639,639,639,639,639,639,639,639,639,
639,639,639,639,639,639,639,639,639,639,639,639,639,639,639,639,639,639,639,639,639,639,639,639,639,639,639,639,639,639,639,639,639,639,639,639,639,639,639,639,639,639,639,639,639,639,639,639,639,639,639,639,639,639,639,639,639,639,639,639,
639,639,639,639,639,639,639,639,639,639,639,639,639,639,639,639,639,639,639,639,639,639,639,639,639,639,639,639,639,639,639,639,639,639,639,639,639,639,639,639,639,639,639,639,639,639,639,639,639,639,639,639,639,639,639,639,639,639,639,639
</data>
 </layer>
 <layer id="11" name="shadow_lower" width="60" height="45">
  <data encoding="csv">
0,0,0,0,0,0,0,0,0,0,0,0,0,0,0,0,0,0,0,0,0,0,0,0,0,0,0,0,0,0,0,0,0,0,0,0,0,0,0,0,0,0,0,0,0,0,0,0,0,0,0,0,0,0,0,0,0,0,0,0,
0,0,0,0,0,0,0,0,0,0,0,0,0,0,0,0,0,0,0,0,0,0,0,0,0,0,0,0,0,0,0,0,0,0,0,0,0,0,0,0,0,0,0,0,0,0,0,0,0,0,0,0,0,0,0,0,0,0,0,0,
0,0,0,0,0,0,0,0,0,0,0,0,0,0,0,0,0,0,0,0,0,0,0,0,0,0,0,0,0,0,0,0,0,0,0,0,0,0,0,0,0,0,0,0,0,0,0,0,0,0,0,0,0,0,0,0,0,0,0,0,
0,0,0,0,0,0,0,0,0,0,0,0,0,0,0,0,0,0,0,0,0,0,0,0,0,0,0,0,0,0,0,0,0,0,0,0,0,0,0,0,0,0,0,0,1606,0,1608,0,0,0,0,0,0,0,0,0,0,0,0,0,
0,0,0,0,1694,1695,0,1697,1698,0,0,0,0,0,1606,0,1608,0,1719,1720,0,1722,1723,1624,1625,0,1627,1628,0,1674,1675,0,1677,1678,1739,1740,0,1742,1743,0,0,0,0,0,0,0,0,1674,1675,0,1677,1678,0,0,1649,1650,0,1652,1653,0,
0,0,0,0,0,0,0,0,0,0,0,0,0,0,0,0,0,0,0,0,0,0,0,1417,1444,1447,1451,1446,1394,0,0,0,0,0,0,0,0,0,1694,1695,0,1697,1698,0,0,0,0,0,0,0,0,0,0,0,0,0,0,0,0,0,
0,0,0,0,0,0,0,0,1649,1650,0,1652,1653,0,0,0,0,0,0,0,0,0,1418,1465,1356,0,1358,0,1460,1445,1394,0,0,0,0,0,0,0,1417,1450,1446,1388,0,1739,1740,0,1742,1743,0,0,1719,1720,0,1722,1723,0,0,0,0,0,
1624,1625,0,1627,1628,0,1606,0,1608,0,0,0,0,0,0,0,1694,1695,0,1697,1698,1418,1468,0,0,0,0,0,0,0,1460,1451,1390,1674,1675,0,1677,1678,1429,0,1355,1399,0,0,0,0,0,0,0,0,0,0,0,0,0,0,0,0,0,0,
0,0,0,0,0,0,0,0,0,0,0,0,0,1719,1720,0,1722,1723,0,0,0,1434,1359,0,0,0,0,0,0,0,0,0,1397,0,0,0,0,0,1426,0,0,1459,1394,0,0,0,0,0,0,0,0,0,0,0,0,0,0,0,0,0,
0,0,0,0,0,0,0,0,0,1739,1740,0,1742,1743,0,0,0,0,0,0,1422,1470,0,0,0,0,0,0,0,0,0,0,1397,0,0,0,0,0,1428,1359,0,1358,1403,0,0,1649,1650,0,1652,1653,1418,1391,0,0,0,0,0,0,0,0,
1624,1625,0,1627,1628,1606,0,1608,0,0,0,0,0,0,0,0,0,0,1422,1452,1464,0,0,0,0,0,0,0,0,0,0,1408,1782,1782,1782,1782,1782,1782,1782,1782,0,0,1398,0,0,0,0,0,0,1424,1470,1457,1451,1446,1450,1396,0,0,0,0,
0,0,0,0,0,0,0,0,0,0,0,0,0,0,0,0,0,1424,1464,0,0,0,1359,0,0,0,0,0,0,0,0,1400,1782,1782,1782,1782,1782,1782,1782,1782,0,0,1457,1389,0,0,0,1416,1450,1470,1606,0,1608,0,0,1460,1389,0,0,0,
0,0,0,0,0,0,0,0,0,1674,1675,0,1677,1678,0,0,1423,1470,0,0,1411,1386,1387,1437,0,1359,1358,1358,1359,1409,1379,1361,1784,1784,1784,1784,1784,1784,1784,1429,0,0,0,1397,0,0,0,1428,1355,0,0,1358,0,0,0,0,1397,0,0,0,
0,0,0,1694,1695,0,1697,1698,0,0,0,0,0,0,0,1423,1467,0,1408,1382,1365,0,0,1370,1379,1382,1383,1380,1379,1367,0,0,0,0,0,0,0,0,0,1428,0,0,0,1398,0,0,0,1433,1356,1674,1675,0,1677,1678,0,0,1397,0,0,0,
0,0,0,0,0,0,0,0,0,0,0,0,0,1420,1445,1465,0,1407,1364,0,0,0,0,0,0,0,0,0,0,0,0,0,0,0,0,0,0,0,0,1433,1357,0,0,1401,0,0,0,1429,1355,0,0,0,0,0,0,1356,1398,0,0,0,
0,0,0,0,0,0,0,0,0,0,0,0,0,1431,0,0,1408,1361,0,0,0,0,0,0,0,0,0,1719,1720,0,1722,1723,0,0,0,0,0,0,0,1429,0,0,0,1402,0,0,0,1426,0,0,0,0,0,0,0,1415,1366,0,0,0,
0,0,0,0,0,0,0,1739,1740,0,1742,1743,1417,1468,0,1407,1364,0,0,0,0,0,0,0,0,0,0,0,0,0,0,0,0,0,1649,1650,0,1652,1653,1426,0,0,0,1405,0,0,0,1370,1438,1359,0,0,0,0,0,1459,1444,1447,1448,1445,
0,0,0,0,1418,1450,1452,1393,1418,1391,0,1417,1465,0,1414,1363,0,0,0,0,1624,1625,0,1627,1628,0,0,0,0,0,0,0,1606,0,1608,0,0,0,0,1427,0,0,0,1403,0,0,0,0,1373,1385,1440,0,0,0,0,1694,1695,0,1697,1698,
0,0,0,1417,1468,1359,1356,1456,1468,1456,1444,1465,0,1408,1364,0,0,0,0,0,0,0,0,1674,1675,0,1677,1678,0,0,0,1416,1444,1450,1449,1392,0,0,0,1430,1359,0,0,1397,0,0,0,0,0,1418,1465,0,0,0,0,0,0,1358,1356,0,
1394,1422,1449,1466,0,0,0,0,0,0,1356,0,0,1401,0,0,0,0,0,0,0,0,0,0,0,0,0,0,0,0,1417,1462,1357,0,1356,1458,1390,0,0,1431,1356,0,0,1455,1396,1417,1447,1448,1448,1469,1358,0,1358,1359,0,0,1412,1386,1384,1386,
1460,1463,0,0,0,0,0,0,0,0,0,0,0,1457,1392,0,0,1694,1695,0,1697,1698,0,0,0,0,0,0,0,0,1375,1440,0,0,0,1408,1361,0,0,1434,0,0,0,0,1461,1467,0,1359,0,0,1356,1413,1387,1381,1379,1382,1368,0,0,0,
0,0,0,0,0,0,0,0,0,0,0,0,0,0,1400,0,0,0,0,0,0,0,0,0,1719,1720,0,1722,1723,0,0,1431,1358,0,0,1402,0,0,0,1432,0,0,0,0,0,0,0,0,1356,1408,1379,1361,0,0,0,0,0,0,0,0,
0,0,0,0,0,0,0,0,0,0,0,0,0,0,1397,0,0,0,0,0,0,0,0,0,0,0,0,0,0,0,0,1377,1383,1383,1386,1369,0,0,0,1428,0,0,0,0,0,0,0,1407,1385,1366,1739,1740,0,1742,1743,0,0,0,0,0,
0,0,0,0,0,0,0,0,0,0,0,0,0,1413,1363,0,0,0,0,0,1624,1625,0,1627,1628,0,0,1674,1675,0,1677,1678,0,0,1606,0,1608,0,0,1433,0,0,0,1407,1379,1382,1386,1363,0,0,0,0,0,0,1649,1650,0,1652,1653,0,
1386,1387,1387,1437,1356,0,0,0,0,0,0,0,0,1453,1388,0,0,0,0,0,0,0,0,0,0,0,0,0,0,0,0,0,0,0,0,0,0,0,0,1429,0,0,1359,1397,1694,1695,0,1697,1698,0,0,0,0,0,0,0,0,0,0,0,
0,0,0,1427,0,0,1359,1412,1439,1414,1384,1386,1443,0,1455,1393,0,0,0,0,0,0,0,1719,1720,0,1722,1723,0,0,0,0,0,0,0,0,0,0,0,1371,1439,0,1357,1398,0,0,0,0,0,0,1423,1396,1419,1445,1388,0,0,0,0,0,
0,0,0,1374,1383,1380,1382,1368,1374,1365,0,0,1432,0,0,1458,1390,0,0,0,0,0,0,0,1424,1396,0,0,0,0,0,1739,1740,0,1742,1743,0,0,0,0,1430,0,0,1400,0,0,0,0,0,0,1430,1461,1464,0,1454,1451,1396,0,0,0,
0,0,0,0,0,0,0,0,0,0,0,0,1371,1442,0,0,1454,1389,0,0,0,0,1422,1452,1470,1460,1448,1451,1393,0,0,0,0,0,0,0,0,0,0,0,1430,0,0,1398,0,0,0,0,0,1418,1465,0,0,0,1355,1358,1461,1449,1392,0,
0,0,0,0,0,0,0,0,0,0,0,0,0,1378,1440,0,0,1454,1445,1388,0,1416,1462,0,0,0,1359,1359,1457,1389,0,0,0,0,0,0,0,0,0,0,1430,0,0,1401,0,0,0,0,0,1434,0,1624,1625,0,1627,1628,0,1357,1401,0,
0,0,0,0,1606,0,1608,0,1624,1625,0,1627,1628,0,1373,1435,0,0,1358,1455,1446,1462,1359,0,0,0,0,0,0,1454,1392,0,0,1649,1650,0,1652,1653,0,0,1431,0,0,1402,0,0,0,0,1419,1469,0,0,0,0,0,1606,0,1608,1456,1388,
0,0,0,0,0,0,0,0,0,0,0,0,0,0,0,1370,1385,1443,0,0,0,0,0,0,0,0,0,0,0,0,1457,1392,0,0,0,0,0,0,0,1422,1470,0,0,1405,0,0,0,0,1427,0,0,0,0,0,0,0,0,0,0,1399,
0,0,0,0,1418,1447,1395,0,0,0,0,0,0,0,0,0,0,1378,1381,1438,0,0,0,0,0,0,0,0,0,0,0,1782,1782,1782,1782,1782,1782,1782,1782,1782,1782,0,1355,1405,0,0,0,0,1375,1384,1436,0,1357,0,0,0,0,1413,1387,1369,
0,0,1420,1451,1470,0,1460,1392,0,1694,1695,0,1697,1698,0,0,0,0,1421,1466,0,0,0,0,0,0,0,0,0,0,1355,1782,1782,1782,1782,1782,1782,1782,1782,1782,1782,0,1407,1367,1674,1675,0,1677,1678,0,1426,1357,0,0,0,0,1355,1397,0,0,
0,0,1431,1359,0,0,1359,1402,0,0,0,0,0,1719,1720,0,1722,1723,1377,1383,1442,0,0,0,1358,0,0,0,0,0,1412,1368,1784,1784,1784,1784,1784,1784,1784,1432,0,0,1399,0,0,0,0,0,0,0,1372,1387,1440,0,1412,1380,1385,1363,0,0,
0,0,1376,1438,0,0,1408,1367,0,0,0,0,0,0,0,0,0,0,0,0,1432,0,0,0,1358,0,0,0,0,1359,1403,0,0,0,0,0,0,0,1421,1463,0,0,1405,0,0,0,0,1739,1740,0,1742,1743,1374,1380,1367,0,0,0,0,0,
0,0,0,1373,1385,1387,1366,0,0,0,0,0,0,0,0,0,0,0,0,0,1370,1438,0,1356,0,1357,0,1355,1355,1408,1361,0,0,0,0,0,0,0,1433,0,0,0,1405,0,0,0,0,0,0,0,0,0,0,1649,1650,0,1652,1653,0,0,
0,0,0,0,1606,0,1608,0,0,1624,1625,0,1627,1628,1674,1675,0,1677,1678,0,0,1373,1379,1382,1386,1384,1386,1381,1385,1366,0,0,0,0,0,0,0,0,1430,1357,0,0,1405,0,1694,1695,0,1697,1698,0,0,0,0,0,0,0,0,0,0,0,
0,0,0,0,0,0,0,0,0,0,0,0,1418,1388,0,0,0,0,0,0,0,0,0,0,0,0,0,0,0,0,0,0,0,0,0,0,0,0,1374,1386,1387,1387,1369,0,0,0,0,0,0,0,0,0,0,0,0,0,0,0,0,0,
0,0,0,0,0,0,0,0,1420,1451,1446,1447,1469,1453,1447,1395,0,0,0,0,0,0,0,0,0,0,0,0,0,0,0,0,0,0,0,0,0,0,0,0,0,0,0,0,0,0,0,0,0,0,0,0,0,0,0,0,0,0,0,0,
0,0,0,0,0,0,0,1418,1465,1359,0,1356,1357,0,0,1460,1395,0,0,0,0,0,0,0,0,0,0,0,0,0,0,0,0,1416,1444,1444,1450,1452,1446,1447,1395,0,0,0,0,0,0,0,0,0,0,0,0,0,0,0,0,0,0,0,
0,0,0,0,0,0,0,1376,1441,0,1694,1695,0,1697,1698,0,1403,0,0,0,0,0,0,0,0,0,0,0,0,0,0,0,1421,1463,1359,1719,1720,0,1722,1723,1460,1389,0,0,0,0,0,0,0,0,0,0,0,0,0,0,0,0,0,0,
0,0,0,0,0,0,0,0,1434,1356,0,0,1357,0,1359,1407,1361,0,0,0,0,0,0,0,0,0,0,0,0,0,0,0,1432,0,1359,0,0,0,0,0,1359,1399,0,0,0,0,0,0,0,0,0,0,0,0,0,0,0,0,0,0,
0,0,0,0,0,0,0,0,1377,1380,1382,1442,1356,1412,1386,1363,0,0,0,0,0,0,0,0,0,0,0,0,0,0,0,0,1426,0,1739,1740,0,1742,1743,0,0,1405,0,0,0,0,0,0,0,0,0,0,0,0,0,0,0,0,0,0,
0,0,0,0,0,0,0,0,0,0,0,1377,1386,1369,0,0,0,0,0,0,0,0,0,0,0,0,0,0,0,0,0,0,1370,1385,1387,1437,1411,1380,1385,1381,1385,1369,0,0,0,0,0,0,0,0,0,0,0,0,0,0,0,0,0,0,
0,0,0,0,0,0,0,0,0,0,0,0,0,0,0,0,0,0,0,0,0,0,0,0,0,0,0,0,0,0,0,0,0,0,0,1372,1366,0,0,0,0,0,0,0,0,0,0,0,0,0,0,0,0,0,0,0,0,0,0,0
</data>
 </layer>
 <layer id="12" name="object" width="60" height="45">
  <data encoding="csv">
302,302,302,302,302,302,302,302,302,302,302,302,302,302,302,302,302,302,302,302,302,302,302,302,302,302,302,302,302,302,302,302,302,302,302,302,302,302,302,302,302,302,302,302,302,302,302,302,302,302,302,302,302,302,302,302,302,302,302,302,
302,302,302,302,302,302,302,302,302,302,302,302,302,302,302,302,302,302,302,302,302,302,302,302,302,302,302,302,302,302,302,302,302,302,302,302,302,302,302,302,302,302,302,302,302,302,302,302,302,302,302,302,302,302,302,302,302,302,302,302,
302,302,302,302,302,302,302,302,302,302,302,302,302,302,302,302,302,302,302,302,302,302,302,302,302,302,302,302,302,302,302,302,302,302,302,302,302,302,302,302,302,302,302,302,302,302,302,302,302,302,302,302,302,302,302,302,302,302,302,302,
302,302,302,302,302,302,302,302,302,302,302,302,302,302,302,302,302,302,302,302,302,302,302,302,302,302,302,302,302,302,302,302,302,302,302,302,302,302,302,302,302,302,302,302,302,1607,302,302,302,302,302,302,302,302,302,302,302,302,302,302,
302,302,302,302,302,302,1696,302,302,302,302,302,302,302,302,1607,302,302,302,302,1721,302,302,302,302,1626,302,302,302,302,302,1676,302,302,302,302,1741,302,302,302,302,302,302,302,302,302,302,302,302,1676,302,302,302,302,302,302,1651,302,302,302,
302,302,302,302,302,302,302,302,302,302,302,302,302,302,302,302,302,302,302,302,302,302,302,302,302,302,302,302,302,302,302,302,302,302,302,302,302,302,302,302,1696,302,302,302,302,302,302,302,302,302,302,302,302,302,302,302,302,302,302,302,
302,302,302,302,302,302,302,302,302,302,1651,302,302,302,302,302,302,302,302,302,302,302,302,0,0,0,0,0,0,302,302,302,302,302,302,302,302,302,302,302,302,302,302,302,302,1741,302,302,302,302,302,302,1721,302,302,302,302,302,302,302,
302,302,1626,302,302,302,302,1607,302,302,302,302,302,302,302,302,302,302,1696,302,302,302,0,0,0,0,0,0,0,0,0,302,302,302,302,1676,302,302,302,0,0,302,302,302,302,302,302,302,302,302,302,302,302,302,302,302,302,302,302,302,
302,302,302,302,302,302,302,302,302,302,302,302,302,302,302,1721,302,302,302,302,302,302,1158,0,0,0,0,0,0,0,0,0,302,302,302,302,302,302,302,0,0,0,302,302,302,302,302,302,302,302,302,302,302,302,302,302,302,302,302,302,
302,302,302,302,302,302,302,302,302,302,302,1741,302,302,302,302,302,302,302,302,302,0,0,0,0,0,0,1092,0,0,0,0,302,302,302,302,302,302,302,0,0,0,302,302,302,302,302,1651,302,302,302,302,302,302,302,302,302,302,302,302,
302,302,1626,302,302,302,1607,302,302,302,302,302,302,302,302,302,302,302,302,302,0,0,0,0,1095,0,0,0,0,1189,0,1158,0,0,0,0,0,0,0,0,0,1158,302,302,302,302,302,302,302,302,0,0,302,302,302,302,302,302,302,302,
302,302,302,302,302,302,302,302,302,302,302,302,302,302,302,302,302,302,0,0,0,0,0,0,0,0,1189,0,0,0,0,302,0,0,0,0,0,0,0,0,0,0,0,302,302,302,302,302,302,0,0,1607,0,0,0,0,302,302,302,302,
302,302,302,302,302,302,302,302,302,302,302,1676,302,302,302,302,302,0,0,0,0,302,302,1158,0,0,0,0,0,0,302,302,302,302,302,302,302,302,302,302,0,0,1158,302,302,302,302,302,0,0,0,0,0,0,0,1158,302,302,302,302,
302,302,302,302,302,1696,302,302,302,302,302,302,302,302,302,302,0,0,0,302,302,302,302,302,302,302,302,302,302,302,302,302,302,302,302,302,302,302,302,302,0,0,0,302,302,302,302,302,1158,0,0,1676,0,0,0,0,302,302,302,302,
302,302,302,302,302,302,302,302,302,302,302,302,302,302,302,0,0,0,302,302,302,302,302,302,302,302,302,302,302,302,302,302,302,302,302,302,302,302,302,302,0,0,0,302,302,302,302,302,0,0,0,0,0,0,0,0,302,302,302,302,
302,302,302,302,302,302,302,302,302,302,302,302,302,302,0,0,0,302,302,302,302,302,302,302,302,302,302,302,302,1721,302,302,302,302,302,302,302,302,302,302,0,0,0,302,302,302,302,302,0,0,0,0,0,0,0,0,302,302,302,302,
302,302,302,302,302,302,302,302,302,1741,302,302,302,0,0,0,302,302,302,302,302,302,302,302,302,302,302,302,302,302,302,302,302,302,302,302,1651,302,302,302,0,0,0,302,302,302,302,302,0,1158,0,0,0,0,0,0,302,302,302,302,
302,302,302,302,302,302,302,302,302,302,302,302,0,0,0,302,302,302,302,302,302,302,1626,302,302,302,302,302,302,302,302,302,302,1607,302,302,302,302,302,302,0,0,0,302,302,302,302,302,302,302,0,0,0,0,0,0,0,1696,1150,1150,
302,302,302,302,1594,1595,1596,0,0,0,302,0,0,0,302,302,302,302,302,302,302,302,302,302,302,1676,302,302,302,302,302,302,302,302,302,302,302,302,302,302,0,0,1158,302,302,302,302,302,302,302,0,0,0,0,0,0,0,0,0,528,
302,302,302,0,0,0,0,0,0,0,0,0,0,302,302,302,302,302,302,302,302,302,302,302,302,302,302,302,302,302,302,302,302,302,302,302,302,302,302,302,0,0,0,0,302,302,302,302,302,0,0,0,0,0,0,0,0,302,302,302,
1151,0,0,0,0,0,0,0,0,0,0,0,0,0,302,302,302,302,302,1696,302,302,302,302,302,302,302,302,302,302,302,302,1158,302,302,302,302,302,302,302,0,0,0,0,0,0,0,0,0,0,0,0,302,302,302,302,302,302,302,302,
0,0,0,0,0,0,0,0,0,0,0,0,0,0,302,302,302,302,302,302,302,302,302,302,302,302,1721,302,302,302,302,302,1158,302,302,302,302,302,302,302,0,0,0,0,0,0,0,0,0,0,302,302,302,302,302,302,302,302,302,302,
0,0,0,0,0,0,0,0,0,0,0,0,0,0,302,302,302,302,302,302,302,302,302,302,302,302,302,302,302,302,302,302,302,302,302,302,302,302,302,302,0,0,0,0,0,0,0,0,302,302,302,302,1741,302,302,302,302,302,302,302,
0,0,0,0,0,0,0,0,0,0,0,0,0,0,302,302,302,302,302,302,302,302,1626,302,302,302,302,302,302,1676,302,302,302,302,302,1607,302,302,302,302,0,0,0,0,302,302,302,302,302,302,302,302,302,302,302,302,1651,302,302,302,
302,302,302,0,0,0,0,0,0,0,1158,0,0,1158,302,302,302,302,302,302,302,302,302,302,302,302,302,302,302,302,302,302,302,302,302,302,302,302,302,302,0,0,0,302,302,302,1696,302,302,302,302,302,302,302,302,302,302,302,302,302,
302,302,302,302,0,0,1594,1595,1596,1158,302,302,0,0,0,302,302,302,302,302,302,302,302,302,302,1721,302,302,302,302,302,302,302,302,302,302,302,302,302,302,0,0,1158,302,302,302,302,302,302,302,302,302,302,302,302,302,302,302,302,302,
302,302,302,302,302,302,302,302,302,302,302,302,302,0,0,0,302,302,302,302,302,302,302,302,302,302,302,302,302,302,302,302,302,1741,302,302,302,302,302,302,302,0,0,302,302,302,302,302,302,302,302,302,1594,1595,1596,302,302,302,302,302,
302,302,302,302,302,302,302,302,302,302,302,302,302,0,0,0,0,302,302,302,302,302,302,302,0,0,302,302,302,302,302,302,302,302,302,302,302,302,302,302,302,0,0,302,302,302,302,302,302,302,302,302,1150,1150,302,1150,1150,302,302,302,
302,302,302,302,302,302,302,302,302,302,302,302,302,302,0,0,0,0,302,302,302,302,0,0,0,0,0,0,0,302,302,302,302,302,302,302,302,302,302,302,302,0,0,302,302,302,302,302,302,302,1158,302,1150,1626,302,302,1150,302,302,302,
302,302,302,302,302,1607,302,302,302,302,1626,302,302,302,302,0,0,0,0,0,302,0,0,0,0,0,0,0,0,0,302,302,302,302,302,1651,302,302,302,302,302,0,0,302,302,302,302,302,302,302,302,302,1150,1150,1158,302,1607,302,1150,302,
302,302,302,302,302,302,302,302,302,302,302,302,302,302,302,302,302,0,0,0,0,1189,0,0,0,0,0,0,0,0,0,302,302,302,302,302,302,302,302,302,0,0,1158,302,302,302,302,302,302,1158,1150,1150,1150,302,302,1158,302,302,302,302,
302,302,302,302,302,302,302,302,302,302,302,302,302,302,302,302,302,302,302,0,0,0,0,0,0,0,0,0,0,0,0,0,0,0,0,0,0,0,0,0,0,0,0,302,302,302,302,302,302,302,302,1150,302,302,302,302,302,1150,302,302,
302,302,302,302,1150,302,1150,302,302,302,302,1696,302,302,302,302,302,302,302,0,0,0,0,0,0,0,0,0,0,0,1158,0,0,0,0,0,0,0,0,0,0,0,0,302,302,302,1676,302,302,302,302,1594,1595,1596,302,302,302,302,302,302,
302,302,302,302,302,302,1158,302,302,302,302,302,302,302,302,1721,302,302,302,302,0,0,0,0,0,0,0,0,0,0,0,302,302,302,302,302,302,302,302,302,0,0,302,302,302,302,302,302,302,302,302,302,1158,302,1152,302,302,302,302,302,
302,302,302,1158,302,1150,302,302,302,302,302,302,302,302,302,302,302,302,302,302,302,1158,0,0,0,0,0,0,0,528,302,302,302,302,302,302,302,302,302,0,0,0,302,302,302,302,302,302,302,1741,302,302,302,302,302,302,302,302,302,302,
302,302,302,302,302,302,302,302,302,302,302,302,302,302,302,302,302,302,302,302,302,302,1158,0,0,0,0,0,0,0,302,302,302,302,302,302,302,302,302,1158,0,0,302,302,302,302,302,302,302,302,302,302,302,302,302,1651,302,302,302,302,
302,302,302,302,302,1607,302,302,302,302,302,1626,302,302,302,302,1676,302,302,302,302,302,302,302,302,302,302,302,302,302,302,302,302,302,302,302,302,302,302,0,0,0,302,302,302,302,1696,302,302,302,302,302,302,302,302,302,302,302,302,302,
302,302,302,302,302,302,302,302,302,302,302,302,302,302,302,302,302,302,302,302,302,302,302,302,302,302,302,302,302,302,302,302,302,302,302,302,302,302,302,302,302,302,302,302,302,302,302,302,302,302,302,302,302,302,302,302,302,302,302,302,
302,302,302,302,302,302,302,302,302,302,302,302,302,302,302,302,302,302,302,302,302,302,302,302,302,302,302,302,302,302,302,302,302,302,302,302,302,302,302,302,302,302,302,302,302,302,302,302,302,302,302,302,302,302,302,302,302,302,302,302,
302,302,302,302,302,302,302,302,1150,302,1150,302,302,302,302,1150,302,302,302,302,302,302,302,302,302,302,302,302,302,302,302,302,302,302,302,302,302,302,302,302,302,302,302,302,302,302,302,302,302,302,302,302,302,302,302,302,302,302,302,302,
302,302,302,302,302,302,302,302,302,302,1150,1150,1696,302,302,302,302,302,302,302,302,302,302,302,302,302,302,302,302,302,302,302,302,1150,302,302,302,1721,1150,302,302,302,302,302,302,302,302,302,302,302,302,302,302,302,302,302,302,302,302,302,
302,302,302,302,302,302,302,302,302,302,1150,1150,1158,302,1158,302,302,302,302,302,302,302,302,302,302,302,302,302,302,302,302,302,302,1150,302,302,302,302,1150,1150,302,302,302,302,302,302,302,302,302,302,302,302,302,302,302,302,302,302,302,302,
302,302,302,302,302,302,302,302,302,302,302,1158,1158,302,302,302,302,302,302,302,302,302,302,302,302,302,302,302,302,302,302,302,302,1158,302,302,1741,302,302,1150,1158,302,302,302,302,302,302,302,302,302,302,302,302,302,302,302,302,302,302,302,
302,302,302,302,302,302,302,302,302,302,302,302,302,302,302,302,302,302,302,302,302,302,302,302,302,302,302,302,302,302,302,302,302,302,302,1158,302,302,302,302,302,302,302,302,302,302,302,302,302,302,302,302,302,302,302,302,302,302,302,302,
302,302,302,302,302,302,302,302,302,302,302,302,302,302,302,302,302,302,302,302,302,302,302,302,302,302,302,302,302,302,302,302,302,302,302,302,302,302,302,302,302,302,302,302,302,302,302,302,302,302,302,302,302,302,302,302,302,302,302,302
</data>
 </layer>
 <layer id="13" name="shadow_upper" width="60" height="45">
  <data encoding="csv">
0,0,0,0,0,0,0,0,0,0,0,0,0,0,0,0,0,0,0,0,0,0,0,0,0,0,0,0,0,0,0,0,0,0,0,0,0,0,0,0,0,0,0,0,0,0,0,0,0,0,0,0,0,0,0,0,0,0,0,0,
0,0,0,0,0,0,0,0,0,0,0,0,0,0,0,0,0,0,0,0,0,0,0,0,0,0,0,0,0,0,0,0,0,0,0,0,0,0,0,0,0,0,0,0,0,0,0,0,0,0,0,0,0,0,0,0,0,0,0,0,
0,0,0,0,0,0,0,0,0,0,0,0,0,0,0,0,0,0,0,0,0,0,0,0,0,0,0,0,0,0,0,0,0,0,0,0,0,0,0,0,0,0,0,0,0,0,0,0,0,0,0,0,0,0,0,0,0,0,0,0,
0,0,0,0,0,0,0,0,0,0,0,0,0,0,0,0,0,0,0,0,0,0,0,0,0,0,0,0,0,0,0,0,0,0,0,0,0,0,0,0,0,0,0,0,0,0,0,0,0,0,0,0,0,0,0,0,0,0,0,0,
0,0,0,0,0,0,0,0,0,0,0,0,0,0,0,0,0,0,0,0,0,0,0,0,0,0,0,0,0,0,0,0,0,0,0,0,0,0,0,0,0,0,0,0,0,0,0,0,0,0,0,0,0,0,0,0,0,0,0,0,
0,0,0,0,0,0,0,0,0,0,0,0,0,0,0,0,0,0,0,0,0,0,0,0,0,0,0,0,0,0,0,0,0,0,0,0,0,0,0,0,0,0,0,0,0,0,0,0,0,0,0,0,0,0,0,0,0,0,0,0,
0,0,0,0,0,0,0,0,0,0,0,0,0,0,0,0,0,0,0,0,0,0,0,0,0,0,0,0,0,0,0,0,0,0,0,0,0,0,0,0,0,0,0,0,0,0,0,0,0,0,0,0,0,0,0,0,0,0,0,0,
0,0,0,0,0,0,0,0,0,0,0,0,0,0,0,0,0,0,0,0,0,0,0,0,0,0,0,0,0,0,0,0,0,0,0,0,0,0,0,0,0,0,0,0,0,0,0,0,0,0,0,0,0,0,0,0,0,0,0,0,
0,0,0,0,0,0,0,0,0,0,0,0,0,0,0,0,0,0,0,0,0,0,0,0,0,0,0,0,0,0,0,0,0,0,0,0,0,0,0,0,0,0,0,0,0,0,0,0,0,0,0,0,0,0,0,0,0,0,0,0,
0,0,0,0,0,0,0,0,0,0,0,0,0,0,0,0,0,0,0,0,0,0,0,0,0,0,0,0,0,0,0,0,0,0,0,0,0,0,0,0,0,0,0,0,0,0,0,0,0,0,0,0,0,0,0,0,0,0,0,0,
0,0,0,0,0,0,0,0,0,0,0,0,0,0,0,0,0,0,0,0,0,0,0,0,0,0,0,0,0,0,0,0,0,0,0,0,0,0,0,0,0,0,0,0,0,0,0,0,0,0,0,0,0,0,0,0,0,0,0,0,
0,0,0,0,0,0,0,0,0,0,0,0,0,0,0,0,0,0,0,0,0,0,0,0,0,0,0,0,0,0,0,0,0,0,0,0,0,0,0,0,0,0,0,0,0,0,0,0,0,0,0,0,0,0,0,0,0,0,0,0,
0,0,0,0,0,0,0,0,0,0,0,0,0,0,0,0,0,0,0,0,0,0,0,0,0,0,0,0,0,0,0,0,0,0,0,0,0,0,0,0,0,0,0,0,0,0,0,0,0,0,0,0,0,0,0,0,0,0,0,0,
0,0,0,0,0,0,0,0,0,0,0,0,0,0,0,0,0,0,0,0,0,0,0,0,0,0,0,0,0,0,0,0,0,0,0,0,0,0,0,0,0,0,0,0,0,0,0,0,0,0,0,0,0,0,0,0,0,0,0,0,
0,0,0,0,0,0,0,0,0,0,0,0,0,0,0,0,0,0,0,0,0,0,0,0,0,0,0,0,0,0,0,0,0,0,0,0,0,0,0,0,0,0,0,0,0,0,0,0,0,0,0,0,0,0,0,0,0,0,0,0,
0,0,0,0,0,0,0,0,0,0,0,0,0,0,0,0,0,0,0,0,0,0,0,0,0,0,0,0,0,0,0,0,0,0,0,0,0,0,0,0,0,0,0,0,0,0,0,0,0,0,0,0,0,0,0,0,0,0,0,0,
0,0,0,0,0,0,0,0,0,0,0,0,0,0,0,0,0,0,0,0,0,0,0,0,0,0,0,0,0,0,0,0,0,0,0,0,0,0,0,0,0,0,0,0,0,0,0,0,0,0,0,0,0,0,0,0,0,0,0,0,
0,0,0,0,0,0,0,0,0,0,0,0,0,0,0,0,0,0,0,0,0,0,0,0,0,0,0,0,0,0,0,0,0,0,0,0,0,0,0,0,0,0,0,0,0,0,0,0,0,0,0,0,0,0,0,0,0,0,0,0,
0,0,0,0,0,0,0,0,0,0,0,0,0,0,0,0,0,0,0,0,0,0,0,0,0,0,0,0,0,0,0,0,0,0,0,0,0,0,0,0,0,0,0,0,0,0,0,0,0,0,0,0,0,0,0,0,0,0,0,0,
0,0,0,0,0,0,0,0,0,0,0,0,0,0,0,0,0,0,0,0,0,0,0,0,0,0,0,0,0,0,0,0,0,0,0,0,0,0,0,0,0,0,0,0,0,0,0,0,0,0,0,0,0,0,0,0,0,0,0,0,
0,0,0,0,0,0,0,0,0,0,0,0,0,0,0,0,0,0,0,0,0,0,0,0,0,0,0,0,0,0,0,0,0,0,0,0,0,0,0,0,0,0,0,0,0,0,0,0,0,0,0,0,0,0,0,0,0,0,0,0,
0,0,0,0,0,0,0,0,0,0,0,0,0,0,0,0,0,0,0,0,0,0,0,0,0,0,0,0,0,0,0,0,0,0,0,0,0,0,0,0,0,0,0,0,0,0,0,0,0,0,0,0,0,0,0,0,0,0,0,0,
0,0,0,0,0,0,0,0,0,0,0,0,0,0,0,0,0,0,0,0,0,0,0,0,0,0,0,0,0,0,0,0,0,0,0,0,0,0,0,0,0,0,0,0,0,0,0,0,0,0,0,0,0,0,0,0,0,0,0,0,
0,0,0,0,0,0,0,0,0,0,0,0,0,0,0,0,0,0,0,0,0,0,0,0,0,0,0,0,0,0,0,0,0,0,0,0,0,0,0,0,0,0,0,0,0,0,0,0,0,0,0,0,0,0,0,0,0,0,0,0,
0,0,0,0,0,0,0,0,0,0,0,0,0,0,0,0,0,0,0,0,0,0,0,0,0,0,0,0,0,0,0,0,0,0,0,0,0,0,0,0,0,0,0,0,0,0,0,0,0,0,0,0,0,0,0,0,0,0,0,0,
0,0,0,0,0,0,0,0,0,0,0,0,0,0,0,0,0,0,0,0,0,0,0,0,0,0,0,0,0,0,0,0,0,0,0,0,0,0,0,0,0,0,0,0,0,0,0,0,0,0,0,0,0,0,0,0,0,0,0,0,
0,0,0,0,0,0,0,0,0,0,0,0,0,0,0,0,0,0,0,0,0,0,0,0,0,0,0,0,0,0,0,0,0,0,0,0,0,0,0,0,0,0,0,0,0,0,0,0,0,0,0,0,0,0,0,0,0,0,0,0,
0,0,0,0,0,0,0,0,0,0,0,0,0,0,0,0,0,0,0,0,0,0,0,0,0,0,0,0,0,0,0,0,0,0,0,0,0,0,0,0,0,0,0,0,0,0,0,0,0,0,0,0,0,0,0,0,0,0,0,0,
0,0,0,0,0,0,0,0,0,0,0,0,0,0,0,0,0,0,0,0,0,0,0,0,0,0,0,0,0,0,0,0,0,0,0,0,0,0,0,0,0,0,0,0,0,0,0,0,0,0,0,0,0,0,0,0,0,0,0,0,
0,0,0,0,0,0,0,0,0,0,0,0,0,0,0,0,0,0,0,0,0,0,0,0,0,0,0,0,0,0,0,0,0,0,0,0,0,0,0,0,0,0,0,0,0,0,0,0,0,0,0,0,0,0,0,0,0,0,0,0,
0,0,0,0,0,0,0,0,0,0,0,0,0,0,0,0,0,0,0,0,0,0,0,0,0,0,0,0,0,0,0,0,0,0,0,0,0,0,0,0,0,0,0,0,0,0,0,0,0,0,0,0,0,0,0,0,0,0,0,0,
0,0,0,0,0,0,0,0,0,0,0,0,0,0,0,0,0,0,0,0,0,0,0,0,0,0,0,0,0,0,0,0,0,0,0,0,0,0,0,0,0,0,0,0,0,0,0,0,0,0,0,0,0,0,0,0,0,0,0,0,
0,0,0,0,0,0,0,0,0,0,0,0,0,0,0,0,0,0,0,0,0,0,0,0,0,0,0,0,0,0,0,0,0,0,0,0,0,0,0,0,0,0,0,0,0,0,0,0,0,0,0,0,0,0,0,0,0,0,0,0,
0,0,0,0,0,0,0,0,0,0,0,0,0,0,0,0,0,0,0,0,0,0,0,0,0,0,0,0,0,0,0,0,0,0,0,0,0,0,0,0,0,0,0,0,0,0,0,0,0,0,0,0,0,0,0,0,0,0,0,0,
0,0,0,0,0,0,0,0,0,0,0,0,0,0,0,0,0,0,0,0,0,0,0,0,0,0,0,0,0,0,0,0,0,0,0,0,0,0,0,0,0,0,0,0,0,0,0,0,0,0,0,0,0,0,0,0,0,0,0,0,
0,0,0,0,0,0,0,0,0,0,0,0,0,0,0,0,0,0,0,0,0,0,0,0,0,0,0,0,0,0,0,0,0,0,0,0,0,0,0,0,0,0,0,0,0,0,0,0,0,0,0,0,0,0,0,0,0,0,0,0,
0,0,0,0,0,0,0,0,0,0,0,0,0,0,0,0,0,0,0,0,0,0,0,0,0,0,0,0,0,0,0,0,0,0,0,0,0,0,0,0,0,0,0,0,0,0,0,0,0,0,0,0,0,0,0,0,0,0,0,0,
0,0,0,0,0,0,0,0,0,0,0,0,0,0,0,0,0,0,0,0,0,0,0,0,0,0,0,0,0,0,0,0,0,0,0,0,0,0,0,0,0,0,0,0,0,0,0,0,0,0,0,0,0,0,0,0,0,0,0,0,
0,0,0,0,0,0,0,0,0,0,0,0,0,0,0,0,0,0,0,0,0,0,0,0,0,0,0,0,0,0,0,0,0,0,0,0,0,0,0,0,0,0,0,0,0,0,0,0,0,0,0,0,0,0,0,0,0,0,0,0,
0,0,0,0,0,0,0,0,0,0,0,0,0,0,0,0,0,0,0,0,0,0,0,0,0,0,0,0,0,0,0,0,0,0,0,0,0,0,0,0,0,0,0,0,0,0,0,0,0,0,0,0,0,0,0,0,0,0,0,0,
0,0,0,0,0,0,0,0,0,0,0,0,0,0,0,0,0,0,0,0,0,0,0,0,0,0,0,0,0,0,0,0,0,0,0,0,0,0,0,0,0,0,0,0,0,0,0,0,0,0,0,0,0,0,0,0,0,0,0,0,
0,0,0,0,0,0,0,0,0,0,0,0,0,0,0,0,0,0,0,0,0,0,0,0,0,0,0,0,0,0,0,0,0,0,0,0,0,0,0,0,0,0,0,0,0,0,0,0,0,0,0,0,0,0,0,0,0,0,0,0,
0,0,0,0,0,0,0,0,0,0,0,0,0,0,0,0,0,0,0,0,0,0,0,0,0,0,0,0,0,0,0,0,0,0,0,0,0,0,0,0,0,0,0,0,0,0,0,0,0,0,0,0,0,0,0,0,0,0,0,0,
0,0,0,0,0,0,0,0,0,0,0,0,0,0,0,0,0,0,0,0,0,0,0,0,0,0,0,0,0,0,0,0,0,0,0,0,0,0,0,0,0,0,0,0,0,0,0,0,0,0,0,0,0,0,0,0,0,0,0,0,
0,0,0,0,0,0,0,0,0,0,0,0,0,0,0,0,0,0,0,0,0,0,0,0,0,0,0,0,0,0,0,0,0,0,0,0,0,0,0,0,0,0,0,0,0,0,0,0,0,0,0,0,0,0,0,0,0,0,0,0
</data>
 </layer>
 <layer id="14" name="object_upper" width="60" height="45">
  <data encoding="csv">
0,0,0,0,0,0,0,0,0,0,0,0,0,0,0,0,0,0,1699,1700,1701,1702,1703,0,0,0,0,0,0,1654,1655,1656,1657,1658,0,0,0,0,0,0,0,0,0,0,1597,1598,1599,1654,1655,1656,1657,1658,0,0,1629,1630,1631,1632,1633,0,
0,0,0,0,1679,1680,1681,1682,1683,0,0,0,0,0,1597,1598,1599,0,1704,1705,1706,1707,1708,1609,1610,1611,1612,1613,0,1659,1660,1661,1662,1663,1724,1725,1726,1727,1728,0,0,0,0,0,1600,1601,1602,1659,1660,1661,1662,1663,0,0,1634,1635,1636,1637,1638,0,
0,0,0,0,1684,1685,1686,1687,1688,1630,1631,1632,1633,0,1600,1601,1602,0,1709,1710,1711,1712,1713,1614,1615,1616,1617,1618,0,1664,1665,1666,1667,1668,1729,1730,1731,1732,1733,1680,1681,1682,1683,0,1603,1604,1605,1664,1665,1666,1667,1668,1701,1702,1639,1640,1641,1642,1643,0,
0,0,0,0,1689,1690,1691,1692,1693,1635,1636,1637,1638,0,1603,1604,1605,0,1714,1715,1716,1717,1718,1619,1620,1621,1622,1623,0,1669,1670,1671,1672,1673,1734,1735,1736,1737,1738,1685,1686,1687,1688,1724,1725,1726,1727,1669,1670,1671,1672,1673,1706,1707,1644,1645,1646,1647,1648,0,
1609,1610,1611,1612,1613,0,1597,1598,1639,1640,1641,1642,1643,1699,1700,1701,1679,1680,1681,1682,1683,0,0,0,0,0,0,0,0,0,0,0,0,1659,1660,1661,1662,1663,1689,1690,1691,1692,1693,1729,1730,1731,1732,1733,0,0,1709,1710,1711,1712,1713,0,0,0,0,0,
1614,1615,1616,1617,1618,0,1600,1601,1644,1645,1646,1647,1648,1704,1705,1706,1684,1685,1686,1687,1688,0,0,0,0,0,0,0,0,0,0,0,0,1664,1665,1666,1667,1668,0,0,0,0,0,1734,1735,1736,1737,1738,1632,1633,1714,1715,1716,1717,1718,0,0,0,0,0,
1619,1620,1621,1622,1623,0,1603,1604,1605,1724,1725,1726,1727,1709,1710,1711,1689,1690,1691,1692,1693,0,0,0,0,0,0,0,0,0,0,0,0,1669,1670,1671,1672,1673,0,0,0,0,0,0,0,1634,1635,1636,1637,1638,0,0,0,0,0,0,0,0,0,0,
1609,1610,1611,1612,1613,1597,1598,1599,0,1729,1730,1731,1732,1714,1715,1716,1717,1718,0,0,0,0,1157,0,0,0,0,0,0,0,0,0,0,0,0,0,0,0,0,0,0,0,0,0,0,1639,1640,1641,1642,1643,0,0,0,0,0,0,0,0,0,0,
1614,1615,1616,1617,1618,1600,1601,1602,0,1734,1735,1736,1737,1738,0,0,0,0,0,0,0,0,0,0,0,0,0,0,0,0,0,0,0,0,0,0,0,0,0,0,0,0,0,0,0,1644,1645,1646,1647,1648,1597,1598,1599,0,0,0,0,0,0,0,
1619,1620,1621,1622,1623,1603,1604,1605,0,1659,1660,1661,1662,1663,0,0,0,0,0,0,0,0,0,0,0,0,0,0,0,0,0,1157,0,0,0,0,0,0,0,0,0,1157,0,0,0,0,0,0,0,1654,1600,1601,1602,1658,0,0,0,0,0,0,
0,0,0,1679,1680,1681,1682,1683,0,1664,1665,1666,1667,1668,0,0,0,0,0,0,0,0,0,0,0,0,0,0,0,0,0,0,0,0,0,0,0,0,0,0,0,0,0,0,0,0,0,0,0,1659,1603,1604,1605,1663,0,0,0,0,0,0,
0,0,0,1684,1685,1686,1687,1688,0,1669,1670,1671,1672,1673,0,0,0,0,0,0,0,0,0,1157,0,0,0,1699,1700,1701,1702,1703,0,0,0,0,0,0,0,0,0,0,1157,0,0,0,0,0,0,1664,1665,1666,1667,1668,0,1157,0,0,0,0,
0,0,0,1689,1690,1691,1692,1693,0,0,0,0,0,0,0,0,0,0,0,0,0,0,0,0,0,0,0,1704,1705,1706,1707,1708,0,0,1629,1630,1631,1632,1633,0,0,0,0,0,0,0,0,0,1157,1669,1670,1671,1672,1673,0,0,0,0,0,0,
0,0,0,0,0,0,0,1724,1725,1726,1727,1728,0,0,0,0,0,0,0,0,0,0,0,0,0,0,0,1709,1710,1711,1712,1713,0,0,1634,1635,1636,1637,1638,0,0,0,0,0,0,0,0,0,0,0,0,0,0,0,0,0,0,0,0,0,
0,0,0,0,0,0,0,1729,1730,1731,1732,1733,0,0,0,0,0,0,0,0,1609,1610,1611,1612,1613,1656,1657,1714,1715,1716,1717,1718,1597,1598,1639,1640,1641,1642,1643,0,0,0,0,0,0,0,0,0,0,0,0,0,0,0,0,1679,1680,1681,1682,1683,
0,0,0,0,1585,1586,1587,1734,1735,1736,1737,1738,0,0,0,0,0,0,0,0,1614,1615,1616,1617,1618,1661,1662,1663,0,0,0,0,1600,1601,1644,1645,1646,1647,1648,0,0,0,0,0,0,0,0,0,0,1157,0,0,0,0,0,1684,1685,1686,1687,1688,
0,0,0,0,1588,1589,1590,0,0,0,0,0,0,0,0,0,0,0,0,0,1619,1620,1621,1622,1623,1666,1667,1668,0,0,0,0,1603,1604,1605,0,0,0,0,0,0,0,0,0,0,0,0,0,0,0,0,0,0,0,0,1689,1690,1691,1692,1693,
0,0,0,0,1591,1592,1593,0,0,0,0,0,0,0,0,0,0,1679,1680,1681,1682,1683,0,1669,1670,1671,1672,1673,1703,0,0,0,0,0,0,0,0,0,0,0,0,0,1157,0,0,0,0,0,0,0,0,0,0,0,0,0,0,0,0,0,
0,0,0,0,0,0,0,0,0,0,0,0,0,0,0,0,0,1684,1685,1686,1687,1688,0,0,1704,1705,1706,1707,1708,0,0,0,0,0,0,0,0,0,0,0,0,0,0,0,0,0,0,0,0,0,0,0,0,0,0,0,0,0,0,0,
0,0,0,0,0,0,0,0,0,0,0,0,0,0,0,0,0,1689,1690,1691,1692,1693,0,0,1709,1710,1711,1712,1713,1656,1657,1658,1157,0,0,0,0,0,0,0,0,0,0,0,0,0,0,0,0,0,1724,1725,1726,1727,1728,1630,1631,1632,1633,0,
0,0,0,0,0,0,0,0,0,0,0,0,0,0,0,0,0,0,0,0,1609,1610,1611,1612,1714,1715,1716,1717,1718,1661,1662,1663,1157,0,1597,1598,1599,0,0,0,0,0,0,0,0,0,0,0,0,0,1729,1730,1731,1732,1733,1635,1636,1637,1638,0,
0,0,0,0,0,0,0,0,0,0,0,0,0,0,0,0,0,0,0,0,1614,1615,1616,1617,1618,1701,1702,1664,1665,1666,1667,1668,0,0,1600,1601,1602,0,0,0,0,0,0,0,1679,1680,1681,1682,1683,0,1734,1735,1736,1737,1738,1640,1641,1642,1643,0,
0,0,0,0,0,0,1585,1586,1587,0,0,0,0,0,0,0,0,0,0,0,1619,1620,1621,1622,1623,1706,1707,1669,1670,1671,1672,1673,0,0,1603,1604,1605,0,0,0,0,0,0,0,1684,1685,1686,1687,1688,0,0,0,0,0,1644,1645,1646,1647,1648,0,
0,0,0,0,0,0,1588,1589,1590,0,1157,0,0,1157,0,0,0,0,0,0,0,0,0,1709,1710,1711,1712,1713,0,0,0,1724,1725,1726,1727,1728,0,0,0,0,0,0,0,0,1689,1690,1691,1692,1693,0,0,0,1585,1586,1587,0,0,0,0,0,
0,0,0,0,0,0,1591,1592,1593,1157,0,0,0,0,0,0,0,0,0,0,0,0,0,1714,1715,1716,1717,1718,0,0,0,1729,1730,1731,1732,1733,0,0,0,0,0,0,1157,0,0,0,0,0,0,0,0,0,1588,1589,1590,0,0,0,0,0,
0,0,0,0,0,0,0,0,0,0,0,0,0,0,0,0,0,0,0,0,0,0,0,0,0,0,0,0,0,0,0,1734,1735,1736,1737,1738,1632,1633,0,0,0,0,0,0,0,0,0,0,0,0,0,1609,1591,1592,1593,1613,0,0,0,0,
0,0,0,0,1597,1598,1599,0,1609,1610,1611,1612,1613,0,0,0,0,0,0,0,0,0,0,0,0,0,0,0,0,0,0,0,0,1634,1635,1636,1637,1638,0,0,0,0,0,0,0,0,0,0,0,0,0,1614,1615,1616,1617,1618,1598,1599,0,0,
0,0,0,0,1600,1601,1602,0,1614,1615,1616,1617,1618,0,0,0,0,0,0,0,0,0,0,0,0,0,0,0,0,0,0,0,0,1639,1640,1641,1642,1643,0,0,0,0,0,0,0,0,0,0,0,0,1157,1619,1620,1621,1622,1623,1601,1602,0,0,
0,0,0,0,1603,1604,1605,0,1619,1620,1621,1622,1623,0,0,0,0,0,0,0,0,0,0,0,0,0,0,0,0,0,0,0,0,1644,1645,1646,1647,1648,0,0,0,0,0,0,1654,1655,1656,1657,1658,0,0,0,0,0,1157,1603,1604,1605,0,0,
0,0,0,0,0,0,0,0,0,1679,1680,1681,1682,1683,1700,1701,1702,1703,0,0,0,0,0,0,0,0,0,0,0,0,0,0,0,0,0,0,0,0,0,0,0,0,1157,0,1659,1660,1661,1662,1663,1157,0,1585,1586,1587,0,1157,0,0,0,0,
0,0,0,0,0,0,0,0,0,1684,1685,1686,1687,1688,1705,1706,1707,1708,0,0,0,0,0,0,0,0,0,0,0,0,0,0,0,0,0,0,0,0,0,0,0,0,0,0,1664,1665,1666,1667,1668,0,0,1588,1589,1590,0,0,0,0,0,0,
0,0,0,0,0,0,0,0,0,1689,1690,1691,1692,1693,1710,1711,1712,1713,0,0,0,0,0,0,0,0,0,0,0,0,1157,0,0,0,0,0,0,0,0,0,0,0,0,0,1669,1670,1671,1672,1673,1726,1727,1591,1592,1593,1630,1631,1632,1633,0,0,
0,0,0,0,0,0,1157,0,0,0,0,0,0,1714,1715,1716,1717,1718,1658,0,0,0,0,0,0,0,0,0,0,0,0,0,0,0,0,0,0,0,0,0,0,0,0,0,0,0,0,1729,1730,1731,1732,1733,1157,1634,1635,1636,1637,1638,0,0,
0,0,0,1157,1597,1598,1599,0,0,1609,1610,1611,1612,1613,1659,1660,1661,1662,1663,0,0,1157,0,0,0,0,0,0,0,0,0,0,0,0,0,0,0,0,0,0,0,0,0,0,1679,1680,1681,1734,1735,1736,1737,1738,0,1639,1640,1641,1642,1643,0,0,
0,0,0,0,1600,1601,1602,0,0,1614,1615,1616,1617,1618,1664,1665,1666,1667,1668,0,0,0,1157,0,0,0,0,0,0,0,0,0,0,0,0,0,0,0,0,1157,0,0,0,0,1684,1685,1686,1687,1688,0,0,0,0,1644,1645,1646,1647,1648,0,0,
0,0,0,0,1603,1604,1605,0,0,1619,1620,1621,1622,1623,1669,1670,1671,1672,1673,0,0,0,0,0,0,0,0,0,0,0,0,0,0,0,0,0,0,0,0,0,0,0,0,0,1689,1690,1691,1692,1693,0,0,0,0,0,0,0,0,0,0,0,
0,0,0,0,0,0,0,0,0,0,0,0,0,0,0,0,0,0,0,0,0,0,0,0,0,0,0,0,0,0,0,0,0,0,0,1699,1700,1701,1702,1703,0,0,0,0,0,0,0,0,0,0,0,0,0,0,0,0,0,0,0,0,
0,0,0,0,0,0,0,0,0,0,1679,1680,1681,1682,1683,0,0,0,0,0,0,0,0,0,0,0,0,0,0,0,0,0,0,0,0,1704,1705,1706,1707,1708,0,0,0,0,0,0,0,0,0,0,0,0,0,0,0,0,0,0,0,0,
0,0,0,0,0,0,0,0,0,0,1684,1685,1686,1687,1688,0,0,0,0,0,0,0,0,0,0,0,0,0,0,0,0,0,0,0,0,1709,1710,1711,1712,1713,0,0,0,0,0,0,0,0,0,0,0,0,0,0,0,0,0,0,0,0,
0,0,0,0,0,0,0,0,0,0,1689,1690,1691,1692,1693,0,0,0,0,0,0,0,0,0,0,0,0,0,0,0,0,0,0,0,1724,1714,1715,1716,1717,1718,0,0,0,0,0,0,0,0,0,0,0,0,0,0,0,0,0,0,0,0,
0,0,0,0,0,0,0,0,0,0,0,0,1157,0,1157,0,0,0,0,0,0,0,0,0,0,0,0,0,0,0,0,0,0,0,1729,1730,1731,1732,1733,0,0,0,0,0,0,0,0,0,0,0,0,0,0,0,0,0,0,0,0,0,
0,0,0,0,0,0,0,0,0,0,0,1157,1157,0,0,0,0,0,0,0,0,0,0,0,0,0,0,0,0,0,0,0,0,1157,1734,1735,1736,1737,1738,0,1157,0,0,0,0,0,0,0,0,0,0,0,0,0,0,0,0,0,0,0,
0,0,0,0,0,0,0,0,0,0,0,0,0,0,0,0,0,0,0,0,0,0,0,0,0,0,0,0,0,0,0,0,0,0,0,1157,0,0,0,0,0,0,0,0,0,0,0,0,0,0,0,0,0,0,0,0,0,0,0,0,
0,0,0,0,0,0,0,0,0,0,0,0,0,0,0,0,0,0,0,0,0,0,0,0,0,0,0,0,0,0,0,0,0,0,0,0,0,0,0,0,0,0,0,0,0,0,0,0,0,0,0,0,0,0,0,0,0,0,0,0,
0,0,0,0,0,0,0,0,0,0,0,0,0,0,0,0,0,0,0,0,0,0,0,0,0,0,0,0,0,0,0,0,0,0,0,0,0,0,0,0,0,0,0,0,0,0,0,0,0,0,0,0,0,0,0,0,0,0,0,0
</data>
 </layer>
 <layer id="15" name="deco" width="60" height="45">
  <data encoding="csv">
0,0,0,0,0,0,0,0,0,0,0,0,0,0,0,0,0,0,0,0,0,0,0,0,0,0,0,0,0,0,0,0,0,0,0,0,0,0,0,0,0,0,0,0,0,0,0,0,0,0,0,0,0,0,0,0,0,0,0,0,
0,0,0,0,0,0,0,0,0,0,0,0,0,0,0,0,0,0,0,0,0,0,0,0,0,0,0,0,0,0,0,0,0,0,0,0,0,0,0,0,0,0,0,0,0,0,0,0,0,0,0,0,0,0,0,0,0,0,0,0,
0,0,0,0,0,0,0,0,1629,0,0,0,0,0,0,0,0,0,0,0,0,0,0,0,0,0,0,0,0,0,0,0,0,0,0,0,0,0,1679,0,0,0,0,0,0,0,0,0,0,0,1699,1700,0,0,1703,0,0,0,0,0,
0,0,0,0,0,0,0,0,1634,0,0,0,0,0,0,0,0,0,0,0,0,0,0,0,0,0,0,0,0,0,0,0,0,1654,1655,1656,1657,1658,1684,0,0,0,0,0,0,0,0,1728,0,0,1704,1705,0,0,1708,0,0,0,0,0,
0,0,0,0,0,0,0,0,1599,0,0,0,0,0,0,0,1702,1703,0,0,0,0,0,0,0,0,0,0,0,0,0,0,0,0,0,0,0,0,0,0,0,0,0,0,0,0,0,0,0,0,0,0,0,0,0,0,0,0,0,0,
0,0,0,0,0,0,0,0,1602,0,0,0,0,0,0,0,1707,1708,0,0,0,0,0,0,0,0,0,0,0,0,0,0,0,0,0,0,0,0,0,0,0,0,0,0,0,1629,1630,1631,0,0,0,0,0,0,0,0,0,0,0,0,
0,0,0,0,0,0,0,0,0,0,0,0,0,1728,0,0,1712,1713,0,0,0,0,0,0,0,0,0,0,0,0,0,0,0,0,0,0,0,0,0,0,0,0,0,0,0,0,0,0,0,0,0,0,0,0,0,0,0,0,0,0,
0,0,0,0,0,0,0,0,0,0,0,0,0,1733,0,0,0,0,0,0,0,0,0,0,0,0,0,0,0,0,0,0,0,0,0,0,0,0,0,0,0,0,0,0,0,0,0,0,0,0,0,0,0,0,0,0,0,0,0,0,
0,0,0,0,0,0,0,0,0,1654,1655,1656,1657,1658,0,0,0,0,0,0,0,0,0,0,0,0,0,0,0,0,0,0,0,0,0,0,0,0,0,0,0,0,0,0,0,0,0,0,0,0,0,0,0,0,0,0,0,0,0,0,
0,0,0,0,0,0,0,0,0,0,0,0,0,0,0,0,0,0,0,0,0,0,0,0,0,0,0,0,0,0,0,0,0,0,0,0,0,0,0,0,0,0,0,0,0,0,0,0,0,0,1655,1656,1657,0,0,0,0,0,0,0,
0,0,0,0,0,0,0,0,0,0,0,0,0,0,0,0,0,0,0,0,0,0,0,0,0,0,0,0,0,0,0,0,0,0,0,0,0,0,0,0,0,0,0,0,0,0,0,0,0,0,1660,1661,1662,0,0,0,0,0,0,0,
0,0,0,0,0,0,0,0,0,0,0,0,0,0,0,0,0,0,0,0,0,0,0,0,0,0,0,0,0,0,0,0,0,0,0,0,0,0,0,0,0,0,0,0,0,0,0,0,0,0,0,0,0,0,0,0,0,0,0,0,
0,0,0,0,0,0,0,0,0,0,0,0,0,0,0,0,0,0,0,0,0,0,0,0,0,0,0,0,0,0,0,0,0,0,0,0,0,0,0,0,0,0,0,0,0,0,0,0,0,0,0,0,0,0,0,0,0,0,0,0,
0,0,0,0,0,0,0,0,0,0,0,0,0,0,0,0,0,0,0,0,0,0,0,0,0,0,0,0,0,0,0,0,0,0,0,0,0,0,0,0,0,0,0,0,0,0,0,0,0,0,0,0,0,0,0,0,0,0,0,0,
0,0,0,0,0,0,0,0,0,0,0,0,0,0,0,0,0,0,0,0,0,0,0,1654,1655,0,0,1658,0,0,0,0,0,0,1599,0,0,0,0,0,0,0,0,0,0,0,0,0,0,0,0,0,0,0,0,0,0,0,0,0,
0,0,0,0,0,0,0,0,0,0,0,0,0,0,0,0,0,0,0,0,0,0,0,1659,1660,0,0,0,0,0,0,0,0,0,1602,0,0,0,0,0,0,0,0,0,0,0,0,0,0,0,0,0,0,0,0,0,0,0,0,0,
0,0,0,0,0,0,0,0,0,0,0,0,0,0,0,0,0,0,0,0,0,0,0,1664,1665,0,0,0,0,0,0,0,0,0,0,0,0,0,0,0,0,0,0,0,0,0,0,0,0,0,0,0,0,0,0,0,0,0,0,0,
0,0,0,0,0,0,0,0,0,0,0,0,0,0,0,0,0,0,0,0,0,0,0,0,1699,1700,1701,1702,0,0,0,0,0,0,0,0,0,0,0,0,0,0,0,0,0,0,0,0,0,0,0,0,0,0,0,0,0,0,0,0,
0,0,0,0,0,0,0,0,0,0,0,0,0,0,0,0,0,0,0,0,0,0,0,0,0,0,0,0,0,0,0,0,0,0,0,0,0,0,0,0,0,0,0,0,0,0,0,0,0,0,0,0,0,0,0,0,0,0,0,0,
0,0,0,0,0,0,0,0,0,0,0,0,0,0,0,0,0,0,0,0,0,0,0,0,0,0,0,1654,1655,0,0,0,0,0,0,0,0,0,0,0,0,0,0,0,0,0,0,0,0,0,0,0,0,0,1629,0,0,0,0,0,
0,0,0,0,0,0,0,0,0,0,0,0,0,0,0,0,0,0,0,0,0,0,0,0,1613,0,0,1659,1660,0,0,0,0,0,0,0,0,0,0,0,0,0,0,0,0,0,0,0,0,0,0,0,0,0,1634,0,0,0,0,0,
0,0,0,0,0,0,0,0,0,0,0,0,0,0,0,0,0,0,0,0,0,0,0,1699,1700,0,0,1703,0,0,0,0,0,0,0,0,0,0,0,0,0,0,0,0,0,0,0,0,0,0,0,0,0,0,1639,0,0,0,0,0,
0,0,0,0,0,0,0,0,0,0,0,0,0,0,0,0,0,0,0,0,0,0,0,1704,1705,0,0,1708,0,0,0,0,0,0,0,0,0,0,0,0,0,0,0,0,0,0,0,0,0,0,0,0,0,0,0,0,0,0,0,0,
0,0,0,0,0,0,0,0,0,0,0,0,0,0,0,0,0,0,0,0,0,0,0,0,0,0,0,0,0,0,0,0,0,0,0,0,0,0,0,0,0,0,0,0,0,0,0,0,0,0,0,0,0,0,0,0,0,0,0,0,
0,0,0,0,0,0,0,0,0,0,0,0,0,0,0,0,0,0,0,0,0,0,0,0,0,0,0,0,0,0,0,0,0,0,0,0,0,0,0,0,0,0,0,0,0,0,0,0,0,0,0,0,0,0,0,0,0,0,0,0,
0,0,0,0,0,0,0,0,0,0,0,0,0,0,0,0,0,0,0,0,0,0,0,0,0,0,0,0,0,0,0,0,0,1629,1630,1631,0,0,0,0,0,0,0,0,0,0,0,0,0,0,0,0,1610,1611,1612,0,0,0,0,0,
0,0,0,0,0,0,0,0,0,0,0,0,0,0,0,0,0,0,0,0,0,0,0,0,0,0,0,0,0,0,0,0,0,0,0,0,0,0,0,0,0,0,0,0,0,0,0,0,0,0,0,0,0,0,0,1597,0,0,0,0,
0,0,0,0,0,0,0,0,0,0,0,0,0,0,0,0,0,0,0,0,0,0,0,0,0,0,0,0,0,0,0,0,0,0,0,0,0,0,0,0,0,0,0,0,0,0,0,0,0,0,0,0,0,0,0,1600,0,0,0,0,
0,0,0,0,0,0,0,0,0,0,0,0,0,0,0,0,0,0,0,0,0,0,0,0,0,0,0,0,0,0,0,0,0,0,0,0,0,0,0,0,0,0,0,0,0,0,0,0,0,0,0,0,0,0,0,0,0,0,0,0,
0,0,0,0,0,0,0,0,0,0,0,0,0,1699,0,0,0,0,0,0,0,0,0,0,0,0,0,0,0,0,0,0,0,0,0,0,0,0,0,0,0,0,0,0,0,0,0,0,0,0,0,0,0,0,0,0,0,0,0,0,
0,0,0,0,0,0,0,0,0,0,0,0,0,1704,0,0,0,0,0,0,0,0,0,0,0,0,0,0,0,0,0,0,0,0,0,0,0,0,0,0,0,0,0,0,0,0,0,0,0,0,0,0,0,0,0,0,0,0,0,0,
0,0,0,0,0,0,0,0,0,0,0,0,0,1709,0,0,0,0,0,0,0,0,0,0,0,0,0,0,0,0,0,0,0,0,0,0,0,0,0,0,0,0,0,0,0,0,0,1724,1725,0,0,1728,0,1629,0,0,0,0,0,0,
0,0,0,0,0,0,0,0,0,0,0,0,0,0,1654,1655,1656,1657,0,0,0,0,0,0,0,0,0,0,0,0,0,0,0,0,0,0,0,0,0,0,0,0,0,0,0,0,0,0,0,0,0,0,0,0,0,0,0,0,0,0,
0,0,0,0,0,0,0,0,0,0,0,0,0,0,0,0,0,0,0,0,0,0,0,0,0,0,0,0,0,0,0,0,0,0,0,0,0,0,0,0,0,0,0,0,0,0,0,1682,1683,0,0,0,0,0,0,0,0,0,0,0,
0,0,0,0,0,0,0,0,0,0,0,0,0,0,0,0,0,0,0,0,0,0,0,0,0,0,0,0,0,0,0,0,0,0,0,0,0,0,0,0,0,0,0,0,0,0,0,0,0,0,0,0,0,0,0,0,0,0,0,0,
0,0,0,0,0,0,0,0,0,0,0,0,0,0,0,0,0,0,0,0,0,0,0,0,0,0,0,0,0,0,0,0,0,0,0,0,0,0,0,0,0,0,0,0,0,0,0,0,0,0,0,0,0,0,0,0,0,0,0,0,
0,0,0,0,0,0,0,0,0,0,0,0,0,0,0,0,0,0,0,0,0,0,0,0,0,0,0,0,0,0,0,0,0,0,0,0,0,0,0,0,0,0,0,0,0,0,0,0,0,0,0,0,0,0,0,0,0,0,0,0,
0,0,0,0,0,0,0,0,0,0,0,0,0,0,0,0,0,0,0,0,0,0,0,0,0,0,0,0,0,0,0,0,0,0,0,0,0,0,0,0,0,0,0,0,0,0,0,0,0,0,0,0,0,0,0,0,0,0,0,0,
0,0,0,0,0,0,0,0,0,0,0,0,0,0,0,0,0,0,0,0,0,0,0,0,0,0,0,0,0,0,0,0,0,0,0,0,0,0,0,0,0,0,0,0,0,0,0,0,0,0,0,0,0,0,0,0,0,0,0,0,
0,0,0,0,0,0,0,0,0,0,0,0,0,0,0,0,0,0,0,0,0,0,0,0,0,0,0,0,0,0,0,0,0,0,0,1725,1726,1727,1728,0,0,0,0,0,0,0,0,0,0,0,0,0,0,0,0,0,0,0,0,0,
0,0,0,0,0,0,0,0,0,0,0,0,0,0,0,0,0,0,0,0,0,0,0,0,0,0,0,0,0,0,0,0,0,0,0,0,0,0,0,0,0,0,0,0,0,0,0,0,0,0,0,0,0,0,0,0,0,0,0,0,
0,0,0,0,0,0,0,0,0,0,0,0,0,0,0,0,0,0,0,0,0,0,0,0,0,0,0,0,0,0,0,0,0,0,0,0,0,0,0,0,0,0,0,0,0,0,0,0,0,0,0,0,0,0,0,0,0,0,0,0,
0,0,0,0,0,0,0,0,0,0,0,0,0,0,0,0,0,0,0,0,0,0,0,0,0,0,0,0,0,0,0,0,0,0,0,0,0,0,0,0,0,0,0,0,0,0,0,0,0,0,0,0,0,0,0,0,0,0,0,0,
0,0,0,0,0,0,0,0,0,0,0,0,0,0,0,0,0,0,0,0,0,0,0,0,0,0,0,0,0,0,0,0,0,0,0,0,0,0,0,0,0,0,0,0,0,0,0,0,0,0,0,0,0,0,0,0,0,0,0,0,
0,0,0,0,0,0,0,0,0,0,0,0,0,0,0,0,0,0,0,0,0,0,0,0,0,0,0,0,0,0,0,0,0,0,0,0,0,0,0,0,0,0,0,0,0,0,0,0,0,0,0,0,0,0,0,0,0,0,0,0
</data>
 </layer>
 <layer id="16" name="roof" width="60" height="45">
  <data encoding="csv">
0,0,0,0,0,0,0,0,0,0,0,0,0,0,0,0,0,0,0,0,0,0,0,0,0,0,0,0,0,0,0,0,0,0,0,0,0,0,0,0,0,0,0,1789,1787,1786,1787,1786,1788,1786,1786,1786,1788,1787,1788,1786,1788,1787,1788,1787,
0,0,0,0,0,0,0,0,0,0,0,0,0,0,0,0,0,0,0,0,0,0,0,0,0,0,0,0,0,0,0,0,0,0,0,0,0,0,0,0,0,0,0,1789,1788,1786,1786,1788,1788,1786,1788,1786,1788,1786,1788,1786,1786,1788,1787,1786,
0,0,0,0,0,0,0,0,0,0,0,0,0,0,0,0,0,0,0,0,0,0,0,0,0,0,0,0,0,0,0,0,0,0,0,0,0,0,0,0,0,0,0,1789,1787,1788,1786,1788,1787,1787,1787,1788,1786,1787,1787,1786,1788,1787,1786,1786,
0,0,0,0,0,0,0,0,0,0,0,0,0,0,0,0,0,0,0,0,0,0,0,0,0,0,0,0,0,0,0,0,0,0,0,0,0,0,0,0,0,0,0,1789,1787,1786,1787,1788,1787,1786,1787,1788,1788,1787,1788,1787,1788,1787,1788,1787,
0,0,0,0,0,0,0,0,0,0,0,0,0,0,0,0,0,0,0,0,0,0,0,0,0,0,0,0,0,0,0,0,0,0,0,0,0,0,0,0,0,0,0,1789,1787,1786,1787,1786,1788,1786,1786,1786,1788,1788,1788,1787,1786,1787,1788,1787,
0,0,0,0,0,0,0,0,0,0,0,0,0,0,0,0,0,0,0,0,0,0,0,0,0,0,0,0,0,0,0,0,0,0,0,0,0,0,0,0,0,0,0,1789,1787,1788,1786,1788,1787,1786,1787,1788,1788,1786,1788,1786,1786,1787,1786,1786,
0,0,0,0,0,0,0,0,0,0,0,0,0,0,0,0,0,0,0,0,0,0,0,0,0,0,0,0,0,0,0,0,0,0,0,0,0,0,0,0,0,0,0,1789,1787,1786,1786,1788,1787,1786,1787,1788,1786,1787,1788,1786,1788,1788,1786,1787,
0,0,0,0,0,0,0,0,0,0,0,0,0,0,0,0,0,0,0,0,0,0,0,0,0,0,0,0,0,0,0,0,0,0,0,0,0,0,0,0,0,0,0,1789,1787,1786,1786,1788,1788,1788,1787,1788,1788,1787,1787,1787,1788,1787,1788,1787,
0,0,0,0,0,0,0,0,0,0,0,0,0,0,0,0,0,0,0,0,0,0,0,0,0,0,0,0,0,0,0,0,0,0,0,0,0,0,0,0,0,0,0,1789,1788,1788,1787,1788,1787,1787,1787,1786,1786,1786,1787,1786,1788,1788,1786,1787,
0,0,0,0,0,0,0,0,0,0,0,0,0,0,0,0,0,0,0,0,0,0,0,0,0,0,0,0,0,0,0,0,0,0,0,0,0,0,0,0,0,0,0,1789,1787,1786,1787,1786,1787,1786,1787,1788,1788,1787,1787,1787,1788,1787,1788,1787,
0,0,0,0,0,0,0,0,0,0,0,0,0,0,0,0,0,0,0,0,0,0,0,0,0,0,0,0,0,0,0,0,0,0,0,0,0,0,0,0,0,0,0,1789,1787,1786,1787,1786,1788,1786,1786,1788,1788,1787,1788,1787,1786,1787,1788,1787,
0,0,0,0,0,0,0,0,0,0,0,0,0,0,0,0,0,0,0,0,0,0,0,0,0,0,0,0,0,0,0,0,0,0,0,0,0,0,0,0,0,0,0,1789,1786,1788,1786,1788,1788,1787,1788,1786,1786,1786,1788,1786,1786,1788,1788,1786,
0,0,0,0,0,0,0,0,0,0,0,0,0,0,0,0,0,0,0,0,0,0,0,0,0,0,0,0,0,0,0,0,0,0,0,0,0,0,0,0,0,0,0,1789,1786,1786,1786,1788,1787,1787,1787,1788,1786,1787,1788,1786,1788,1788,1786,1787,
0,0,0,0,0,0,0,0,0,0,0,0,0,0,0,0,0,0,0,0,0,0,0,0,0,0,0,0,0,0,0,0,0,0,0,0,0,0,0,0,0,0,0,1789,1787,1786,1787,1786,1787,1788,1786,1788,1788,1787,1787,1787,1786,1788,1788,1787,
0,0,0,0,0,0,0,0,0,0,0,0,0,0,0,0,0,0,0,0,0,0,0,0,0,0,0,0,0,0,0,0,0,0,0,0,0,0,0,0,0,0,0,1789,1787,1788,1787,1786,1788,1786,1786,1786,1788,1788,1787,1787,1786,1787,1788,1787,
0,0,0,0,0,0,0,0,0,0,0,0,0,0,0,0,0,0,0,0,0,0,0,0,0,0,0,0,0,0,0,0,0,0,0,0,0,0,0,0,0,0,0,1789,1787,1788,1786,1788,1787,1786,1787,1786,1788,1786,1788,1787,1788,1787,1787,1786,
0,0,0,0,0,0,0,0,0,0,0,0,0,0,0,0,0,0,0,0,0,0,0,0,0,0,0,0,0,0,0,0,0,0,0,0,0,0,0,0,0,0,0,1789,1786,1786,1787,1788,1788,1786,1787,1788,1788,1786,1788,1786,1786,1788,1787,1787,
0,0,0,0,0,0,0,0,0,0,0,0,0,0,0,0,0,0,0,0,0,0,0,0,0,0,0,0,0,0,0,0,0,0,0,0,0,0,0,0,0,0,0,1789,1787,1788,1787,1788,1787,1787,1786,1786,1786,1787,1787,1787,1786,1788,1786,1787,
0,0,0,0,0,0,0,0,0,0,0,0,0,0,0,0,0,0,0,0,0,0,0,0,0,0,0,0,0,0,0,0,0,0,0,0,0,0,0,0,0,0,0,1789,1787,1786,1786,1788,1787,1786,1786,1786,1788,1787,1787,1787,1788,1787,1788,1787,
0,0,0,0,0,0,0,0,0,0,0,0,0,0,0,0,0,0,0,0,0,0,0,0,0,0,0,0,0,0,0,0,0,0,0,0,0,0,0,0,0,0,0,1789,1787,1786,1786,1786,1788,1786,1787,1788,1788,1788,1788,1787,1786,1787,1788,1787,
0,0,0,0,0,0,0,0,0,0,0,0,0,0,0,0,0,0,0,0,0,0,0,0,0,0,0,0,0,0,0,0,0,0,0,0,0,0,0,0,0,0,0,1789,1787,1788,1787,1786,1787,1786,1787,1786,1788,1786,1788,1786,1786,1787,1786,1786,
0,0,0,0,0,0,0,0,0,0,0,0,0,0,0,0,0,0,0,0,0,0,0,0,0,0,0,0,0,0,0,0,0,0,0,0,0,0,0,0,0,0,0,1789,1788,1788,1787,1788,1787,1786,1786,1786,1788,1787,1787,1786,1788,1788,1788,1787,
0,0,0,0,0,0,0,0,0,0,0,0,0,0,0,0,0,0,0,0,0,0,0,0,0,0,0,0,0,0,0,0,0,0,0,0,0,0,0,0,0,0,0,1789,1787,1786,1787,1788,1788,1787,1788,1786,1788,1787,1787,1787,1788,1787,1788,1787,
0,0,0,0,0,0,0,0,0,0,0,0,0,0,0,0,0,0,0,0,0,0,0,0,0,0,0,0,0,0,0,0,0,0,0,0,0,0,0,0,0,0,0,1789,1787,1786,1786,1786,1788,1786,1787,1788,1788,1786,1788,1787,1786,1787,1788,1787,
0,0,0,0,0,0,0,0,0,0,0,0,0,0,0,0,0,0,0,0,0,0,0,0,0,0,0,0,0,0,0,0,0,0,0,0,0,0,0,0,0,0,0,1789,1787,1786,1786,1786,1787,1786,1787,1786,1788,1787,1787,1787,1788,1787,1788,1787,
0,0,0,0,0,0,0,0,0,0,0,0,0,0,0,0,0,0,0,0,0,0,0,0,0,0,0,0,0,0,0,0,0,0,0,0,0,0,0,0,0,0,0,1789,1787,1786,1787,1788,1787,1786,1787,1788,1788,1787,1788,1787,1786,1787,1788,1787,
0,0,0,0,0,0,0,0,0,0,0,0,0,0,0,0,0,0,0,0,0,0,0,0,0,0,0,0,0,0,0,0,0,0,0,0,0,0,0,0,0,0,0,1789,1786,1788,1787,1788,1788,1787,1787,1788,1786,1788,1788,1786,1786,1788,1788,1786,
0,0,0,0,0,0,0,0,0,0,0,0,0,0,0,0,0,0,0,0,0,0,0,0,0,0,0,0,0,0,0,0,0,0,0,0,0,0,0,0,0,0,0,1789,1787,1786,1786,1788,1787,1788,1786,1786,1788,1787,1787,1786,1788,1788,1787,1787,
0,0,0,0,0,0,0,0,0,0,0,0,0,0,0,0,0,0,0,0,0,0,0,0,0,0,0,0,0,0,0,0,0,0,0,0,0,0,0,0,0,0,0,1789,1787,1786,1786,1788,1787,1788,1787,1786,1788,1787,1787,1786,1788,1788,1788,1787,
0,0,0,0,0,0,0,0,0,0,0,0,0,0,0,0,0,0,0,0,0,0,0,0,0,0,0,0,0,0,0,0,0,0,0,0,0,0,0,0,0,0,0,1789,1787,1786,1786,1786,1788,1786,1787,1788,1788,1787,1788,1787,1786,1787,1788,1786,
0,0,0,0,0,0,0,0,0,0,0,0,0,0,0,0,0,0,0,0,0,0,0,0,0,0,0,0,0,0,0,0,0,0,0,0,0,0,0,0,0,0,0,1789,1787,1788,1787,1788,1787,1786,1787,1788,1788,1786,1788,1787,1788,1787,1788,1786,
0,0,0,0,0,0,0,0,0,0,0,0,0,0,0,0,0,0,0,0,0,0,0,0,0,0,0,0,0,0,0,0,0,0,0,0,0,0,0,0,0,0,0,1789,1788,1786,1787,1788,1787,1787,1788,1786,1786,1787,1788,1786,1788,1788,1786,1787,
0,0,0,0,0,0,0,0,0,0,0,0,0,0,0,0,0,0,0,0,0,0,0,0,0,0,0,0,0,0,0,0,0,0,0,0,0,0,0,0,0,0,0,1789,1787,1788,1786,1788,1787,1787,1787,1788,1786,1787,1787,1787,1786,1788,1786,1786,
0,0,0,0,0,0,0,0,0,0,0,0,0,0,0,0,0,0,0,0,0,0,0,0,0,0,0,0,0,0,0,0,0,0,0,0,0,0,0,0,0,0,0,1789,1787,1786,1787,1786,1787,1788,1787,1786,1788,1787,1788,1787,1788,1787,1788,1787,
0,0,0,0,0,0,0,0,0,0,0,0,0,0,0,0,0,0,0,0,0,0,0,0,0,0,0,0,0,0,0,0,0,0,0,0,0,0,0,0,0,0,0,1789,1787,1786,1787,1786,1788,1786,1787,1786,1788,1787,1788,1787,1786,1787,1788,1787,
0,0,0,0,0,0,0,0,0,0,0,0,0,0,0,0,0,0,0,0,0,0,0,0,0,0,0,0,0,0,0,0,0,0,0,0,0,0,0,0,0,0,0,1789,1788,1788,1786,1788,1787,1786,1786,1786,1788,1786,1788,1786,1786,1788,1788,1787,
0,0,0,0,0,0,0,0,0,0,0,0,0,0,0,0,0,0,0,0,0,0,0,0,0,0,0,0,0,0,0,0,0,0,0,0,0,0,0,0,0,0,0,1789,1788,1788,1786,1788,1787,1786,1787,1788,1788,1787,1787,1786,1788,1788,1788,1787,
0,0,0,0,0,0,0,0,0,0,0,0,0,0,0,0,0,0,0,0,0,0,0,0,0,0,0,0,0,0,0,0,0,0,0,0,0,0,0,0,0,0,0,1789,1787,1786,1787,1788,1788,1787,1787,1786,1786,1787,1787,1787,1788,1787,1788,1787,
0,0,0,0,0,0,0,0,0,0,0,0,0,0,0,0,0,0,0,0,0,0,0,0,0,0,0,0,0,0,0,0,0,0,0,0,0,0,0,0,0,0,0,1789,1787,1786,1787,1786,1788,1786,1786,1786,1788,1786,1788,1787,1786,1787,1788,1787,
0,0,0,0,0,0,0,0,0,0,0,0,0,0,0,0,0,0,0,0,0,0,0,0,0,0,0,0,0,0,0,0,0,0,0,0,0,0,0,0,0,0,0,1789,1786,1788,1787,1786,1787,1786,1787,1786,1788,1787,1788,1786,1786,1788,1786,1786,
0,0,0,0,0,0,0,0,0,0,0,0,0,0,0,0,0,0,0,0,0,0,0,0,0,0,0,0,0,0,0,0,0,0,0,0,0,0,0,0,0,0,0,1789,1787,1786,1786,1788,1787,1786,1786,1786,1788,1787,1788,1787,1786,1787,1788,1787,
0,0,0,0,0,0,0,0,0,0,0,0,0,0,0,0,0,0,0,0,0,0,0,0,0,0,0,0,0,0,0,0,0,0,0,0,0,0,0,0,0,0,0,1789,1786,1788,1786,1788,1788,1786,1787,1786,1786,1788,1788,1786,1786,1787,1788,1786,
0,0,0,0,0,0,0,0,0,0,0,0,0,0,0,0,0,0,0,0,0,0,0,0,0,0,0,0,0,0,0,0,0,0,0,0,0,0,0,0,0,0,0,1789,1787,1788,1786,1788,1787,1788,1787,1786,1788,1786,1788,1786,1788,1788,1787,1787,
0,0,0,0,0,0,0,0,0,0,0,0,0,0,0,0,0,0,0,0,0,0,0,0,0,0,0,0,0,0,0,0,0,0,0,0,0,0,0,0,0,0,0,1789,1787,1786,1787,1786,1787,1786,1787,1788,1788,1787,1787,1787,1788,1787,1786,1787,
0,0,0,0,0,0,0,0,0,0,0,0,0,0,0,0,0,0,0,0,0,0,0,0,0,0,0,0,0,0,0,0,0,0,0,0,0,0,0,0,0,0,0,1789,1787,1786,1787,1786,1788,1786,1788,1786,1788,1787,1788,1787,1786,1787,1788,1786
</data>
 </layer>
 <objectgroup id="2" name="characters">
  <!-- 사냥꾼 흔적(hunter_trace, q018 조사 목표), 독안개 장막(fog_wall, c2-04 까지 닫힘) / 늪개구리 전사 6(Lv20~21), 늪뱀 3, 식인 꽃 3 -->
  <object id="20" name="늪개구리 전사-1" type="character" x="752" y="1024" width="32" height="32">
   <properties>
    <property name="blocksMovement" type="bool" value="true"/>
    <property name="monster.level" type="int" value="21"/>
    <property name="type" value="monster_frog"/>
   </properties>
  </object>
  <object id="21" name="늪개구리 전사-2" type="character" x="880" y="1088" width="32" height="32">
   <properties>
    <property name="blocksMovement" type="bool" value="true"/>
    <property name="monster.level" type="int" value="21"/>
    <property name="type" value="monster_frog"/>
   </properties>
  </object>
  <object id="22" name="늪개구리 전사-3" type="character" x="816" y="992" width="32" height="32">
   <properties>
    <property name="blocksMovement" type="bool" value="true"/>
    <property name="monster.level" type="int" value="20"/>
    <property name="type" value="monster_frog"/>
   </properties>
  </object>
  <object id="23" name="늪개구리 전사-4" type="character" x="912" y="1024" width="32" height="32">
   <properties>
    <property name="blocksMovement" type="bool" value="true"/>
    <property name="monster.level" type="int" value="20"/>
    <property name="type" value="monster_frog"/>
   </properties>
  </object>
  <object id="24" name="늪개구리 전사-5" type="character" x="560" y="480" width="32" height="32">
   <properties>
    <property name="blocksMovement" type="bool" value="true"/>
    <property name="monster.level" type="int" value="20"/>
    <property name="type" value="monster_frog"/>
   </properties>
  </object>
  <object id="25" name="늪개구리 전사-6" type="character" x="1296" y="544" width="32" height="32">
   <properties>
    <property name="blocksMovement" type="bool" value="true"/>
    <property name="monster.level" type="int" value="20"/>
    <property name="type" value="monster_frog"/>
   </properties>
  </object>
  <object id="26" name="늪뱀-1" type="character" x="464" y="896" width="32" height="32">
   <properties>
    <property name="blocksMovement" type="bool" value="true"/>
    <property name="monster.level" type="int" value="19"/>
    <property name="type" value="monster_snake"/>
   </properties>
  </object>
  <object id="27" name="늪뱀-2" type="character" x="1328" y="896" width="32" height="32">
   <properties>
    <property name="blocksMovement" type="bool" value="true"/>
    <property name="monster.level" type="int" value="19"/>
    <property name="type" value="monster_snake"/>
   </properties>
  </object>
  <object id="28" name="늪뱀-3" type="character" x="464" y="576" width="32" height="32">
   <properties>
    <property name="blocksMovement" type="bool" value="true"/>
    <property name="monster.level" type="int" value="19"/>
    <property name="type" value="monster_snake"/>
   </properties>
  </object>
  <object id="29" name="식인 꽃-1" type="character" x="656" y="416" width="32" height="32">
   <properties>
    <property name="blocksMovement" type="bool" value="true"/>
    <property name="monster.level" type="int" value="20"/>
    <property name="type" value="monster_flower"/>
   </properties>
  </object>
  <object id="30" name="식인 꽃-2" type="character" x="1296" y="1088" width="32" height="32">
   <properties>
    <property name="blocksMovement" type="bool" value="true"/>
    <property name="monster.level" type="int" value="20"/>
    <property name="type" value="monster_flower"/>
   </properties>
  </object>
  <object id="31" name="식인 꽃-3" type="character" x="944" y="256" width="32" height="32">
   <properties>
    <property name="blocksMovement" type="bool" value="true"/>
    <property name="monster.level" type="int" value="20"/>
    <property name="type" value="monster_flower"/>
   </properties>
  </object>
  <object id="1" name="hunter_trace" type="character" x="816" y="352" width="32" height="32">
   <properties>
    <property name="blocksMovement" type="bool" value="true"/>
    <property name="controller.dialogueLines" type="list">
     <item value="버려진 사냥꾼 야영지다. 모닥불은 오래전에 꺼졌다."/>
    </property>
    <property name="controller.scriptId" value="vn-dialogue"/>
    <property name="displayText" value="사냥꾼의 짐"/>
    <property name="type" value="cave_prop_crate_bones"/>
   </properties>
  </object>
  <object id="2" name="forest_entrance_sign" type="character" x="144" y="672" width="32" height="32">
   <properties>
    <property name="type" value="sign_inn"/>
    <property name="blocksMovement" type="bool" value="false"/>
    <property name="displayText" value="갈대골 ←"/>
   </properties>
  </object>
  <object id="4" name="fog_wall_0" type="character" x="1392" y="672" width="32" height="32">
   <properties>
    <property name="blocksMovement" type="bool" value="true"/>
    <property name="controller.dialogueLines" type="list">
     <item value="독안개가 벽처럼 짙게 깔려 있다."/>
     <item value="한 걸음만 들어서도 숨이 막혀 온다. 이대로는 지나갈 수 없다."/>
    </property>
    <property name="controller.scriptId" value="vn-dialogue"/>
    <property name="type" value="swamp_fog_wall"/>
   </properties>
  </object>
  <object id="5" name="fog_wall_1" type="character" x="1392" y="704" width="32" height="32">
   <properties>
    <property name="blocksMovement" type="bool" value="true"/>
    <property name="controller.dialogueLines" type="list">
     <item value="독안개가 벽처럼 짙게 깔려 있다."/>
     <item value="한 걸음만 들어서도 숨이 막혀 온다. 이대로는 지나갈 수 없다."/>
    </property>
    <property name="controller.scriptId" value="vn-dialogue"/>
    <property name="type" value="swamp_fog_wall"/>
   </properties>
  </object>
  <object id="6" name="fog_wall_2" type="character" x="1392" y="736" width="32" height="32">
   <properties>
    <property name="blocksMovement" type="bool" value="true"/>
    <property name="controller.dialogueLines" type="list">
     <item value="독안개가 벽처럼 짙게 깔려 있다."/>
     <item value="한 걸음만 들어서도 숨이 막혀 온다. 이대로는 지나갈 수 없다."/>
    </property>
    <property name="controller.scriptId" value="vn-dialogue"/>
    <property name="type" value="swamp_fog_wall"/>
   </properties>
  </object>
 </objectgroup>
 <objectgroup id="3" name="portals">
  <!-- 서쪽 끝 → 갈대골 문 안쪽 (41, 26). 갈대골 쪽 포탈(forest_gate)은 이 맵의 도착 칸 (2, 22) 을 들고 있다. -->
  <object id="10" name="reed_gate" type="portal" x="0" y="672" width="32" height="96">
   <properties>
    <property name="appearanceType" value="swamp_deck_v"/>
    <property name="targetFacing" value="left"/>
    <property name="targetSceneId" value="reed-village"/>
    <property name="targetSpawnTileX" type="int" value="41"/>
    <property name="targetSpawnTileY" type="int" value="26"/>
   </properties>
  </object>
 </objectgroup>
</map>
