<?xml version="1.0" encoding="UTF-8"?>
<map version="1.10" tiledversion="1.12.1" orientation="orthogonal" renderorder="right-down" width="40" height="40" tilewidth="32" tileheight="32" infinite="0" nextlayerid="17" nextobjectid="27" backgroundcolor="#1b1b1b">
 <tileset firstgid="1" source="../tilesets/town-32.tsx"/>
 <layer id="10" name="ground" width="40" height="40">
  <data encoding="csv">
662,660,663,662,663,660,660,660,660,660,660,660,660,662,662,660,660,660,660,662,660,660,660,660,660,660,660,660,660,660,660,660,660,662,660,663,660,660,660,660,
660,660,660,670,666,666,666,666,666,666,666,666,666,666,666,666,666,666,666,666,666,666,666,666,666,666,666,666,666,666,674,663,660,660,660,660,660,660,660,663,
660,660,660,668,867,871,871,871,871,871,871,871,871,871,871,871,871,871,871,871,871,871,871,871,871,871,871,871,871,863,673,663,670,666,666,666,674,660,660,660,
663,663,660,668,869,622,622,620,620,620,1021,1025,1025,1017,620,620,620,620,620,620,620,620,620,620,620,1021,1025,1025,1017,864,673,660,668,603,601,601,673,660,660,660,
660,660,660,668,869,620,620,620,620,1021,1027,647,649,1026,1017,620,620,620,622,620,620,620,620,620,1021,1027,647,647,1018,864,673,663,668,601,601,601,673,660,660,660,
663,660,662,668,869,620,620,620,620,1015,1024,647,647,1020,1014,620,620,620,622,620,620,620,620,620,1015,1024,650,647,1018,864,673,660,668,601,603,601,673,660,660,662,
660,663,660,668,869,620,620,620,620,620,1015,1016,1016,1014,620,620,622,620,620,620,620,620,620,620,620,1015,1016,1016,1014,864,673,660,668,601,601,601,673,660,660,660,
660,660,660,668,861,862,862,862,862,862,862,862,862,862,862,862,862,862,870,622,866,862,862,862,862,862,862,862,862,860,673,660,668,601,603,604,673,660,663,660,
660,662,660,676,675,675,675,675,675,675,675,675,675,675,675,675,675,667,861,862,860,671,675,675,675,675,675,675,675,675,677,660,668,601,601,601,673,660,660,660,
660,660,660,660,660,660,660,663,660,660,662,663,660,660,660,663,660,676,667,601,671,677,660,660,660,662,660,660,660,663,660,660,676,667,601,671,677,660,660,663,
660,663,662,660,660,660,660,660,660,660,660,660,660,660,663,660,660,660,668,601,673,660,660,663,660,660,662,663,660,660,660,660,660,668,601,673,662,660,660,660,
660,660,660,660,662,660,660,660,660,660,660,660,663,660,660,660,660,670,664,601,665,674,660,660,663,660,660,660,660,660,662,660,670,664,601,673,660,660,660,660,
660,660,660,660,660,660,660,660,660,670,666,666,666,666,666,666,666,664,604,601,601,665,666,666,666,666,666,666,666,666,666,666,664,604,601,673,660,660,663,663,
660,660,660,670,666,666,666,666,666,664,867,871,871,863,601,604,601,601,601,601,601,601,601,601,601,601,601,601,601,603,601,601,603,601,601,673,660,660,660,660,
660,662,660,668,867,871,871,871,871,871,873,620,622,864,601,601,601,601,601,604,601,601,603,601,601,603,601,601,603,601,604,604,601,601,604,673,660,660,660,660,
660,660,660,668,869,620,620,620,620,620,620,620,620,864,601,601,601,601,604,601,601,604,601,601,601,601,601,604,601,601,601,601,603,601,601,673,660,660,660,660,
660,660,663,668,869,620,620,620,620,620,620,620,866,860,601,601,601,601,603,601,604,601,601,603,601,601,601,601,601,604,601,604,601,601,604,673,660,660,663,660,
660,660,660,668,869,620,620,620,620,620,620,866,860,671,675,675,675,675,667,601,604,604,671,675,675,667,601,604,601,601,604,601,603,601,601,673,662,662,660,660,
660,663,660,668,869,620,620,620,620,620,620,864,671,677,660,660,660,663,676,667,601,671,677,662,660,676,667,601,881,885,885,885,885,877,601,673,660,660,660,660,
660,660,660,668,869,622,620,620,620,620,620,864,673,660,662,660,660,660,660,668,603,673,662,660,660,660,668,881,887,1007,1003,639,639,886,877,673,662,660,660,660,
660,660,660,668,869,620,620,620,620,620,620,864,673,660,660,660,660,660,660,668,601,673,660,660,660,660,668,883,1007,1013,1012,1003,641,639,878,673,660,660,660,660,
660,660,662,668,869,620,620,620,620,620,620,864,673,660,660,663,660,662,660,668,601,673,660,660,660,660,668,883,1009,643,645,1004,641,639,878,673,660,663,660,660,
663,660,660,668,869,620,620,620,620,620,622,864,673,660,660,660,660,660,660,668,604,673,660,660,663,660,668,883,1001,1010,1006,1000,639,639,878,673,660,660,660,660,
660,660,660,668,869,620,620,620,620,622,620,864,673,660,663,663,660,660,660,668,603,673,662,660,660,660,668,875,884,1001,1000,639,639,880,874,673,660,663,660,662,
660,660,660,668,869,620,620,620,620,620,620,864,673,660,660,660,663,660,660,668,601,673,660,660,663,660,668,601,875,876,876,876,876,874,604,673,660,660,660,663,
660,663,662,668,869,620,620,620,620,620,620,864,673,660,660,660,660,660,660,668,601,673,660,660,663,660,668,604,603,601,601,601,601,601,601,673,660,660,660,660,
660,660,660,668,869,620,620,620,620,620,620,864,673,660,660,660,660,662,660,668,601,673,663,660,660,663,668,601,604,601,601,601,601,601,601,673,660,660,660,660,
660,660,660,668,869,620,866,862,862,862,862,860,673,660,660,660,660,660,660,668,604,673,660,660,660,660,668,601,601,601,601,601,601,604,601,673,660,660,660,662,
660,663,660,668,861,862,860,671,675,675,675,675,677,660,660,660,660,660,660,668,601,673,660,660,660,660,668,601,601,601,601,601,601,601,603,673,660,660,660,660,
660,662,662,676,667,601,671,677,660,660,660,662,660,660,660,660,660,663,660,668,603,673,660,662,660,660,668,604,601,601,601,601,671,675,675,677,660,660,660,660,
660,660,660,670,664,601,665,674,660,660,660,660,662,660,660,660,660,663,670,664,601,665,674,660,660,660,668,601,601,601,601,671,677,660,660,660,660,660,660,662,
660,660,660,668,601,601,601,665,666,666,666,666,666,666,666,666,666,666,664,601,601,604,665,666,666,666,664,603,601,601,603,673,660,660,660,660,660,663,660,663,
660,660,660,668,603,604,601,601,601,601,603,601,601,601,601,601,601,601,601,601,601,601,601,601,601,601,601,601,601,601,601,673,660,660,660,660,660,662,660,660,
660,660,660,676,675,675,675,675,675,675,675,675,675,675,675,675,675,675,675,675,675,675,675,675,675,675,667,603,601,601,603,673,660,660,662,660,662,660,660,660,
660,660,660,663,660,663,663,662,660,660,660,660,660,662,660,660,660,662,660,660,660,660,660,662,660,662,676,667,601,601,603,673,660,660,660,660,660,663,660,660,
660,660,663,660,662,660,663,663,660,660,660,660,660,660,660,660,663,660,660,660,660,660,660,660,662,660,660,668,601,603,601,673,663,660,660,660,660,660,660,663,
663,660,660,660,660,660,660,660,660,660,660,660,660,660,660,660,660,660,660,663,660,660,660,660,660,660,663,676,667,601,671,677,660,662,660,660,660,662,660,660,
663,660,663,660,660,660,660,660,660,663,663,660,660,660,660,662,660,660,662,660,660,660,660,663,660,660,660,660,676,675,677,660,662,660,660,660,660,660,660,660,
660,660,660,663,660,660,663,660,660,660,660,662,660,660,662,660,663,660,660,660,660,662,660,663,660,660,660,660,660,660,660,660,660,660,660,660,660,660,660,663,
660,662,663,660,660,660,660,663,660,660,663,660,663,660,660,660,660,663,660,660,662,663,660,660,660,663,660,660,660,662,660,660,660,660,660,660,660,660,660,663
</data>
 </layer>
 <layer id="11" name="shadow_lower" width="40" height="40">
  <data encoding="csv">
0,0,0,0,0,0,0,0,0,0,0,0,0,0,0,0,0,0,0,0,0,0,0,0,0,0,0,0,0,0,0,0,0,0,0,0,0,0,0,0,
0,0,0,1145,1143,1143,1143,1143,1143,1143,1143,1143,1143,1143,1143,1143,1143,1143,1143,1143,1143,1143,1143,1143,1143,1143,1143,1143,1143,1143,1146,0,0,0,0,0,0,0,0,0,
0,0,0,1144,0,0,0,0,0,0,0,0,0,0,0,0,1109,0,0,0,0,0,1112,0,0,0,0,0,0,0,0,0,1145,1143,1143,1143,1146,0,0,0,
0,0,0,1144,0,0,0,1120,0,0,0,0,0,0,0,0,1111,1110,0,0,0,1111,1109,0,0,0,1122,0,0,0,0,0,1144,0,0,0,0,0,0,0,
0,0,0,1144,0,0,0,0,0,0,0,0,0,0,0,0,0,0,0,0,0,0,0,0,0,0,0,0,0,0,0,0,1144,0,0,0,0,0,0,0,
0,0,0,1144,0,0,0,0,0,0,0,0,0,0,0,0,0,0,0,0,0,0,1120,0,0,0,0,0,0,1122,0,0,1144,0,0,0,0,0,0,0,
0,0,0,1144,0,0,0,0,0,0,0,1122,0,0,0,0,0,0,0,0,0,0,0,0,0,0,0,0,0,0,1122,0,1144,0,0,0,0,0,0,0,
0,0,0,1144,0,0,0,0,0,0,0,0,0,0,0,0,0,0,0,0,0,1122,0,0,0,0,0,0,1120,1120,0,0,1144,1120,0,0,0,0,0,0,
0,0,0,1144,0,0,0,0,0,0,0,0,0,0,0,0,0,0,0,1112,0,0,0,0,0,0,0,0,0,0,0,0,1144,0,0,0,0,0,0,0,
0,0,0,0,0,0,0,0,0,0,0,0,0,0,0,0,0,0,1144,0,0,0,0,0,0,0,0,0,0,0,0,0,0,1144,0,0,0,0,0,0,
0,0,0,0,0,0,0,0,0,0,0,0,0,0,0,0,0,0,1144,0,0,0,0,0,0,0,0,0,0,0,0,0,0,1144,0,0,0,0,0,0,
0,0,0,0,0,0,0,0,0,0,0,0,0,0,0,0,0,0,1144,0,0,0,0,0,0,0,0,0,0,0,0,0,0,1144,0,1122,0,0,0,0,
0,0,0,0,0,0,0,0,0,0,1145,1143,1143,1143,1143,1143,1143,1143,0,0,0,1143,1143,1143,1143,1143,1143,1143,1143,1143,1143,1143,1143,1122,0,0,0,0,0,0,
0,0,0,1145,1143,1143,1143,1143,1143,1143,0,0,0,0,0,0,0,0,0,0,1120,0,0,0,0,0,0,0,0,0,0,0,0,0,0,0,0,0,0,0,
0,0,0,1144,0,0,0,0,0,0,0,0,0,0,0,0,0,0,0,1120,1122,1120,0,0,0,0,0,0,0,0,0,0,0,0,0,0,0,0,0,0,
0,0,0,1144,0,0,0,0,0,0,0,0,0,0,0,0,0,0,0,0,0,1120,0,0,0,0,0,0,0,0,0,0,0,0,0,0,0,0,0,0,
0,0,0,1144,0,0,0,0,0,0,0,0,0,0,0,0,0,0,0,0,1122,0,0,0,0,0,0,0,0,0,0,0,0,0,0,0,0,0,0,0,
0,0,0,1144,0,0,0,0,0,0,0,0,0,0,0,1122,0,0,0,0,1111,0,0,1120,0,0,0,0,0,0,0,0,0,0,0,0,0,0,0,0,
0,0,0,1144,0,0,0,0,0,0,0,0,0,0,0,0,0,0,0,1144,0,0,0,0,0,0,1144,0,0,0,0,0,0,0,0,0,0,0,0,0,
0,0,0,1144,0,0,0,0,0,0,0,0,0,0,0,0,0,0,0,1144,1128,0,0,0,0,0,1144,0,0,0,0,0,0,0,0,0,0,0,0,0,
0,0,0,1144,0,0,0,0,0,1122,0,0,0,0,0,0,0,0,0,1144,0,0,0,0,0,0,1144,0,0,0,0,0,0,0,0,0,0,0,0,0,
0,0,0,1144,0,0,0,0,0,1122,0,0,0,0,0,0,0,0,0,1144,0,0,0,0,0,0,1144,0,0,0,0,0,0,0,1122,1122,0,0,0,0,
0,0,0,1144,0,0,0,0,0,0,0,0,1122,0,0,0,0,0,0,1144,0,0,0,0,0,0,1144,0,0,0,0,0,0,0,0,0,0,0,0,0,
0,0,0,1144,0,0,0,0,0,0,0,0,1122,0,0,0,0,0,0,1144,1120,0,0,0,0,0,1144,0,0,0,0,0,0,0,0,0,0,0,0,0,
0,0,0,1144,1112,0,0,0,0,0,0,0,0,0,0,0,0,0,0,1144,0,0,0,0,0,0,1144,0,0,1120,0,0,1113,0,0,0,0,0,0,0,
0,0,0,1144,0,1110,1122,1120,0,0,0,0,0,0,0,0,0,0,0,1144,1110,0,0,0,0,0,1144,1122,0,0,0,0,0,0,0,0,0,0,0,0,
0,0,0,1144,0,0,0,0,0,1122,1122,0,0,0,0,0,0,0,0,1144,0,1122,0,0,0,0,1144,0,1113,0,0,0,0,0,0,0,0,0,0,0,
0,0,0,1144,0,0,0,0,0,1122,0,0,0,0,0,0,0,0,0,1144,0,0,0,0,0,0,1144,0,0,0,0,0,0,0,0,0,0,0,0,0,
0,0,0,1144,0,0,0,0,0,0,0,0,0,0,0,0,0,0,0,1144,1122,0,0,0,0,0,1144,0,0,0,1113,0,0,0,0,0,0,0,0,0,
0,0,0,0,1144,0,0,0,0,0,0,0,0,0,0,0,0,0,0,1144,0,0,0,0,0,0,1144,1122,0,0,0,0,0,0,1122,0,0,0,0,0,
0,0,0,0,1144,0,1120,0,0,0,0,0,0,0,0,0,0,0,0,1144,0,0,0,0,0,0,0,1144,0,0,0,1120,0,0,0,0,0,0,0,0,
0,0,0,1145,0,0,0,1143,1143,1143,1143,1143,1143,1143,1143,1143,1143,1143,1143,0,0,0,1143,1143,1143,1143,1143,0,0,0,0,0,0,0,0,0,0,0,0,0,
0,0,0,1144,0,1110,0,1122,0,0,0,0,0,0,0,0,0,0,0,0,0,0,0,0,0,0,0,0,0,1109,0,0,0,0,0,0,0,0,0,0,
0,0,0,1144,1120,0,0,1120,0,0,0,0,0,0,0,0,0,0,0,0,0,0,0,0,0,0,0,0,0,0,0,0,0,0,0,0,0,0,0,0,
0,0,0,0,0,0,0,0,0,0,0,0,0,0,0,0,0,0,0,0,0,0,0,0,0,0,0,1144,0,1122,0,0,0,0,0,0,0,0,0,0,
0,0,0,0,0,0,0,0,0,0,0,0,0,0,0,0,0,0,0,0,0,0,0,0,0,0,0,1144,0,0,0,0,0,0,0,0,0,0,0,0,
0,0,0,0,0,0,0,0,0,0,0,0,0,0,0,0,0,0,0,0,0,0,0,0,0,0,0,1144,0,0,0,0,0,0,0,0,0,0,0,0,
0,0,0,0,0,0,0,0,0,0,0,0,0,0,0,0,0,0,0,0,0,0,0,0,0,0,0,0,0,0,0,0,0,0,0,0,0,0,0,0,
0,0,0,0,0,0,0,0,0,0,0,0,0,0,0,0,0,0,0,0,0,0,0,0,0,0,0,0,0,0,0,0,0,0,0,0,0,0,0,0,
0,0,0,0,0,0,0,0,0,0,0,0,0,0,0,0,0,0,0,0,0,0,0,0,0,0,0,0,0,0,0,0,0,0,0,0,0,0,0,0
</data>
 </layer>
 <layer id="12" name="object" width="40" height="40">
  <data encoding="csv">
302,302,302,302,302,302,302,302,302,302,302,302,302,302,302,302,302,302,302,302,302,302,302,302,302,302,302,302,302,302,302,302,302,302,302,302,302,302,302,302,
302,302,302,0,0,0,0,0,0,0,0,0,0,0,0,0,0,0,0,0,0,0,0,0,0,0,0,0,0,0,0,302,302,302,302,302,302,302,302,302,
302,302,302,0,1092,0,1101,0,0,0,1092,0,0,0,0,0,0,0,1133,1134,1135,0,0,0,0,0,0,0,1093,0,0,302,0,0,0,0,0,302,302,302,
302,302,302,0,0,0,0,0,0,0,0,0,0,1101,1101,0,0,0,1136,1137,1138,0,0,0,1101,1101,0,0,0,0,0,302,0,0,1132,0,0,302,302,302,
302,302,302,0,0,0,0,0,0,0,302,302,302,302,0,0,0,0,0,0,0,0,0,0,0,302,302,302,302,0,0,302,0,0,0,0,0,302,302,302,
302,302,302,0,0,0,0,0,0,0,302,302,302,302,0,0,0,0,0,0,0,0,0,0,0,302,302,302,302,0,0,302,1092,0,0,0,1093,302,302,302,
302,302,302,0,0,528,0,0,0,0,0,0,0,0,0,0,0,0,0,0,0,0,0,0,0,0,0,0,0,0,0,302,0,0,0,0,0,302,302,302,
302,302,302,0,0,0,0,0,0,0,0,0,0,0,0,0,0,0,0,0,0,0,0,0,0,0,0,0,0,0,0,302,0,0,0,0,0,302,302,302,
302,302,302,0,1093,0,0,0,0,0,0,0,0,0,0,0,1092,0,0,0,0,0,1093,0,0,0,0,0,0,0,0,302,0,0,0,0,0,302,302,302,
302,302,302,302,302,302,302,302,302,302,302,302,302,302,302,302,302,302,0,0,0,302,302,302,302,302,302,302,302,302,302,302,302,0,0,0,302,302,302,302,
302,302,302,302,302,302,302,302,302,302,302,302,302,302,302,302,302,302,0,0,0,302,302,302,302,302,302,302,302,302,302,302,302,0,0,0,302,302,302,302,
302,302,302,302,302,302,302,302,302,302,302,302,302,302,302,302,302,1119,0,0,0,1119,302,302,302,302,302,302,302,302,302,302,302,0,0,0,302,302,302,302,
302,302,302,302,302,302,302,302,302,302,0,0,0,0,0,0,0,0,0,0,0,0,0,0,0,0,0,0,0,0,0,0,0,0,0,0,302,302,302,302,
302,302,302,0,0,0,0,0,0,0,0,0,0,0,0,0,0,0,0,1092,0,0,0,0,0,0,0,0,0,0,0,0,0,0,0,0,302,302,302,302,
302,302,302,0,0,0,1098,0,0,0,0,0,0,0,0,0,0,0,0,0,0,0,0,0,0,0,0,0,0,0,0,0,0,0,0,0,302,302,302,302,
302,302,302,0,0,0,0,0,0,0,0,0,1099,0,0,0,0,0,0,0,0,0,0,0,0,0,1091,0,0,0,0,0,0,0,0,0,302,302,302,302,
302,302,302,0,0,0,0,0,0,0,0,527,0,0,0,0,0,0,0,0,0,0,0,0,0,0,0,0,0,0,0,0,0,0,1108,0,302,302,302,302,
302,302,302,0,0,0,0,0,0,0,0,0,0,0,0,0,0,0,0,0,0,1095,0,0,0,0,0,1107,0,0,0,0,0,0,0,0,302,302,302,302,
302,302,302,1098,0,0,0,0,0,0,0,0,0,302,302,302,302,302,302,0,0,0,302,302,302,302,0,0,0,0,0,0,0,0,0,0,302,302,302,302,
302,302,302,0,0,0,0,0,0,0,0,0,0,302,302,302,302,302,302,0,0,0,302,302,302,302,0,0,302,302,302,302,302,302,0,0,302,302,302,302,
302,302,302,0,0,0,0,0,0,0,0,0,0,302,302,302,302,302,302,0,0,0,302,302,302,302,0,0,302,302,302,302,302,302,0,0,302,302,302,302,
302,302,302,0,0,0,1091,0,0,0,0,0,0,302,302,302,302,302,302,0,0,0,302,302,302,302,0,0,302,302,302,302,302,302,0,0,302,302,302,302,
302,302,302,0,528,0,0,0,0,0,0,0,0,302,302,302,302,302,302,0,0,1093,302,302,302,302,0,0,302,302,302,302,302,302,0,0,302,302,302,302,
302,302,302,0,0,0,0,0,0,0,0,0,0,302,302,302,302,302,302,0,0,0,302,302,302,302,0,0,302,302,302,302,302,302,0,0,302,302,302,302,
302,302,302,0,0,0,0,0,0,0,0,0,0,302,302,302,302,302,302,0,0,0,302,302,302,302,0,0,0,0,0,0,0,0,1107,0,302,302,302,302,
302,302,302,0,0,0,0,0,0,0,1099,0,0,302,302,302,302,302,302,527,0,0,302,302,302,302,0,0,0,0,0,0,0,0,0,0,302,302,302,302,
302,302,302,0,1101,0,0,0,0,0,0,0,0,302,302,302,302,302,302,0,0,0,302,302,302,302,0,1108,0,0,1107,0,0,0,0,0,302,302,302,302,
302,302,302,1097,0,0,0,0,0,527,0,0,0,302,302,302,302,302,302,0,0,0,302,302,302,302,0,0,0,0,0,0,0,1095,0,0,302,302,302,302,
302,302,302,0,0,0,0,0,0,0,0,0,0,302,302,302,302,302,302,0,0,0,302,302,302,302,0,0,0,0,0,0,0,0,0,0,302,302,302,302,
302,302,302,302,0,0,0,302,302,302,302,302,302,302,302,302,302,302,302,0,0,0,302,302,302,302,0,0,0,0,0,0,0,0,0,0,302,302,302,302,
302,302,302,302,0,0,0,302,302,302,302,302,302,302,302,302,302,302,302,0,0,0,302,302,302,302,302,0,0,0,0,0,302,302,302,302,302,302,302,302,
302,302,302,0,0,0,0,0,0,0,0,0,0,0,0,0,0,0,0,0,528,0,0,0,0,0,0,0,0,0,0,0,302,302,302,302,302,302,302,302,
302,302,302,0,1127,0,0,0,0,0,0,0,0,0,0,1091,0,0,0,0,0,0,0,0,0,0,527,0,0,0,0,0,302,302,302,302,302,302,302,302,
302,302,302,1095,0,0,0,0,0,0,0,0,527,0,0,0,0,0,0,0,0,0,0,1091,0,0,0,0,0,0,0,0,302,302,302,302,302,302,302,302,
302,302,302,302,302,302,302,302,302,302,302,302,302,302,302,302,302,302,302,302,302,302,302,302,302,302,302,0,0,0,0,0,302,302,302,302,302,302,302,302,
302,302,302,302,302,302,302,302,302,302,302,302,302,302,302,302,302,302,302,302,302,302,302,302,302,302,302,0,0,0,0,0,302,302,302,302,302,302,302,302,
302,302,302,302,302,302,302,302,302,302,302,302,302,302,302,302,302,302,302,302,302,302,302,302,302,302,302,0,0,0,0,0,302,302,302,302,302,302,302,302,
302,302,302,302,302,302,302,302,302,302,302,302,302,302,302,302,302,302,302,302,302,302,302,302,302,302,302,302,302,302,302,302,302,302,302,302,302,302,302,302,
302,302,302,302,302,302,302,302,302,302,302,302,302,302,302,302,302,302,302,302,302,302,302,302,302,302,302,302,302,302,302,302,302,302,302,302,302,302,302,302,
302,302,302,302,302,302,302,302,302,302,302,302,302,302,302,302,302,302,302,302,302,302,302,302,302,302,302,302,302,302,302,302,302,302,302,302,302,302,302,302
</data>
 </layer>
 <layer id="13" name="shadow_upper" width="40" height="40">
  <data encoding="csv">
0,0,0,0,0,0,0,0,0,0,0,0,0,0,0,0,0,0,0,0,0,0,0,0,0,0,0,0,0,0,0,0,0,0,0,0,0,0,0,0,
0,0,0,0,0,0,0,0,0,0,0,0,0,0,0,0,0,0,0,0,0,0,0,0,0,0,0,0,0,0,0,0,0,0,0,0,0,0,0,0,
0,0,0,0,0,0,0,0,0,0,0,0,0,0,0,0,0,0,0,0,0,0,0,0,0,0,0,0,0,0,0,0,0,0,0,0,0,0,0,0,
0,0,0,0,0,0,0,0,0,0,0,0,0,0,0,0,0,0,0,0,0,0,0,0,0,0,0,0,0,0,0,0,0,0,0,0,0,0,0,0,
0,0,0,0,0,0,0,0,0,0,0,0,0,0,0,0,0,0,0,0,0,0,0,0,0,0,0,0,0,0,0,0,0,0,0,0,0,0,0,0,
0,0,0,0,0,0,0,0,0,0,0,0,0,0,0,0,0,0,0,0,0,0,0,0,0,0,0,0,0,0,0,0,0,0,0,0,0,0,0,0,
0,0,0,0,0,0,0,0,0,0,0,0,0,0,0,0,0,0,0,0,0,0,0,0,0,0,0,0,0,0,0,0,0,0,0,0,0,0,0,0,
0,0,0,0,0,0,0,0,0,0,0,0,0,0,0,0,0,0,0,0,0,0,0,0,0,0,0,0,0,0,0,0,0,0,0,0,0,0,0,0,
0,0,0,0,0,0,0,0,0,0,0,0,0,0,0,0,0,0,0,0,0,0,0,0,0,0,0,0,0,0,0,0,0,0,0,0,0,0,0,0,
0,0,0,0,0,0,0,0,0,0,0,0,0,0,0,0,0,0,0,0,0,0,0,0,0,0,0,0,0,0,0,0,0,0,0,0,0,0,0,0,
0,0,0,0,0,0,0,0,0,0,0,0,0,0,0,0,0,0,0,0,0,0,0,0,0,0,0,0,0,0,0,0,0,0,0,0,0,0,0,0,
0,0,0,0,0,0,0,0,0,0,0,0,0,0,0,0,0,0,0,0,0,0,0,0,0,0,0,0,0,0,0,0,0,0,0,0,0,0,0,0,
0,0,0,0,0,0,0,0,0,0,0,0,0,0,0,0,0,0,0,0,0,0,0,0,0,0,0,0,0,0,0,0,0,0,0,0,0,0,0,0,
0,0,0,0,0,0,0,0,0,0,0,0,0,0,0,0,0,0,0,0,0,0,0,0,0,0,0,0,0,0,0,0,0,0,0,0,0,0,0,0,
0,0,0,0,0,0,0,0,0,0,0,0,0,0,0,0,0,0,0,0,0,0,0,0,0,0,0,0,0,0,0,0,0,0,0,0,0,0,0,0,
0,0,0,0,0,0,0,0,0,0,0,0,0,0,0,0,0,0,0,0,0,0,0,0,0,0,0,0,0,0,0,0,0,0,0,0,0,0,0,0,
0,0,0,0,0,0,0,0,0,0,0,0,0,0,0,0,0,0,0,0,0,0,0,0,0,0,0,0,0,0,0,0,0,0,0,0,0,0,0,0,
0,0,0,0,0,0,0,0,0,0,0,0,0,0,0,0,0,0,0,0,0,0,0,0,0,0,0,0,0,0,0,0,0,0,0,0,0,0,0,0,
0,0,0,0,0,0,0,0,0,0,0,0,0,0,0,0,0,0,0,0,0,0,0,0,0,0,0,0,0,0,0,0,0,0,0,0,0,0,0,0,
0,0,0,0,0,0,0,0,0,0,0,0,0,0,0,0,0,0,0,0,0,0,0,0,0,0,0,0,0,0,0,0,0,0,0,0,0,0,0,0,
0,0,0,0,0,0,0,0,0,0,0,0,0,0,0,0,0,0,0,0,0,0,0,0,0,0,0,0,0,0,0,0,0,0,0,0,0,0,0,0,
0,0,0,0,0,0,0,0,0,0,0,0,0,0,0,0,0,0,0,0,0,0,0,0,0,0,0,0,0,0,0,0,0,0,0,0,0,0,0,0,
0,0,0,0,0,0,0,0,0,0,0,0,0,0,0,0,0,0,0,0,0,0,0,0,0,0,0,0,0,0,0,0,0,0,0,0,0,0,0,0,
0,0,0,0,0,0,0,0,0,0,0,0,0,0,0,0,0,0,0,0,0,0,0,0,0,0,0,0,0,0,0,0,0,0,0,0,0,0,0,0,
0,0,0,0,0,0,0,0,0,0,0,0,0,0,0,0,0,0,0,0,0,0,0,0,0,0,0,0,0,0,0,0,0,0,0,0,0,0,0,0,
0,0,0,0,0,0,0,0,0,0,0,0,0,0,0,0,0,0,0,0,0,0,0,0,0,0,0,0,0,0,0,0,0,0,0,0,0,0,0,0,
0,0,0,0,0,0,0,0,0,0,0,0,0,0,0,0,0,0,0,0,0,0,0,0,0,0,0,0,0,0,0,0,0,0,0,0,0,0,0,0,
0,0,0,0,0,0,0,0,0,0,0,0,0,0,0,0,0,0,0,0,0,0,0,0,0,0,0,0,0,0,0,0,0,0,0,0,0,0,0,0,
0,0,0,0,0,0,0,0,0,0,0,0,0,0,0,0,0,0,0,0,0,0,0,0,0,0,0,0,0,0,0,0,0,0,0,0,0,0,0,0,
0,0,0,0,0,0,0,0,0,0,0,0,0,0,0,0,0,0,0,0,0,0,0,0,0,0,0,0,0,0,0,0,0,0,0,0,0,0,0,0,
0,0,0,0,0,0,0,0,0,0,0,0,0,0,0,0,0,0,0,0,0,0,0,0,0,0,0,0,0,0,0,0,0,0,0,0,0,0,0,0,
0,0,0,0,0,0,0,0,0,0,0,0,0,0,0,0,0,0,0,0,0,0,0,0,0,0,0,0,0,0,0,0,0,0,0,0,0,0,0,0,
0,0,0,0,0,0,0,0,0,0,0,0,0,0,0,0,0,0,0,0,0,0,0,0,0,0,0,0,0,0,0,0,0,0,0,0,0,0,0,0,
0,0,0,0,0,0,0,0,0,0,0,0,0,0,0,0,0,0,0,0,0,0,0,0,0,0,0,0,0,0,0,0,0,0,0,0,0,0,0,0,
0,0,0,0,0,0,0,0,0,0,0,0,0,0,0,0,0,0,0,0,0,0,0,0,0,0,0,0,0,0,0,0,0,0,0,0,0,0,0,0,
0,0,0,0,0,0,0,0,0,0,0,0,0,0,0,0,0,0,0,0,0,0,0,0,0,0,0,0,0,0,0,0,0,0,0,0,0,0,0,0,
0,0,0,0,0,0,0,0,0,0,0,0,0,0,0,0,0,0,0,0,0,0,0,0,0,0,0,0,0,0,0,0,0,0,0,0,0,0,0,0,
0,0,0,0,0,0,0,0,0,0,0,0,0,0,0,0,0,0,0,0,0,0,0,0,0,0,0,0,0,0,0,0,0,0,0,0,0,0,0,0,
0,0,0,0,0,0,0,0,0,0,0,0,0,0,0,0,0,0,0,0,0,0,0,0,0,0,0,0,0,0,0,0,0,0,0,0,0,0,0,0,
0,0,0,0,0,0,0,0,0,0,0,0,0,0,0,0,0,0,0,0,0,0,0,0,0,0,0,0,0,0,0,0,0,0,0,0,0,0,0,0
</data>
 </layer>
 <layer id="14" name="object_upper" width="40" height="40">
  <data encoding="csv">
0,0,0,0,0,0,0,0,0,0,0,0,0,0,0,0,0,0,0,0,0,0,0,0,0,0,0,0,0,0,0,0,0,0,0,0,0,0,0,0,
0,0,0,0,0,0,1100,0,0,0,0,0,0,0,0,0,0,0,0,0,0,0,0,0,0,0,0,0,0,0,0,0,0,0,0,0,0,0,0,0,
0,0,0,0,0,0,0,0,0,0,0,0,0,1100,1100,0,0,0,0,0,0,0,0,0,1100,1100,0,0,0,0,0,0,0,0,1131,0,0,0,0,0,
0,0,0,0,0,0,0,0,0,0,0,0,0,0,0,0,0,0,0,0,0,0,0,0,0,0,0,0,0,0,0,0,0,0,0,0,0,0,0,0,
0,0,0,0,0,0,0,0,0,0,0,0,0,0,0,0,0,0,0,0,0,0,0,0,0,0,0,0,0,0,0,0,0,0,0,0,0,0,0,0,
0,0,0,0,0,0,0,0,0,0,0,0,0,0,0,0,0,0,0,0,0,0,0,0,0,0,0,0,0,0,0,0,0,0,0,0,0,0,0,0,
0,0,0,0,0,0,0,0,0,0,0,0,0,0,0,0,0,0,0,0,0,0,0,0,0,0,0,0,0,0,0,0,0,0,0,0,0,0,0,0,
0,0,0,0,0,0,0,0,0,0,0,0,0,0,0,0,0,0,0,0,0,0,0,0,0,0,0,0,0,0,0,0,0,0,0,0,0,0,0,0,
0,0,0,0,0,0,0,0,0,0,0,0,0,0,0,0,0,0,0,0,0,0,0,0,0,0,0,0,0,0,0,0,0,0,0,0,0,0,0,0,
0,0,0,0,0,0,0,0,0,0,0,0,0,0,0,0,0,1117,0,0,0,1117,0,0,0,0,0,0,0,0,0,0,0,0,0,0,0,0,0,0,
0,0,0,0,0,0,0,0,0,0,0,0,0,0,0,0,0,1118,0,0,0,1118,0,0,0,0,0,0,0,0,0,0,0,0,0,0,0,0,0,0,
0,0,0,0,0,0,0,0,0,0,0,0,0,0,0,0,0,0,0,0,0,0,0,0,0,0,0,0,0,0,0,0,0,0,0,0,0,0,0,0,
0,0,0,0,0,0,0,0,0,0,0,0,0,0,0,0,0,0,0,0,0,0,0,0,0,0,0,0,0,0,0,0,0,0,0,0,0,0,0,0,
0,0,0,0,0,0,0,0,0,0,0,0,0,0,0,0,0,0,0,0,0,0,0,0,0,0,0,0,0,0,0,0,0,0,0,0,0,0,0,0,
0,0,0,0,0,0,0,0,0,0,0,0,0,0,0,0,0,0,0,0,0,0,0,0,0,0,0,0,0,0,0,0,0,0,0,0,0,0,0,0,
0,0,0,0,0,0,0,0,0,0,0,0,0,0,0,0,0,0,0,0,0,0,0,0,0,0,0,0,0,0,0,0,0,0,0,0,0,0,0,0,
0,0,0,0,0,0,0,0,0,0,0,0,0,0,0,0,0,0,0,0,0,0,0,0,0,0,0,0,0,0,0,0,0,0,0,0,0,0,0,0,
0,0,0,0,0,0,0,0,0,0,0,0,0,0,0,0,0,0,0,0,0,0,0,0,0,0,0,0,0,0,0,0,0,0,0,0,0,0,0,0,
0,0,0,0,0,0,0,0,0,0,0,0,0,0,0,0,0,0,0,0,0,0,0,0,0,0,0,0,0,0,0,0,0,0,0,0,0,0,0,0,
0,0,0,0,0,0,0,0,0,0,0,0,0,0,0,0,0,0,0,0,0,0,0,0,0,0,0,0,0,0,0,0,0,0,0,0,0,0,0,0,
0,0,0,0,0,0,0,0,0,0,0,0,0,0,0,0,0,0,0,0,0,0,0,0,0,0,0,0,0,0,0,0,0,0,0,0,0,0,0,0,
0,0,0,0,0,0,0,0,0,0,0,0,0,0,0,0,0,0,0,0,0,0,0,0,0,0,0,0,0,0,0,0,0,0,0,0,0,0,0,0,
0,0,0,0,0,0,0,0,0,0,0,0,0,0,0,0,0,0,0,0,0,0,0,0,0,0,0,0,0,0,0,0,0,0,0,0,0,0,0,0,
0,0,0,0,0,0,0,0,0,0,0,0,0,0,0,0,0,0,0,0,0,0,0,0,0,0,0,0,0,0,0,0,0,0,0,0,0,0,0,0,
0,0,0,0,0,0,0,0,0,0,0,0,0,0,0,0,0,0,0,0,0,0,0,0,0,0,0,0,0,0,0,0,0,0,0,0,0,0,0,0,
0,0,0,0,1100,0,0,0,0,0,0,0,0,0,0,0,0,0,0,0,0,0,0,0,0,0,0,0,0,0,0,0,0,0,0,0,0,0,0,0,
0,0,0,0,0,0,0,0,0,0,0,0,0,0,0,0,0,0,0,0,0,0,0,0,0,0,0,0,0,0,0,0,0,0,0,0,0,0,0,0,
0,0,0,0,0,0,0,0,0,0,0,0,0,0,0,0,0,0,0,0,0,0,0,0,0,0,0,0,0,0,0,0,0,0,0,0,0,0,0,0,
0,0,0,0,0,0,0,0,0,0,0,0,0,0,0,0,0,0,0,0,0,0,0,0,0,0,0,0,0,0,0,0,0,0,0,0,0,0,0,0,
0,0,0,0,0,0,0,0,0,0,0,0,0,0,0,0,0,0,0,0,0,0,0,0,0,0,0,0,0,0,0,0,0,0,0,0,0,0,0,0,
0,0,0,0,0,0,0,0,0,0,0,0,0,0,0,0,0,0,0,0,0,0,0,0,0,0,0,0,0,0,0,0,0,0,0,0,0,0,0,0,
0,0,0,0,1126,0,0,0,0,0,0,0,0,0,0,0,0,0,0,0,0,0,0,0,0,0,0,0,0,0,0,0,0,0,0,0,0,0,0,0,
0,0,0,0,0,0,0,0,0,0,0,0,0,0,0,0,0,0,0,0,0,0,0,0,0,0,0,0,0,0,0,0,0,0,0,0,0,0,0,0,
0,0,0,0,0,0,0,0,0,0,0,0,0,0,0,0,0,0,0,0,0,0,0,0,0,0,0,0,0,0,0,0,0,0,0,0,0,0,0,0,
0,0,0,0,0,0,0,0,0,0,0,0,0,0,0,0,0,0,0,0,0,0,0,0,0,0,0,0,0,0,0,0,0,0,0,0,0,0,0,0,
0,0,0,0,0,0,0,0,0,0,0,0,0,0,0,0,0,0,0,0,0,0,0,0,0,0,0,0,0,0,0,0,0,0,0,0,0,0,0,0,
0,0,0,0,0,0,0,0,0,0,0,0,0,0,0,0,0,0,0,0,0,0,0,0,0,0,0,0,0,0,0,0,0,0,0,0,0,0,0,0,
0,0,0,0,0,0,0,0,0,0,0,0,0,0,0,0,0,0,0,0,0,0,0,0,0,0,0,0,0,0,0,0,0,0,0,0,0,0,0,0,
0,0,0,0,0,0,0,0,0,0,0,0,0,0,0,0,0,0,0,0,0,0,0,0,0,0,0,0,0,0,0,0,0,0,0,0,0,0,0,0,
0,0,0,0,0,0,0,0,0,0,0,0,0,0,0,0,0,0,0,0,0,0,0,0,0,0,0,0,0,0,0,0,0,0,0,0,0,0,0,0
</data>
 </layer>
 <layer id="15" name="deco" width="40" height="40">
  <data encoding="csv">
0,0,0,0,0,0,0,0,0,0,0,0,0,0,0,0,0,0,0,0,0,0,0,0,0,0,0,0,0,0,0,0,0,0,0,0,0,0,0,0,
0,0,0,0,0,0,0,0,0,0,0,0,0,0,0,0,0,0,0,0,0,0,0,0,0,0,0,0,0,0,0,0,0,0,0,0,0,0,0,0,
0,0,0,0,0,0,0,0,0,0,0,0,0,0,0,0,0,0,0,0,0,0,0,0,0,0,0,0,0,0,0,0,0,0,0,0,0,0,0,0,
0,0,0,0,0,0,0,0,0,0,0,0,0,0,0,0,0,0,0,0,0,0,0,0,0,0,0,0,0,0,0,0,0,0,0,0,0,0,0,0,
0,0,0,0,0,0,0,0,0,0,0,0,0,0,0,0,0,0,0,0,0,0,0,0,0,0,0,0,0,0,0,0,0,0,0,0,0,0,0,0,
0,0,0,0,0,0,0,0,0,0,0,0,0,0,0,0,0,0,0,0,0,0,0,0,0,0,0,0,0,0,0,0,0,0,0,0,0,0,0,0,
0,0,0,0,0,0,0,0,0,0,0,0,0,0,0,0,0,0,0,0,0,0,0,0,0,0,0,0,0,0,0,0,0,0,0,0,0,0,0,0,
0,0,0,0,0,0,0,0,0,0,0,0,0,0,0,0,0,0,0,0,0,0,0,0,0,0,0,0,0,0,0,0,0,0,0,0,0,0,0,0,
0,0,0,0,0,0,0,0,0,0,0,0,0,0,0,0,0,0,0,0,0,0,0,0,0,0,0,0,0,0,0,0,0,0,0,0,0,0,0,0,
0,0,0,0,0,0,0,0,0,0,0,0,0,0,0,0,0,0,0,0,0,0,0,0,0,0,0,0,0,0,0,0,0,1140,0,1139,0,0,0,0,
0,0,0,0,0,0,0,0,0,0,0,0,0,0,0,0,0,0,0,0,0,0,0,0,0,0,0,0,0,0,0,0,0,0,0,0,0,0,0,0,
0,0,0,0,0,0,0,0,0,0,0,0,0,0,0,0,0,0,0,0,0,0,0,0,0,0,0,0,0,0,0,0,0,0,0,0,0,0,0,0,
0,0,0,0,0,0,0,0,0,0,0,0,0,0,0,0,0,0,0,0,0,0,0,0,0,0,0,0,0,0,0,0,0,0,0,0,0,0,0,0,
0,0,0,0,0,0,0,0,1140,0,0,0,0,0,0,0,0,0,0,0,0,0,0,0,0,0,0,0,0,0,0,0,0,0,0,0,0,0,0,0,
0,0,0,0,0,0,0,0,0,0,0,0,0,0,0,0,0,0,0,0,0,0,0,0,0,0,0,0,0,0,0,0,0,0,0,1139,0,0,0,0,
0,0,0,0,0,0,0,0,0,0,0,0,0,0,0,0,0,0,0,0,0,0,0,0,0,0,0,0,0,0,0,0,0,0,0,0,0,0,0,0,
0,0,0,0,0,0,0,0,0,0,0,0,0,0,0,0,0,0,0,0,0,0,0,0,0,0,0,0,0,0,0,0,0,0,0,0,0,0,0,0,
0,0,0,0,0,0,0,0,0,0,0,0,0,0,0,0,0,0,0,0,0,0,0,0,0,0,0,0,0,0,0,0,0,0,0,0,0,0,0,0,
0,0,0,0,0,0,0,0,0,0,0,0,0,0,0,0,0,0,0,0,0,0,0,0,0,0,0,0,0,0,0,0,0,0,0,0,0,0,0,0,
0,0,0,0,0,0,0,0,0,0,0,0,0,0,0,0,0,0,0,0,0,0,0,0,0,0,0,0,0,0,0,0,0,0,0,0,0,0,0,0,
0,0,0,0,0,0,0,0,0,0,0,0,0,0,0,0,0,0,0,0,0,0,0,0,0,0,0,0,0,0,0,0,0,0,0,0,0,0,0,0,
0,0,0,0,0,0,0,0,0,0,0,0,0,0,0,0,0,0,0,0,0,0,0,0,0,0,0,0,0,0,0,0,0,0,0,0,0,0,0,0,
0,0,0,0,0,0,0,0,0,0,0,0,0,0,0,0,0,0,0,0,0,0,0,0,0,0,0,0,0,0,0,0,0,0,0,0,0,0,0,0,
0,0,0,0,0,0,0,0,0,0,0,0,0,0,0,0,0,0,0,0,0,0,0,0,0,0,0,0,0,0,0,0,0,0,0,0,0,0,0,0,
0,0,0,0,0,0,0,0,0,0,0,0,0,0,0,0,0,0,0,0,0,0,0,0,0,0,0,0,0,0,0,0,0,0,0,0,0,0,0,0,
0,0,0,0,0,0,0,0,0,0,0,0,0,0,0,0,0,0,0,0,0,0,0,0,0,0,0,0,0,0,0,0,0,0,0,0,0,0,0,0,
0,0,0,0,0,0,0,0,0,0,0,0,0,0,0,0,0,0,0,0,0,0,0,0,0,0,0,0,0,0,0,0,0,0,0,0,0,0,0,0,
0,0,0,0,0,0,0,0,0,0,0,0,0,0,0,0,0,0,0,0,0,0,0,0,0,0,0,0,0,0,0,0,0,0,0,0,0,0,0,0,
0,0,0,0,0,0,0,0,0,0,0,0,0,0,0,0,0,0,0,0,0,0,0,0,0,0,0,0,0,0,0,0,0,0,0,0,0,0,0,0,
0,0,0,0,0,0,0,0,0,0,0,0,0,0,0,0,0,0,0,0,0,0,0,0,0,0,0,0,0,0,0,0,0,0,0,0,0,0,0,0,
0,0,0,0,0,0,0,0,0,0,0,0,0,0,0,0,0,0,0,0,0,0,0,0,0,0,0,0,0,0,0,0,0,0,0,0,0,0,0,0,
0,0,0,1140,0,0,0,0,0,0,0,0,0,0,0,0,0,0,0,0,0,0,0,0,0,0,0,0,0,0,0,1141,0,0,0,0,0,0,0,0,
0,0,0,0,0,0,0,0,0,0,0,0,0,0,0,0,0,0,0,0,0,0,0,0,0,0,0,0,0,0,0,0,0,0,0,0,0,0,0,0,
0,0,0,0,0,0,0,0,0,0,0,0,0,0,0,0,0,0,0,0,0,0,0,0,0,0,0,0,0,0,0,0,0,0,0,0,0,0,0,0,
0,0,0,0,0,0,0,0,0,0,0,0,0,0,0,0,0,0,0,0,0,0,0,0,0,0,0,0,0,0,0,0,0,0,0,0,0,0,0,0,
0,0,0,0,0,0,0,0,0,0,0,0,0,0,0,0,0,0,0,0,0,0,0,0,0,0,0,0,0,0,0,0,0,0,0,0,0,0,0,0,
0,0,0,0,0,0,0,0,0,0,0,0,0,0,0,0,0,0,0,0,0,0,0,0,0,0,0,0,0,0,0,0,0,0,0,0,0,0,0,0,
0,0,0,0,0,0,0,0,0,0,0,0,0,0,0,0,0,0,0,0,0,0,0,0,0,0,0,0,0,0,0,0,0,0,0,0,0,0,0,0,
0,0,0,0,0,0,0,0,0,0,0,0,0,0,0,0,0,0,0,0,0,0,0,0,0,0,0,0,0,0,0,0,0,0,0,0,0,0,0,0,
0,0,0,0,0,0,0,0,0,0,0,0,0,0,0,0,0,0,0,0,0,0,0,0,0,0,0,0,0,0,0,0,0,0,0,0,0,0,0,0
</data>
 </layer>
 <layer id="16" name="roof" width="40" height="40">
  <data encoding="csv">
0,0,0,0,0,0,0,0,0,0,0,0,0,0,0,0,0,0,0,0,0,0,0,0,0,0,0,0,0,0,0,0,0,0,0,0,0,0,0,0,
0,0,0,0,0,0,0,0,0,0,0,0,0,0,0,0,0,0,0,0,0,0,0,0,0,0,0,0,0,0,0,0,0,0,0,0,0,0,0,0,
0,0,0,0,0,0,0,0,0,0,0,0,0,0,0,0,0,0,0,0,0,0,0,0,0,0,0,0,0,0,0,0,0,0,0,0,0,0,0,0,
0,0,0,0,0,0,0,0,0,0,0,0,0,0,0,0,0,0,0,0,0,0,0,0,0,0,0,0,0,0,0,0,0,0,0,0,0,0,0,0,
0,0,0,0,0,0,0,0,0,0,0,0,0,0,0,0,0,0,0,0,0,0,0,0,0,0,0,0,0,0,0,0,0,0,0,0,0,0,0,0,
0,0,0,0,0,0,0,0,0,0,0,0,0,0,0,0,0,0,0,0,0,0,0,0,0,0,0,0,0,0,0,0,0,0,0,0,0,0,0,0,
0,0,0,0,0,0,0,0,0,0,0,0,0,0,0,0,0,0,0,0,0,0,0,0,0,0,0,0,0,0,0,0,0,0,0,0,0,0,0,0,
0,0,0,0,0,0,0,0,0,0,0,0,0,0,0,0,0,0,0,0,0,0,0,0,0,0,0,0,0,0,0,0,0,0,0,0,0,0,0,0,
0,0,0,0,0,0,0,0,0,0,0,0,0,0,0,0,0,0,0,0,0,0,0,0,0,0,0,0,0,0,0,0,0,0,0,0,0,0,0,0,
0,0,0,0,0,0,0,0,0,0,0,0,0,0,0,0,0,0,0,0,0,0,0,0,0,0,0,0,0,0,0,0,0,0,0,0,0,0,0,0,
0,0,0,0,0,0,0,0,0,0,0,0,0,0,0,0,0,0,0,0,0,0,0,0,0,0,0,0,0,0,0,0,0,0,0,0,0,0,0,0,
0,0,0,0,0,0,0,0,0,0,0,0,0,0,0,0,0,0,0,0,0,0,0,0,0,0,0,0,0,0,0,0,0,0,0,0,0,0,0,0,
0,0,0,0,0,0,0,0,0,0,0,0,0,0,0,0,0,0,0,0,0,0,0,0,0,0,0,0,0,0,0,0,0,0,0,0,0,0,0,0,
0,0,0,0,0,0,0,0,0,0,0,0,0,0,0,0,0,0,0,0,0,0,0,0,0,0,0,0,0,0,0,0,0,0,0,0,0,0,0,0,
0,0,0,0,0,0,0,0,0,0,0,0,0,0,0,0,0,0,0,0,0,0,0,0,0,0,0,0,0,0,0,0,0,0,0,0,0,0,0,0,
0,0,0,0,0,0,0,0,0,0,0,0,0,0,0,0,0,0,0,0,0,0,0,0,0,0,0,0,0,0,0,0,0,0,0,0,0,0,0,0,
0,0,0,0,0,0,0,0,0,0,0,0,0,0,0,0,0,0,0,0,0,0,0,0,0,0,0,0,0,0,0,0,0,0,0,0,0,0,0,0,
0,0,0,0,0,0,0,0,0,0,0,0,0,0,0,0,0,0,0,0,0,0,0,0,0,0,0,0,0,0,0,0,0,0,0,0,0,0,0,0,
0,0,0,0,0,0,0,0,0,0,0,0,0,0,0,0,0,0,0,0,0,0,0,0,0,0,0,0,0,0,0,0,0,0,0,0,0,0,0,0,
0,0,0,0,0,0,0,0,0,0,0,0,0,0,0,0,0,0,0,0,0,0,0,0,0,0,0,0,0,0,0,0,0,0,0,0,0,0,0,0,
0,0,0,0,0,0,0,0,0,0,0,0,0,0,0,0,0,0,0,0,0,0,0,0,0,0,0,0,0,0,0,0,0,0,0,0,0,0,0,0,
0,0,0,0,0,0,0,0,0,0,0,0,0,0,0,0,0,0,0,0,0,0,0,0,0,0,0,0,0,0,0,0,0,0,0,0,0,0,0,0,
0,0,0,0,0,0,0,0,0,0,0,0,0,0,0,0,0,0,0,0,0,0,0,0,0,0,0,0,0,0,0,0,0,0,0,0,0,0,0,0,
0,0,0,0,0,0,0,0,0,0,0,0,0,0,0,0,0,0,0,0,0,0,0,0,0,0,0,0,0,0,0,0,0,0,0,0,0,0,0,0,
0,0,0,0,0,0,0,0,0,0,0,0,0,0,0,0,0,0,0,0,0,0,0,0,0,0,0,0,0,0,0,0,0,0,0,0,0,0,0,0,
0,0,0,0,0,0,0,0,0,0,0,0,0,0,0,0,0,0,0,0,0,0,0,0,0,0,0,0,0,0,0,0,0,0,0,0,0,0,0,0,
0,0,0,0,0,0,0,0,0,0,0,0,0,0,0,0,0,0,0,0,0,0,0,0,0,0,0,0,0,0,0,0,0,0,0,0,0,0,0,0,
0,0,0,0,0,0,0,0,0,0,0,0,0,0,0,0,0,0,0,0,0,0,0,0,0,0,0,0,0,0,0,0,0,0,0,0,0,0,0,0,
0,0,0,0,0,0,0,0,0,0,0,0,0,0,0,0,0,0,0,0,0,0,0,0,0,0,0,0,0,0,0,0,0,0,0,0,0,0,0,0,
0,0,0,0,0,0,0,0,0,0,0,0,0,0,0,0,0,0,0,0,0,0,0,0,0,0,0,0,0,0,0,0,0,0,0,0,0,0,0,0,
0,0,0,0,0,0,0,0,0,0,0,0,0,0,0,0,0,0,0,0,0,0,0,0,0,0,0,0,0,0,0,0,0,0,0,0,0,0,0,0,
0,0,0,0,0,0,0,0,0,0,0,0,0,0,0,0,0,0,0,0,0,0,0,0,0,0,0,0,0,0,0,0,0,0,0,0,0,0,0,0,
0,0,0,0,0,0,0,0,0,0,0,0,0,0,0,0,0,0,0,0,0,0,0,0,0,0,0,0,0,0,0,0,0,0,0,0,0,0,0,0,
0,0,0,0,0,0,0,0,0,0,0,0,0,0,0,0,0,0,0,0,0,0,0,0,0,0,0,0,0,0,0,0,0,0,0,0,0,0,0,0,
0,0,0,0,0,0,0,0,0,0,0,0,0,0,0,0,0,0,0,0,0,0,0,0,0,0,0,0,0,0,0,0,0,0,0,0,0,0,0,0,
0,0,0,0,0,0,0,0,0,0,0,0,0,0,0,0,0,0,0,0,0,0,0,0,0,0,0,0,0,0,0,0,0,0,0,0,0,0,0,0,
0,0,0,0,0,0,0,0,0,0,0,0,0,0,0,0,0,0,0,0,0,0,0,0,0,0,0,0,0,0,0,0,0,0,0,0,0,0,0,0,
0,0,0,0,0,0,0,0,0,0,0,0,0,0,0,0,0,0,0,0,0,0,0,0,0,0,0,0,0,0,0,0,0,0,0,0,0,0,0,0,
0,0,0,0,0,0,0,0,0,0,0,0,0,0,0,0,0,0,0,0,0,0,0,0,0,0,0,0,0,0,0,0,0,0,0,0,0,0,0,0,
0,0,0,0,0,0,0,0,0,0,0,0,0,0,0,0,0,0,0,0,0,0,0,0,0,0,0,0,0,0,0,0,0,0,0,0,0,0,0,0
</data>
 </layer>
 <objectgroup id="2" name="characters">
  <object id="1" name="말캉이-1" type="character" x="912" y="832" width="32" height="32">
   <properties>
    <property name="blocksMovement" type="bool" value="true"/>
    <property name="monster.level" type="int" value="9"/>
    <property name="type" value="monster_slime"/>
   </properties>
  </object>
  <object id="2" name="말캉이-2" type="character" x="1072" y="832" width="32" height="32">
   <properties>
    <property name="blocksMovement" type="bool" value="true"/>
    <property name="monster.level" type="int" value="9"/>
    <property name="type" value="monster_slime"/>
   </properties>
  </object>
  <object id="3" name="말캉이-3" type="character" x="880" y="704" width="32" height="32">
   <properties>
    <property name="blocksMovement" type="bool" value="true"/>
    <property name="monster.level" type="int" value="9"/>
    <property name="type" value="monster_slime"/>
   </properties>
  </object>
  <object id="4" name="말캉이-4" type="character" x="1104" y="672" width="32" height="32">
   <properties>
    <property name="blocksMovement" type="bool" value="true"/>
    <property name="monster.level" type="int" value="9"/>
    <property name="type" value="monster_slime"/>
   </properties>
  </object>
  <object id="5" name="말캉이-5" type="character" x="1008" y="896" width="32" height="32">
   <properties>
    <property name="blocksMovement" type="bool" value="true"/>
    <property name="monster.level" type="int" value="9"/>
    <property name="type" value="monster_slime"/>
   </properties>
  </object>
  <object id="6" name="꿀꿀이-1" type="character" x="304" y="192" width="32" height="32">
   <properties>
    <property name="blocksMovement" type="bool" value="true"/>
    <property name="monster.level" type="int" value="10"/>
    <property name="type" value="monster_pig"/>
   </properties>
  </object>
  <object id="7" name="꿀꿀이-2" type="character" x="944" y="192" width="32" height="32">
   <properties>
    <property name="blocksMovement" type="bool" value="true"/>
    <property name="monster.level" type="int" value="10"/>
    <property name="type" value="monster_pig"/>
   </properties>
  </object>
  <object id="8" name="꿀꿀이대장-보스" type="character" x="624" y="192" width="32" height="32">
   <properties>
    <property name="displayText" value="꿀꿀이 대장"/>
    <property name="blocksMovement" type="bool" value="true"/>
    <property name="monster.level" type="int" value="14"/>
    <property name="type" value="monster_pig"/>
   </properties>
  </object>
  <object id="24" name="꿀꿀이대장-소환-1" type="character" x="336" y="256" width="32" height="32">
   <properties>
    <property name="displayText" value="꿀꿀이 졸개"/>
    <property name="blocksMovement" type="bool" value="true"/>
    <property name="monster.level" type="int" value="12"/>
    <property name="type" value="monster_pig"/>
   </properties>
  </object>
  <object id="25" name="꿀꿀이대장-소환-2" type="character" x="912" y="256" width="32" height="32">
   <properties>
    <property name="displayText" value="꿀꿀이 졸개"/>
    <property name="blocksMovement" type="bool" value="true"/>
    <property name="monster.level" type="int" value="12"/>
    <property name="type" value="monster_pig"/>
   </properties>
  </object>
  <object id="26" name="꿀꿀이대장-소환-3" type="character" x="624" y="288" width="32" height="32">
   <properties>
    <property name="displayText" value="꿀꿀이 졸개"/>
    <property name="blocksMovement" type="bool" value="true"/>
    <property name="monster.level" type="int" value="12"/>
    <property name="type" value="monster_pig"/>
   </properties>
  </object>
  <object id="10" name="수정광맥-1" type="character" x="240" y="512" width="32" height="32">
   <properties>
    <property name="blocksMovement" type="bool" value="true"/>
    <property name="controller.scriptId" value="mine-ore"/>
    <property name="type" value="cave_prop_crystal_a"/>
   </properties>
  </object>
  <object id="11" name="수정광맥-2" type="character" x="336" y="640" width="32" height="32">
   <properties>
    <property name="blocksMovement" type="bool" value="true"/>
    <property name="controller.scriptId" value="mine-ore"/>
    <property name="type" value="cave_prop_crystal_c"/>
   </properties>
  </object>
  <object id="12" name="수정광맥-3" type="character" x="176" y="736" width="32" height="32">
   <properties>
    <property name="blocksMovement" type="bool" value="true"/>
    <property name="controller.scriptId" value="mine-ore"/>
    <property name="type" value="cave_prop_crystal_a"/>
   </properties>
  </object>
  <object id="13" name="수정광맥-4" type="character" x="368" y="800" width="32" height="32">
   <properties>
    <property name="blocksMovement" type="bool" value="true"/>
    <property name="controller.scriptId" value="mine-ore"/>
    <property name="type" value="cave_prop_crystal_c"/>
   </properties>
  </object>
  <object id="14" name="수정광맥-5" type="character" x="208" y="864" width="32" height="32">
   <properties>
    <property name="blocksMovement" type="bool" value="true"/>
    <property name="controller.scriptId" value="mine-ore"/>
    <property name="type" value="cave_prop_crystal_a"/>
   </properties>
  </object>
  <object id="15" name="수정광맥-6" type="character" x="304" y="1056" width="32" height="32">
   <properties>
    <property name="blocksMovement" type="bool" value="true"/>
    <property name="controller.scriptId" value="mine-ore"/>
    <property name="type" value="cave_prop_crystal_c"/>
   </properties>
  </object>
  <object id="16" name="수정광맥-7" type="character" x="848" y="256" width="32" height="32">
   <properties>
    <property name="blocksMovement" type="bool" value="true"/>
    <property name="controller.scriptId" value="mine-ore"/>
    <property name="type" value="cave_prop_crystal_a"/>
   </properties>
  </object>
  <object id="17" name="바위돌이-1" type="character" x="304" y="512" width="32" height="32">
   <properties>
    <property name="blocksMovement" type="bool" value="true"/>
    <property name="monster.level" type="int" value="11"/>
    <property name="type" value="monster_rock"/>
   </properties>
  </object>
  <object id="18" name="바위돌이-2" type="character" x="752" y="256" width="32" height="32">
   <properties>
    <property name="blocksMovement" type="bool" value="true"/>
    <property name="monster.level" type="int" value="11"/>
    <property name="type" value="monster_rock"/>
   </properties>
  </object>
  <object id="19" name="바위돌이-3" type="character" x="464" y="1056" width="32" height="32">
   <properties>
    <property name="blocksMovement" type="bool" value="true"/>
    <property name="monster.level" type="int" value="11"/>
    <property name="type" value="monster_rock"/>
   </properties>
  </object>
  <object id="20" name="버섯돌이-1" type="character" x="1040" y="576" width="32" height="32">
   <properties>
    <property name="blocksMovement" type="bool" value="true"/>
    <property name="monster.level" type="int" value="9"/>
    <property name="type" value="monster_mushroom"/>
   </properties>
  </object>
  <object id="21" name="버섯돌이-2" type="character" x="912" y="544" width="32" height="32">
   <properties>
    <property name="blocksMovement" type="bool" value="true"/>
    <property name="monster.level" type="int" value="9"/>
    <property name="type" value="monster_mushroom"/>
   </properties>
  </object>
  <!-- 광맥 홀 지킴이(q009: 광석을 캐며 싸운다) -->
  <object id="22" name="버섯돌이-3" type="character" x="272" y="640" width="32" height="32">
   <properties>
    <property name="blocksMovement" type="bool" value="true"/>
    <property name="monster.level" type="int" value="10"/>
    <property name="type" value="monster_mushroom"/>
   </properties>
  </object>
  <object id="23" name="버섯돌이-4" type="character" x="208" y="800" width="32" height="32">
   <properties>
    <property name="blocksMovement" type="bool" value="true"/>
    <property name="monster.level" type="int" value="10"/>
    <property name="type" value="monster_mushroom"/>
   </properties>
  </object>
 </objectgroup>
 <objectgroup id="3" name="portals">
  <object id="9" name="return_gate" type="portal" x="928" y="1152" width="32" height="64">
   <properties>
    <property name="appearanceType" value="stairs_stone_step_base_00"/>
    <property name="targetFacing" value="down"/>
    <property name="targetSceneId" value="cave"/>
    <property name="targetSpawnTileX" type="int" value="29"/>
    <property name="targetSpawnTileY" type="int" value="3"/>
   </properties>
  </object>
 </objectgroup>
</map>
