<?xml version="1.0" encoding="UTF-8"?>
<map version="1.10" tiledversion="1.12.1" orientation="orthogonal" renderorder="right-down" width="44" height="36" tilewidth="32" tileheight="32" infinite="0" nextlayerid="17" nextobjectid="40">
<!-- scripts/generate-frost-village.py 가 생성한다. 손으로 고치지 말고 스크립트를 고친 뒤 다시 돌릴 것. -->
 <tileset firstgid="1" source="../tilesets/town-32.tsx"/>
 <tileset firstgid="1801" source="../tilesets/biome-snow.tsx"/>
 <layer id="10" name="ground" width="44" height="36">
  <data encoding="csv">
1802,1802,1801,1801,1801,1802,1801,1801,1802,1802,1801,1801,1802,1802,1801,1801,1802,1801,1801,1801,1802,1802,1801,1801,1802,1801,1801,1801,1802,1801,1801,1801,1802,1801,1801,1801,1802,1801,1801,1801,1802,1801,1801,1801,
1802,1802,1801,1801,1802,1802,1801,1801,1802,1802,1801,1801,1802,1802,1801,1801,1802,1802,1801,1801,1802,1802,1801,1801,1802,1802,1801,1801,1802,1802,1801,1801,1802,1802,1801,1801,1802,1802,1801,1801,1801,1802,1801,1801,
1801,1801,1802,1802,1802,1801,1802,1802,1801,1801,1802,1802,1801,1801,1802,1802,1801,1802,1802,1802,1801,1802,1802,1802,1801,1802,1801,1802,1801,1802,1801,1802,1801,1802,1801,1802,1801,1802,1801,1802,1801,1802,1801,1802,
1801,1801,1801,1801,1801,1801,1801,1801,1801,1801,1801,1801,1801,1801,1801,1801,1801,1801,1801,1801,1801,1801,1801,1801,1801,1801,1801,1802,1801,1801,1801,1802,1801,1801,1801,1802,1801,1801,1801,1802,1801,1801,1801,1802,
1801,1801,1802,1802,1801,1801,1801,1801,1801,1801,1802,1802,1801,1801,1801,1801,1801,1801,1802,1802,1801,1801,1801,1801,1801,1801,1802,1802,1801,1801,1802,1801,1801,1801,1802,1801,1801,1801,1802,1801,1801,1802,1802,1801,
1801,1801,1802,1802,1801,1801,1802,1802,1801,1801,1802,1802,1801,1801,1802,1802,1801,1801,1801,1802,1801,1801,1802,1802,1801,1801,1801,1802,1801,1801,1802,1802,1801,1801,1801,1802,1801,1801,1802,1801,1801,1801,1801,1802,
1801,1801,1801,1801,1801,1801,1801,1801,1801,1801,1801,1801,1801,1801,1801,1801,1801,1801,1801,1801,1801,1801,1801,1801,1802,1801,1801,1801,1801,1801,1801,1801,1802,1801,1801,1801,1801,1801,1801,1801,1802,1801,1801,1801,
1802,1801,1801,1801,1801,1802,1801,1801,1802,1801,1802,1801,1801,1802,1801,1801,1802,1801,1802,1801,1801,1802,1801,1801,1802,1801,1802,1801,1801,1802,1801,1801,1802,1801,1802,1801,1801,1801,1801,1801,1802,1801,1802,1801,
1802,1801,1801,1801,1801,1802,1801,1801,1801,1802,1801,1801,1802,1801,1801,1801,1802,1801,1801,1801,1801,1802,1801,1801,1801,1802,1801,1802,1802,1801,1801,1802,1801,1801,1801,1801,1801,1802,1801,1801,1801,1802,1801,1802,
1801,1801,1801,1801,1801,1801,1801,1801,1802,1801,1801,1801,1801,1801,1801,1801,1801,1801,1801,1801,1802,1801,1801,1801,1802,1802,1801,1801,1801,1801,1801,1801,1801,1801,1801,1801,1802,1802,1801,1801,1802,1802,1802,1801,
1801,1802,1802,1801,1802,1801,1801,1801,1802,1801,1801,1802,1801,1802,1802,1802,1801,1802,1802,1801,1803,1803,1803,1801,1802,1801,1801,1801,1801,1802,1802,1801,1801,1802,1802,1801,1802,1801,1801,1801,1801,1801,1801,1801,
1801,1801,1802,1801,1802,1801,1801,1801,1802,1801,1801,1802,1801,1802,1802,1802,1801,1802,1802,1801,1803,1803,1803,1801,1801,1801,1801,1802,1801,1802,1802,1802,1801,1802,1801,1801,1801,1801,1801,1801,1801,1801,1801,1802,
1801,1802,1801,1801,1802,1801,1802,1802,1801,1801,1801,1801,1801,1801,1801,1801,1801,1802,1802,1802,1803,1803,1803,1802,1801,1801,1801,1801,1801,1801,1801,1801,1801,1802,1802,1802,1801,1801,1802,1802,1801,1801,1801,1801,
1801,1801,1802,1801,1801,1801,1802,1801,1801,1801,1801,1802,1801,1801,1801,1801,1802,1801,1802,1801,1803,1803,1803,1802,1801,1801,1801,1801,1801,1801,1801,1801,1802,1802,1802,1801,1801,1801,1801,1802,1801,1801,1801,1801,
1802,1801,1801,1802,1801,1802,1801,1801,1801,1801,1802,1801,1801,1801,1801,1801,1802,1801,1801,1801,1803,1803,1803,1801,1801,1801,1802,1801,1801,1801,1801,1801,1802,1801,1801,1801,1801,1802,1801,1801,1801,1801,1802,1801,
1802,1801,1801,1802,1801,1802,1801,1801,1801,1802,1802,1801,1802,1801,1801,1801,1802,1801,1801,1802,1803,1803,1803,1803,1801,1801,1802,1801,1802,1801,1801,1801,1801,1801,1801,1802,1801,1803,1803,1803,1803,1803,1803,1803,
1801,1801,1802,1802,1801,1801,1801,1801,1801,1801,1801,1801,1801,1801,1801,1802,1801,1801,1801,1803,1803,1803,1803,1803,1803,1803,1802,1802,1801,1801,1802,1801,1803,1803,1803,1803,1803,1803,1803,1803,1803,1803,1803,1803,
1801,1801,1802,1801,1801,1801,1802,1803,1803,1803,1803,1802,1801,1801,1802,1802,1801,1801,1803,1803,1803,1803,1803,1803,1803,1803,1801,1802,1801,1803,1803,1803,1803,1803,1803,1803,1803,1803,1803,1803,1803,1803,1803,1803,
1801,1801,1801,1801,1801,1801,1801,1803,1803,1803,1803,1803,1803,1803,1803,1803,1803,1803,1803,1803,1803,1803,1803,1803,1803,1803,1803,1803,1803,1803,1803,1803,1803,1803,1803,1803,1803,1801,1801,1801,1801,1801,1801,1801,
1801,1801,1801,1802,1801,1801,1801,1803,1803,1803,1803,1803,1803,1803,1803,1803,1803,1803,1803,1803,1803,1803,1803,1803,1803,1803,1803,1803,1803,1803,1803,1803,1803,1801,1802,1801,1801,1801,1801,1801,1801,1801,1801,1801,
1801,1801,1801,1801,1801,1802,1802,1801,1802,1801,1801,1803,1803,1803,1803,1803,1803,1803,1803,1803,1803,1803,1803,1803,1803,1803,1803,1803,1803,1801,1801,1802,1802,1801,1801,1801,1801,1801,1801,1802,1802,1801,1801,1801,
1802,1801,1801,1801,1801,1802,1801,1801,1802,1801,1801,1801,1802,1801,1801,1801,1801,1803,1803,1803,1803,1803,1803,1803,1803,1803,1803,1801,1802,1802,1801,1801,1802,1801,1802,1801,1802,1802,1801,1801,1801,1801,1801,1801,
1802,1802,1801,1801,1802,1801,1801,1802,1801,1802,1802,1802,1801,1801,1802,1802,1801,1801,1803,1803,1803,1803,1803,1803,1803,1803,1801,1801,1802,1802,1801,1801,1801,1801,1801,1801,1802,1802,1802,1801,1801,1801,1801,1802,
1801,1802,1801,1801,1802,1801,1802,1802,1801,1802,1801,1801,1801,1801,1802,1801,1801,1801,1803,1803,1803,1803,1803,1803,1803,1803,1801,1801,1801,1801,1801,1802,1801,1802,1801,1801,1801,1801,1802,1802,1801,1802,1801,1802,
1801,1802,1801,1801,1802,1801,1802,1802,1802,1801,1802,1801,1801,1801,1801,1801,1801,1801,1801,1802,1803,1803,1803,1803,1801,1801,1801,1801,1801,1802,1802,1801,1801,1802,1802,1802,1801,1801,1802,1801,1801,1801,1802,1801,
1801,1801,1802,1801,1801,1801,1802,1802,1801,1801,1802,1801,1801,1801,1801,1802,1802,1801,1801,1802,1801,1803,1803,1803,1801,1801,1801,1802,1801,1802,1802,1801,1801,1802,1802,1801,1801,1801,1801,1802,1801,1801,1801,1801,
1801,1801,1801,1802,1801,1801,1801,1801,1801,1801,1801,1801,1802,1801,1801,1801,1802,1801,1801,1801,1801,1803,1803,1803,1801,1802,1802,1801,1801,1801,1801,1801,1802,1801,1801,1801,1801,1801,1801,1801,1801,1801,1801,1802,
1802,1801,1801,1802,1801,1802,1801,1801,1801,1802,1801,1801,1802,1801,1801,1801,1801,1801,1801,1801,1801,1803,1803,1803,1801,1802,1802,1801,1802,1801,1801,1801,1802,1801,1801,1802,1801,1801,1802,1801,1801,1801,1802,1801,
1802,1801,1801,1801,2029,2029,2029,2029,2029,1801,1801,1802,1802,1802,1802,1801,1801,1801,1801,1801,1801,1803,1803,1803,1802,1802,1802,1801,1802,1801,1801,1802,1802,1801,1801,1801,1801,1802,1801,1801,1801,1801,1801,1802,
1801,1801,1801,2029,2029,2029,2029,2029,2029,2029,1801,1801,1801,1802,1802,1801,1801,1801,1801,1801,1802,1803,1803,1803,1802,1802,1802,1801,1802,1801,1801,1802,1801,1801,1801,1801,1801,1802,1801,1801,1802,1801,1801,1802,
1801,1801,2029,2029,2029,2029,2029,2029,2029,2029,1801,1801,1801,1801,1801,1802,1801,1802,1802,1801,1802,1803,1803,1803,1801,1801,1801,1802,1801,1802,1802,1801,1801,1801,1801,1801,1802,1801,1801,1802,1802,1802,1801,1801,
1801,1802,2029,2029,2029,2029,2029,2029,2029,2029,1801,1802,1801,1801,1801,1802,1801,1802,1802,1801,1801,1803,1803,1803,1801,1801,1801,1801,1801,1802,1801,1801,1801,1801,1801,1801,1802,1801,1801,1802,1801,1802,1801,1801,
1802,1801,1801,2029,2029,2029,2029,2029,2029,2029,1801,1802,1801,1801,1801,1801,1801,1802,1801,1801,1801,1803,1803,1803,1801,1801,1801,1801,1801,1801,1801,1801,1801,1802,1801,1802,1801,1802,1801,1802,1801,1801,1801,1801,
1801,1801,1801,1801,2029,2029,2029,2029,2029,1801,1801,1801,1801,1801,1801,1801,1801,1801,1801,1801,1801,1803,1803,1803,1802,1801,1802,1801,1801,1801,1801,1801,1802,1802,1801,1801,1802,1801,1802,1801,1801,1801,1801,1801,
1801,1802,1801,1801,1801,1802,1801,1801,1802,1801,1801,1801,1802,1802,1801,1801,1801,1801,1802,1801,1801,1803,1803,1803,1802,1801,1801,1801,1801,1802,1801,1801,1802,1801,1802,1801,1802,1801,1801,1801,1801,1801,1802,1801,
1801,1802,1801,1801,1801,1802,1802,1801,1802,1801,1801,1802,1802,1802,1801,1801,1801,1801,1802,1801,1801,1803,1803,1803,1802,1802,1801,1801,1801,1802,1801,1801,1801,1801,1802,1801,1801,1801,1801,1802,1801,1802,1802,1801
</data>
 </layer>
 <layer id="11" name="shadow_lower" width="44" height="36">
  <data encoding="csv">
0,0,0,0,0,0,1804,1808,0,0,1806,0,0,0,0,0,0,0,0,0,0,0,0,0,0,0,0,0,0,0,0,0,0,0,0,0,0,0,0,0,0,0,0,0,
0,0,0,0,0,0,0,0,0,0,0,0,0,0,0,0,0,0,0,0,0,0,0,0,0,0,0,0,0,0,0,0,0,0,0,0,0,0,0,0,0,0,0,0,
0,0,0,0,0,0,0,0,0,1804,0,0,0,0,0,0,0,0,0,0,0,0,0,0,0,0,0,1808,0,0,0,0,0,0,1807,0,0,0,0,0,0,0,0,0,
0,2051,0,2053,0,0,0,0,0,0,1808,0,0,0,0,0,0,0,0,0,0,0,0,0,0,0,0,0,0,0,0,0,0,0,0,0,0,0,0,0,0,0,0,0,
0,0,0,0,0,0,0,0,0,0,0,0,0,0,0,0,0,0,0,0,0,0,0,0,0,1808,0,0,0,0,0,0,0,0,0,0,0,1805,0,0,0,0,0,0,
0,0,0,0,0,0,0,0,0,0,1808,0,0,0,0,0,0,0,0,1808,0,0,0,0,0,0,0,0,0,0,0,0,0,0,0,0,0,0,0,0,1808,0,0,0,
2051,0,2053,0,0,0,0,0,0,1804,0,0,0,0,0,0,0,0,1805,0,0,0,0,0,0,0,0,1804,0,0,0,0,0,0,0,0,0,0,0,1807,0,0,0,0,
0,0,0,0,0,0,0,0,0,0,0,0,0,1806,0,1804,0,0,0,0,0,0,0,0,0,0,0,0,0,0,0,0,0,0,0,0,0,0,0,0,0,0,0,0,
2069,2070,0,2072,2073,0,0,0,0,0,0,0,0,0,0,0,0,1807,0,0,0,0,0,0,0,0,0,0,0,0,0,0,0,0,0,0,0,0,0,0,0,0,0,0,
0,0,0,0,0,0,0,1808,0,2139,2140,0,2142,2143,0,0,0,0,0,0,0,0,0,0,2119,2120,0,2122,2123,0,0,0,0,0,0,0,0,0,0,0,0,0,0,0,
2164,2165,0,2167,2168,0,0,1808,0,0,0,0,0,0,0,0,0,0,0,0,1965,1940,1994,0,0,0,0,0,0,0,0,0,0,0,0,0,0,0,0,0,0,0,0,0,
0,0,0,0,0,0,0,0,0,0,0,0,0,0,0,0,0,0,0,0,1956,0,1985,0,0,0,0,0,2069,2070,0,2072,2073,0,0,0,0,0,0,0,0,1805,0,0,
0,2051,1808,2053,0,0,0,0,0,0,0,0,0,0,0,0,0,0,1804,0,1959,0,1989,0,0,0,0,0,0,0,0,0,0,0,0,0,0,0,0,0,0,0,0,0,
0,0,0,0,0,0,0,0,0,1805,0,0,0,0,0,0,0,0,0,0,1959,0,1991,0,0,0,0,0,0,0,0,1804,0,0,0,0,0,0,0,0,0,0,0,0,
0,0,0,1805,0,0,0,0,0,0,0,0,0,0,0,0,0,0,0,0,1960,0,1988,0,0,0,0,0,0,0,0,0,0,0,0,0,0,0,0,0,0,0,0,0,
0,0,0,0,0,0,0,0,0,0,0,0,0,1806,0,0,0,0,0,0,1961,0,1932,1994,0,2184,2185,1804,2187,2188,0,0,0,0,0,0,0,1972,1942,1944,1942,1941,1938,1943,
0,0,0,0,0,0,0,0,0,0,0,0,0,0,0,0,1805,1806,0,1967,1919,0,0,1928,1937,1996,0,0,0,0,0,0,1972,1942,1941,1941,1944,1924,0,0,0,0,0,0,
2094,2095,0,2097,2098,0,0,1969,1938,1943,2001,0,0,0,0,0,0,0,1970,1926,0,0,0,0,0,1987,0,0,0,1968,1941,1938,1922,0,0,0,1976,2008,2007,2003,2002,2008,2007,2009,
0,0,0,0,0,0,0,1959,0,0,1934,1943,1942,1938,1940,1944,1942,1938,1925,0,0,0,0,0,0,1930,1942,1938,1937,1919,0,0,1975,2008,2007,2003,2026,0,0,0,0,0,0,0,
0,0,0,0,0,0,0,2014,2005,2003,2005,1950,0,0,0,0,0,0,0,0,0,0,0,0,0,0,0,0,1977,2009,2004,2008,2025,0,0,0,0,0,0,0,0,2051,0,2053,
0,0,0,0,1804,0,0,0,0,0,0,2016,2010,2007,2003,2005,2006,1953,0,0,0,0,0,0,0,0,1975,2002,2020,0,0,0,0,0,0,0,0,0,0,0,0,0,0,0,
0,0,0,0,0,0,0,0,0,0,0,0,0,0,0,0,0,2017,1946,0,0,0,0,0,0,1982,2025,0,0,0,0,0,0,0,0,0,0,0,0,0,0,0,0,0,
0,0,0,0,0,0,0,0,1807,1805,0,0,0,0,0,0,0,0,1956,0,0,0,0,0,0,1991,0,0,0,0,0,0,0,1807,0,0,2164,2165,0,2167,2168,0,0,0,
0,0,0,0,0,0,0,0,0,0,0,0,2069,2070,0,2072,2073,0,2016,2007,1947,0,0,1974,2002,2023,0,0,2184,2185,0,2187,2188,1807,0,0,0,0,0,0,0,0,1808,0,
0,0,0,0,0,2119,2120,0,2122,2123,0,0,0,0,0,0,0,0,0,0,2012,1950,0,1984,0,0,0,0,0,0,0,0,0,0,0,0,0,0,1806,0,0,0,0,0,
0,0,0,0,0,1807,1805,0,0,0,1805,0,0,0,0,0,0,0,0,0,0,1958,0,1985,0,0,0,0,0,0,0,0,0,0,0,0,0,0,0,0,0,0,0,0,
0,0,0,0,0,0,1807,0,0,0,0,0,0,0,0,0,1804,0,0,0,0,1955,0,1988,0,2164,2165,0,2167,2168,0,0,0,0,0,1807,0,0,0,0,0,0,1805,0,
0,0,0,0,0,1807,1805,1808,0,0,0,0,0,0,0,0,0,1806,0,0,0,1955,0,1989,0,0,0,0,0,0,0,1807,0,0,0,0,0,0,0,0,0,0,0,0,
0,0,0,1808,1861,1832,1828,1827,1889,0,1806,0,0,0,0,0,0,0,0,0,0,1955,0,1992,0,0,0,0,0,0,0,0,1808,1806,0,0,0,0,0,0,0,0,0,0,
0,1804,0,1857,1809,0,0,0,1826,1891,0,0,0,0,1804,0,0,0,0,0,0,1957,0,1990,0,0,0,0,0,0,0,0,0,0,0,0,0,0,0,0,0,0,0,0,
0,0,1855,1815,0,0,0,0,0,1881,0,0,0,0,2069,2070,0,2072,2073,0,0,1963,0,1986,1804,0,0,0,0,0,0,0,0,0,0,0,0,0,0,0,0,0,0,0,
0,0,1902,1840,0,0,0,0,0,1877,0,0,0,0,0,0,0,0,0,0,0,1963,0,1991,0,0,0,0,2119,2120,0,2122,2123,0,0,0,0,0,2051,0,2053,0,0,0,
0,0,0,1906,1844,0,0,0,1872,1912,0,1807,0,1807,0,0,0,0,0,0,0,1963,0,1987,0,0,0,0,0,0,0,0,0,0,0,0,0,0,0,0,0,0,0,0,
0,1804,0,1808,1908,1896,1896,1899,1918,0,0,0,0,0,0,0,2069,2070,0,2072,2073,1962,0,1986,0,1804,0,0,0,0,0,0,0,0,0,0,0,2051,0,2053,0,0,0,0,
0,0,0,0,2119,2120,1805,2122,2123,0,0,0,0,0,0,0,0,0,0,0,0,1959,0,1991,0,0,2164,2165,0,2167,2168,0,2069,2070,0,2072,2073,0,0,0,0,0,0,1807,
0,1808,0,0,0,0,0,0,0,0,0,0,0,0,0,0,0,1807,0,0,0,1959,0,1987,0,0,0,0,0,0,0,0,0,0,0,0,0,0,1807,0,0,2051,0,2053
</data>
 </layer>
 <layer id="12" name="object" width="44" height="36">
  <data encoding="csv">
302,302,302,302,302,302,302,302,302,302,302,302,302,302,302,2196,302,302,302,302,302,302,302,302,302,302,302,302,2196,302,302,302,302,302,302,302,302,302,302,302,302,302,302,302,
2039,2040,2041,0,0,2039,2040,2041,2039,2040,2041,2039,2040,2041,0,0,2039,2040,2041,2039,2040,2041,2039,2040,2041,2039,2040,2041,0,0,0,0,2039,2040,2041,2039,2040,2041,2039,2040,2041,2039,2040,2041,
2200,0,0,0,0,0,0,0,0,0,0,0,0,0,0,0,0,0,0,0,0,0,0,0,0,0,0,0,0,2039,2040,2041,0,0,0,0,0,0,0,0,0,0,0,2201,
302,0,2052,0,2039,2040,2041,0,0,0,0,0,2039,2040,2041,0,0,0,0,0,0,0,0,0,0,0,0,0,0,0,0,0,0,0,0,0,0,0,0,0,2039,2040,2041,2195,
302,0,0,0,0,0,0,0,0,0,0,0,0,0,0,0,0,0,0,0,0,0,0,0,0,0,0,0,0,0,0,0,0,0,0,0,2039,2040,2041,0,0,0,0,302,
302,0,2039,2040,2041,0,0,0,0,0,0,0,0,0,0,0,0,0,0,2207,2207,2207,2207,0,0,0,0,0,0,0,0,0,0,0,0,0,0,0,0,0,2039,2040,2041,302,
302,2052,0,0,0,2039,2040,2041,0,0,0,0,0,2039,2040,2041,0,0,0,2207,2207,2207,2207,0,0,0,0,0,0,0,0,0,0,0,0,0,0,0,0,0,0,0,0,302,
302,0,0,0,0,0,0,0,0,0,0,0,0,0,0,0,0,0,0,2208,2209,2209,2210,0,0,0,0,0,0,0,0,0,0,0,0,0,0,0,0,0,0,2039,2040,2041,
302,0,2071,0,0,0,0,2039,2040,2041,0,0,0,0,0,2039,2040,2041,0,2211,2209,2209,2212,0,0,0,0,0,0,2039,2040,2041,0,0,0,0,0,0,0,0,0,0,0,302,
302,0,0,0,0,0,0,0,0,0,0,2141,0,0,0,0,0,0,0,2211,2209,2209,2212,0,0,0,2121,0,0,0,0,0,0,0,0,0,0,0,0,0,0,2039,2040,2041,
2200,0,2166,0,0,0,0,0,0,0,0,0,0,0,0,0,0,0,0,2213,2214,2214,2215,0,0,0,0,0,0,0,0,0,0,0,0,0,2039,2040,2041,0,0,0,0,2199,
302,0,0,0,0,0,0,0,0,0,0,0,0,0,0,2039,2040,2041,0,0,0,0,0,0,0,0,0,0,0,0,2071,2207,2207,2207,2207,0,0,0,0,0,0,0,0,2200,
302,0,2052,0,0,2207,2207,2207,2207,0,0,0,0,0,0,0,0,0,0,0,0,0,0,0,0,0,2039,2040,2041,0,0,2207,2207,2207,2207,0,0,0,0,0,2039,2040,2041,2201,
302,0,0,0,0,2207,2207,2207,2207,0,0,0,0,0,0,0,0,0,0,0,0,0,0,0,0,0,0,0,0,0,0,2208,2209,2209,2210,0,0,0,0,0,0,0,0,2198,
2039,2040,2041,0,0,2208,2209,2209,2210,0,0,0,0,0,2198,0,0,0,0,0,0,0,0,0,0,0,0,0,0,0,0,2211,2209,2209,2212,0,0,0,0,0,0,0,0,2195,
302,0,0,0,0,2211,2209,2209,2212,0,0,0,2202,0,0,0,0,0,0,0,0,0,0,0,0,0,0,2186,0,0,0,2211,2209,2209,2212,0,0,0,0,0,0,0,0,0,
302,0,0,0,0,2211,2209,2209,2212,0,0,0,0,0,0,0,0,0,0,0,0,0,0,0,0,0,0,0,0,0,0,2213,2214,2214,2215,0,1160,1161,1162,0,0,0,0,0,
2201,0,2096,0,0,2213,2214,2214,2215,0,2202,1190,0,0,0,0,0,0,0,0,0,0,0,0,0,0,0,0,0,0,0,0,0,0,0,0,0,0,0,0,0,0,0,0,
302,0,0,0,0,0,0,0,0,0,0,0,0,0,0,0,0,0,0,0,0,0,0,0,0,0,0,0,0,0,0,0,0,0,0,0,0,0,0,0,0,0,0,302,
302,2039,2040,2041,0,0,0,0,0,0,0,0,0,0,0,0,0,0,0,0,0,0,0,0,0,0,0,0,0,0,0,0,0,0,0,0,0,0,0,0,0,0,2052,302,
302,0,0,0,0,0,0,0,0,0,0,0,0,0,0,0,0,0,0,0,0,0,0,0,0,0,0,0,0,0,0,0,0,0,0,0,0,0,0,0,0,0,0,302,
2039,2040,2041,0,0,0,0,0,0,0,0,0,0,0,0,0,0,0,0,0,0,0,0,0,0,0,0,0,0,0,0,0,0,0,0,0,0,0,0,0,0,0,0,302,
2200,0,0,0,0,0,0,0,0,0,0,0,0,0,0,0,0,0,0,0,0,0,0,0,0,0,0,0,0,0,0,0,0,0,0,0,0,0,2166,0,0,2039,2040,2041,
302,2039,2040,2041,0,0,0,0,2207,2207,2207,2207,0,0,2071,0,0,0,0,0,0,0,0,0,0,0,0,0,0,0,2186,0,0,0,0,0,0,0,0,0,0,0,0,302,
302,0,0,0,0,0,0,2121,2207,2207,2207,2207,0,0,0,0,0,0,0,0,0,0,0,0,0,0,0,0,0,0,0,2207,2207,2207,2207,0,0,0,0,0,2039,2040,2041,302,
302,0,2039,2040,2041,0,0,0,2208,2209,2209,2210,0,0,0,0,0,0,0,0,0,0,0,0,0,0,0,0,0,0,0,2207,2207,2207,2207,0,0,0,0,0,0,0,0,302,
2039,2040,2041,0,0,0,0,0,2211,2209,2209,2212,0,0,0,0,0,0,0,0,0,0,0,0,0,0,0,2166,0,0,0,2208,2209,2209,2210,0,2198,0,0,0,0,2039,2040,2041,
302,302,302,2039,2040,2041,0,2194,2211,2209,2209,2212,0,0,0,0,0,0,0,0,0,0,0,0,0,0,0,0,0,0,0,2211,2209,2209,2212,0,0,0,2039,2040,2041,0,0,302,
2039,2040,2041,302,302,302,302,302,2213,2214,2214,2215,0,0,2039,2040,2041,0,0,0,0,0,0,0,0,0,0,2199,0,0,0,2211,2209,2209,2212,0,0,0,0,0,0,0,0,302,
302,302,302,302,302,302,302,302,302,0,0,0,0,0,0,0,0,0,0,0,0,0,0,0,0,0,0,0,0,0,0,2213,2214,2214,2215,0,0,0,0,2039,2040,2041,0,302,
2039,2040,2041,302,302,302,302,302,302,302,0,0,0,0,0,0,2071,0,0,0,0,0,0,0,0,0,0,0,0,0,0,0,0,0,0,0,0,0,0,0,0,2039,2040,2041,
302,2197,302,302,302,302,302,302,302,302,0,0,0,0,0,0,0,0,0,0,0,0,0,0,0,0,0,0,0,0,2121,0,0,0,0,0,0,0,0,2052,0,0,0,302,
2039,2040,2041,302,302,302,302,302,302,0,0,0,0,0,0,0,0,0,0,0,0,0,0,0,0,2039,2040,2041,0,0,0,0,0,0,0,0,0,0,0,0,0,2039,2040,2041,
302,302,302,302,302,302,302,302,2039,2040,2041,0,0,0,2039,2040,2041,0,2071,0,0,0,0,0,0,0,0,0,0,0,0,2039,2040,2041,0,0,0,0,2052,0,0,0,0,2200,
2039,2040,2041,2039,2040,2041,2121,0,0,0,0,0,2039,2040,2041,0,0,0,2195,0,0,0,0,0,0,0,0,0,2166,2039,2040,2041,2195,302,2071,0,0,0,0,2039,2040,2041,0,2196,
2196,2195,2199,2198,2199,2196,2195,2198,2201,2198,2039,2040,2041,2195,2196,2196,2197,2198,2195,2198,2196,0,0,0,2195,2039,2040,2041,2196,2195,2199,2196,2195,2197,2201,2200,2039,2040,2041,2198,2196,2200,2052,2195
</data>
 </layer>
 <layer id="13" name="shadow_upper" width="44" height="36">
  <data encoding="csv">
0,0,0,0,0,0,0,0,0,0,0,0,0,0,0,0,0,0,0,0,0,0,0,0,0,0,0,0,0,0,0,0,0,0,0,0,0,0,0,0,0,0,0,0,
0,0,0,0,0,0,0,0,0,0,0,0,0,0,0,0,0,0,0,0,0,0,0,0,0,0,0,0,0,0,0,0,0,0,0,0,0,0,0,0,0,0,0,0,
0,0,0,0,0,0,0,0,0,0,0,0,0,0,0,0,0,0,0,0,0,0,0,0,0,0,0,0,0,0,0,0,0,0,0,0,0,0,0,0,0,0,0,0,
0,0,0,0,0,0,0,0,0,0,0,0,0,0,0,0,0,0,0,0,0,0,0,0,0,0,0,0,0,0,0,0,0,0,0,0,0,0,0,0,0,0,0,0,
0,0,0,0,0,0,0,0,0,0,0,0,0,0,0,0,0,0,0,0,0,0,0,0,0,0,0,0,0,0,0,0,0,0,0,0,0,0,0,0,0,0,0,0,
0,0,0,0,0,0,0,0,0,0,0,0,0,0,0,0,0,0,0,0,0,0,0,0,0,0,0,0,0,0,0,0,0,0,0,0,0,0,0,0,0,0,0,0,
0,0,0,0,0,0,0,0,0,0,0,0,0,0,0,0,0,0,0,0,0,0,0,0,0,0,0,0,0,0,0,0,0,0,0,0,0,0,0,0,0,0,0,0,
0,0,0,0,0,0,0,0,0,0,0,0,0,0,0,0,0,0,0,0,0,0,0,2216,0,0,0,0,0,0,0,0,0,0,0,0,0,0,0,0,0,0,0,0,
0,0,0,0,0,0,0,0,0,0,0,0,0,0,0,0,0,0,0,0,0,0,0,2216,0,0,0,0,0,0,0,0,0,0,0,0,0,0,0,0,0,0,0,0,
0,0,0,0,0,0,0,0,0,0,0,0,0,0,0,0,0,0,0,0,0,0,0,2216,0,0,0,0,0,0,0,0,0,0,0,0,0,0,0,0,0,0,0,0,
0,0,0,0,0,0,0,0,0,0,0,0,0,0,0,0,0,0,0,0,0,0,0,2217,0,0,0,0,0,0,0,0,0,0,0,0,0,0,0,0,0,0,0,0,
0,0,0,0,0,0,0,0,0,0,0,0,0,0,0,0,0,0,0,0,0,0,0,0,0,0,0,0,0,0,0,0,0,0,0,0,0,0,0,0,0,0,0,0,
0,0,0,0,0,0,0,0,0,0,0,0,0,0,0,0,0,0,0,0,0,0,0,0,0,0,0,0,0,0,0,0,0,0,0,0,0,0,0,0,0,0,0,0,
0,0,0,0,0,0,0,0,0,0,0,0,0,0,0,0,0,0,0,0,0,0,0,0,0,0,0,0,0,0,0,0,0,0,0,2216,0,0,0,0,0,0,0,0,
0,0,0,0,0,0,0,0,0,2216,0,0,0,0,0,0,0,0,0,0,0,0,0,0,0,0,0,0,0,0,0,0,0,0,0,2216,0,0,0,0,0,0,0,0,
0,0,0,0,0,0,0,0,0,2216,0,0,0,0,0,0,0,0,0,0,0,0,0,0,0,0,0,0,0,0,0,0,0,0,0,2216,0,0,0,0,0,0,0,0,
0,0,0,0,0,0,0,0,0,2216,0,0,0,0,0,0,0,0,0,0,0,0,0,0,0,0,0,0,0,0,0,0,0,0,0,2217,0,0,0,0,0,0,0,0,
0,0,0,0,0,0,0,0,0,2217,0,0,0,0,0,0,0,0,0,0,0,0,0,0,0,0,0,0,0,0,0,0,0,0,0,0,0,0,0,0,0,0,0,0,
0,0,0,0,0,0,0,0,0,0,0,0,0,0,0,0,0,0,0,0,0,0,0,0,0,0,0,0,0,0,0,0,0,0,0,0,0,0,0,0,0,0,0,0,
0,0,0,0,0,0,0,0,0,0,0,0,0,0,0,0,0,0,0,0,0,0,0,0,0,0,0,0,0,0,0,0,0,0,0,0,0,0,0,0,0,0,0,0,
0,0,0,0,0,0,0,0,0,0,0,0,0,0,0,0,0,0,0,0,0,0,0,0,0,0,0,0,0,0,0,0,0,0,0,0,0,0,0,0,0,0,0,0,
0,0,0,0,0,0,0,0,0,0,0,0,0,0,0,0,0,0,0,0,0,0,0,0,0,0,0,0,0,0,0,0,0,0,0,0,0,0,0,0,0,0,0,0,
0,0,0,0,0,0,0,0,0,0,0,0,0,0,0,0,0,0,0,0,0,0,0,0,0,0,0,0,0,0,0,0,0,0,0,0,0,0,0,0,0,0,0,0,
0,0,0,0,0,0,0,0,0,0,0,0,0,0,0,0,0,0,0,0,0,0,0,0,0,0,0,0,0,0,0,0,0,0,0,0,0,0,0,0,0,0,0,0,
0,0,0,0,0,0,0,0,0,0,0,0,0,0,0,0,0,0,0,0,0,0,0,0,0,0,0,0,0,0,0,0,0,0,0,0,0,0,0,0,0,0,0,0,
0,0,0,0,0,0,0,0,0,0,0,0,2216,0,0,0,0,0,0,0,0,0,0,0,0,0,0,0,0,0,0,0,0,0,0,0,0,0,0,0,0,0,0,0,
0,0,0,0,0,0,0,0,0,0,0,0,2216,0,0,0,0,0,0,0,0,0,0,0,0,0,0,0,0,0,0,0,0,0,0,2216,0,0,0,0,0,0,0,0,
0,0,0,0,0,0,0,0,0,0,0,0,2216,0,0,0,0,0,0,0,0,0,0,0,0,0,0,0,0,0,0,0,0,0,0,2216,0,0,0,0,0,0,0,0,
0,0,0,0,0,0,0,0,0,0,0,0,2217,0,0,0,0,0,0,0,0,0,0,0,0,0,0,0,0,0,0,0,0,0,0,2216,0,0,0,0,0,0,0,0,
0,0,0,0,0,0,0,0,0,0,0,0,0,0,0,0,0,0,0,0,0,0,0,0,0,0,0,0,0,0,0,0,0,0,0,2217,0,0,0,0,0,0,0,0,
0,0,0,0,0,0,0,0,0,0,0,0,0,0,0,0,0,0,0,0,0,0,0,0,0,0,0,0,0,0,0,0,0,0,0,0,0,0,0,0,0,0,0,0,
0,0,0,0,0,0,0,0,0,0,0,0,0,0,0,0,0,0,0,0,0,0,0,0,0,0,0,0,0,0,0,0,0,0,0,0,0,0,0,0,0,0,0,0,
0,0,0,0,0,0,0,0,0,0,0,0,0,0,0,0,0,0,0,0,0,0,0,0,0,0,0,0,0,0,0,0,0,0,0,0,0,0,0,0,0,0,0,0,
0,0,0,0,0,0,0,0,0,0,0,0,0,0,0,0,0,0,0,0,0,0,0,0,0,0,0,0,0,0,0,0,0,0,0,0,0,0,0,0,0,0,0,0,
0,0,0,0,0,0,0,0,0,0,0,0,0,0,0,0,0,0,0,0,0,0,0,0,0,0,0,0,0,0,0,0,0,0,0,0,0,0,0,0,0,0,0,0,
0,0,0,0,0,0,0,0,0,0,0,0,0,0,0,0,0,0,0,0,0,0,0,0,0,0,0,0,0,0,0,0,0,0,0,0,0,0,0,0,0,0,0,0
</data>
 </layer>
 <layer id="14" name="object_upper" width="44" height="36">
  <data encoding="csv">
2036,2037,2038,2044,2030,2036,2037,2038,2036,2037,2038,2036,2037,2038,2032,0,2036,2037,2038,2036,2037,2038,2036,2037,2038,2036,2037,2038,0,2033,2034,2035,2036,2037,2038,2036,2037,2038,2036,2037,2038,2036,2037,2038,
0,2045,2046,2047,2033,2034,2035,0,0,0,0,0,2033,2034,2035,0,0,0,0,0,0,0,0,0,0,0,0,0,0,2036,2037,2038,0,0,0,0,2030,2031,2032,0,2033,2034,2035,0,
0,2048,2049,2050,2036,2037,2038,0,0,0,0,0,2036,2037,2038,0,0,0,0,0,0,0,0,0,0,0,0,0,0,0,0,0,0,0,0,0,2033,2034,2035,0,2036,2037,2038,0,
2042,2043,2033,2034,2035,2030,2031,2032,0,0,0,0,0,2030,2031,2032,0,0,0,0,0,0,0,0,0,0,0,0,0,0,0,0,0,0,0,0,2036,2037,2038,0,2033,2034,2035,0,
2045,2046,2036,2037,2038,2033,2034,2035,0,0,0,0,0,2033,2034,2035,0,0,0,0,0,0,0,0,0,0,0,0,0,0,0,0,0,0,0,0,0,0,0,0,2036,2037,2038,2032,
2048,2049,2050,2057,2058,2036,2037,2038,2031,2032,0,0,0,2036,2037,2038,2031,2032,0,0,0,0,0,0,2099,2100,2101,2102,2103,2030,2031,2032,0,0,0,0,0,0,0,0,0,2033,2034,2035,
2059,2060,2061,2062,2063,0,0,2033,2034,2035,2125,2126,2127,2128,0,2033,2034,2035,0,0,0,0,0,0,2104,2105,2106,2107,2108,2033,2034,2035,0,0,0,0,0,0,0,0,0,2036,2037,2038,
2064,2065,2066,2067,2068,0,0,2036,2037,2038,2130,2131,2132,2133,0,2036,2037,2038,0,0,0,0,0,0,2109,2110,2111,2112,2113,2036,2037,2038,0,0,0,0,2030,2031,2032,0,0,2033,2034,2035,
2154,2155,2156,2157,2158,0,0,0,0,2134,2135,2136,2137,2138,0,2030,2031,2032,0,0,0,0,0,0,2114,2115,2116,2117,2118,2055,2056,2057,2058,0,0,0,2033,2034,2035,0,0,2036,2037,2038,
2159,2160,2161,2162,2163,0,0,0,0,0,0,0,0,0,0,2033,2034,2035,0,0,0,0,0,0,0,0,2030,2031,2059,2060,2061,2062,2063,0,0,0,2036,2037,2038,0,2030,2031,2032,0,
0,2045,2046,2047,0,0,0,0,0,0,0,0,0,0,0,2036,2037,2038,0,0,0,0,0,0,0,0,2033,2034,2064,2065,2066,2067,2068,0,0,0,0,0,0,0,2033,2034,2035,0,
2030,2048,2049,2050,0,0,0,0,0,0,0,0,0,0,0,0,0,0,0,0,0,0,0,0,0,0,2036,2037,2038,0,0,0,0,0,0,0,0,0,0,0,2036,2037,2038,0,
2033,2034,2035,0,0,0,0,0,0,0,0,0,0,0,0,0,0,0,0,0,0,0,0,0,0,2169,2170,2171,2172,2173,0,0,0,0,0,0,0,0,0,0,0,0,0,0,
2036,2037,2038,2077,2078,0,0,0,0,0,0,0,0,0,0,0,0,0,0,0,0,0,0,0,0,2174,2175,2176,2177,2178,0,0,0,0,0,0,0,0,0,0,0,0,0,0,
2079,2080,2081,2082,2083,0,0,0,0,0,0,0,0,0,0,0,0,0,0,0,0,0,0,0,0,2179,2180,2181,2182,2183,0,0,0,0,0,0,0,0,0,0,0,0,0,0,
2084,2085,2086,2087,2088,0,0,0,0,0,0,0,0,0,0,0,0,0,0,0,0,0,0,0,0,0,0,0,0,0,0,0,0,0,0,0,0,0,0,0,0,0,0,0,
2089,2090,2091,2092,2093,0,0,0,0,0,1187,1188,0,0,0,0,0,0,0,0,0,0,0,0,0,0,0,0,0,0,0,0,0,0,0,0,0,0,0,0,0,2042,2043,2044,
0,2033,2034,2035,0,0,0,0,0,0,0,0,0,0,0,0,0,0,0,0,0,0,0,0,0,0,0,0,0,0,0,0,0,0,0,0,0,0,0,0,0,2045,2046,2047,
2030,2036,2037,2038,0,0,0,0,0,0,0,0,0,0,0,0,0,0,0,0,0,0,0,0,0,0,0,0,0,0,0,0,0,0,0,0,2144,2145,2146,2147,2148,2048,2049,2050,
2033,2034,2035,0,0,0,0,0,0,0,0,0,0,0,0,0,0,0,0,0,0,0,0,0,0,0,0,0,0,0,0,0,0,0,0,0,2149,2150,2151,2152,2153,2030,2031,2032,
2036,2037,2038,2032,0,2099,2100,2101,2102,2103,0,0,2054,2055,2056,2057,2058,0,0,0,0,0,0,0,0,0,0,0,2169,2170,2171,2172,2173,0,0,0,2154,2155,2156,2157,2158,2033,2034,2035,
0,2033,2034,2035,0,2104,2105,2106,2107,2108,0,0,2059,2060,2061,2062,2063,0,0,0,0,0,0,0,0,0,0,0,2174,2175,2176,2177,2178,0,0,0,2159,2160,2161,2162,2163,2036,2037,2038,
0,2036,2037,2038,2032,2109,2110,2111,2112,2113,0,0,2064,2065,2066,2067,2068,0,0,0,0,0,0,0,0,2144,2145,2146,2179,2180,2181,2182,2183,0,0,0,0,0,0,0,2033,2034,2035,0,
2030,2031,2033,2034,2035,2114,2115,2116,2117,2118,0,0,0,0,0,0,0,0,0,0,0,0,0,0,0,2149,2150,2151,2152,2153,0,0,0,0,0,0,0,0,0,0,2036,2037,2038,2032,
2033,2034,2036,2037,2038,2032,0,0,0,0,0,0,0,0,0,0,0,0,0,0,0,0,0,0,0,2154,2155,2156,2157,2158,0,0,0,0,0,0,0,0,2030,2031,2032,2033,2034,2035,
2036,2037,2038,2033,2034,2035,0,0,0,0,0,0,0,0,2030,2031,2032,0,0,0,0,0,0,0,0,2159,2160,2161,2162,2163,0,0,0,0,0,0,0,0,2033,2034,2035,2036,2037,2038,
2033,2034,2035,2036,2037,2038,0,2193,0,0,0,0,0,0,2033,2034,2035,0,0,0,0,0,0,0,0,0,0,0,0,0,0,0,0,0,0,0,0,0,2036,2037,2038,2032,0,0,
2036,2037,2038,0,0,0,0,0,0,0,0,0,0,0,2036,2037,2038,2057,2058,0,0,0,0,0,0,0,0,0,2099,2100,2101,2102,2103,0,0,0,0,0,0,2033,2034,2035,2031,2032,
2033,2034,2035,0,0,0,0,0,0,0,0,0,0,0,2059,2060,2061,2062,2063,0,0,0,0,0,0,0,0,0,2104,2105,2106,2107,2108,0,0,0,0,0,2042,2036,2037,2038,2034,2035,
2036,2037,2038,0,0,0,0,0,0,0,0,0,0,0,2064,2065,2066,2067,2068,0,0,0,0,0,0,2030,2031,2032,2109,2110,2111,2112,2113,0,0,0,0,0,2045,2046,2047,2036,2037,2038,
2033,2034,2035,0,2099,2100,2101,2102,2030,2031,2032,0,0,0,2030,2031,2054,2055,2056,2057,2058,0,0,0,0,2033,2034,2035,2114,2115,2116,2117,2118,2032,0,0,0,2042,2048,2049,2050,2033,2034,2035,
2036,2037,2038,2030,2031,2032,2106,2107,2033,2034,2035,0,2030,2031,2033,2034,2059,2060,2061,2062,2063,0,0,0,0,2036,2037,2038,2151,2152,2153,2033,2034,2035,2056,2057,2058,2045,2046,2047,2031,2036,2037,2038,
2033,2034,2035,2033,2034,2035,2111,2112,2036,2037,2038,2031,2033,2034,2036,2037,2064,2065,2066,2067,2068,0,0,0,0,2030,2154,2155,2156,2157,2158,2036,2037,2038,2061,2062,2063,2048,2049,2050,2034,2035,2043,2044,
2036,2037,2038,2036,2037,2038,2116,2117,2118,0,2033,2034,2036,2037,2038,0,0,0,0,0,0,0,0,0,0,2033,2159,2160,2161,2162,2163,2038,2064,2065,2066,2067,2068,2034,2035,2036,2037,2038,2046,2047,
0,0,0,0,0,0,0,0,0,0,2036,2037,2038,0,0,0,0,0,0,0,0,0,0,0,0,2036,2037,2038,0,0,0,0,0,0,0,0,2036,2037,2038,0,0,2048,2049,2050,
0,0,0,0,0,0,0,0,0,0,0,0,0,0,0,0,0,0,0,0,0,0,0,0,0,0,0,0,0,0,0,0,0,0,0,0,0,0,0,0,0,0,0,0
</data>
 </layer>
 <layer id="15" name="deco" width="44" height="36">
  <data encoding="csv">
0,2042,2043,0,0,2031,2032,0,0,0,0,0,2030,2031,0,0,0,0,0,0,0,0,0,0,0,0,0,0,0,0,0,0,0,0,0,0,0,0,0,0,2030,2031,2032,0,
0,0,0,0,0,0,0,0,0,0,0,0,0,0,0,0,0,0,0,0,0,0,0,0,0,0,0,0,0,0,0,0,0,0,0,0,0,0,0,0,0,0,0,0,
0,0,2030,2031,2032,0,0,0,0,0,0,0,0,0,0,0,0,0,0,0,0,0,0,0,0,0,0,0,0,0,0,0,0,0,0,0,0,0,0,0,2030,2031,2032,0,
0,0,2044,0,0,0,0,0,0,0,0,0,0,0,0,0,0,0,0,0,0,0,0,0,0,0,0,0,0,0,0,0,0,0,0,0,0,0,0,0,0,0,0,0,
0,0,2047,0,0,0,0,0,0,0,0,0,0,0,0,0,0,0,0,0,0,0,0,0,0,0,0,0,0,0,0,0,0,0,0,0,0,0,0,0,0,2030,2031,0,
2054,2055,2056,0,0,0,0,2030,0,0,0,0,0,0,0,2030,0,0,0,0,0,0,0,0,0,0,0,0,0,0,0,0,0,0,0,0,0,0,0,0,0,0,0,0,
2144,2145,2146,2147,2148,0,0,0,0,2124,0,0,0,0,0,0,0,0,0,0,0,0,0,0,0,0,0,0,0,0,0,0,0,0,0,0,0,0,0,0,0,2030,2031,2032,
2149,2150,2151,2152,2153,0,0,0,0,2129,0,0,0,0,0,0,0,0,0,0,2218,0,0,0,0,0,0,0,0,0,0,0,0,0,0,0,0,0,0,0,0,0,0,0,
0,0,0,0,0,0,0,0,0,0,0,0,0,0,0,0,0,0,0,0,2219,0,0,0,0,0,0,0,2054,0,0,0,0,0,0,0,0,0,0,0,0,0,0,0,
0,2042,2043,2044,0,0,0,0,0,0,0,0,0,0,0,0,0,0,0,0,2220,2221,2222,0,0,0,0,0,2032,0,0,0,0,0,0,0,0,0,0,0,0,0,0,0,
0,0,0,0,0,0,0,0,0,0,0,0,0,0,0,0,0,0,0,0,2223,2224,2225,0,0,0,0,0,2035,0,0,0,0,0,0,0,0,0,0,0,0,0,0,0,
0,2031,2032,0,0,0,0,0,0,0,0,0,0,0,0,0,0,0,0,0,0,0,0,0,0,0,0,0,0,0,0,0,0,0,0,0,0,0,0,0,0,0,0,0,
0,0,0,0,0,0,0,0,0,0,0,0,0,0,0,0,0,0,0,0,0,0,0,0,0,0,0,0,0,0,0,0,0,0,0,0,0,0,0,0,0,0,0,0,
2074,2075,2076,0,0,0,0,0,0,0,0,0,0,0,0,0,0,0,0,0,0,0,0,0,0,0,0,0,0,0,0,0,2218,0,0,0,0,0,0,0,0,0,0,0,
0,0,0,0,0,0,2218,0,0,0,0,0,0,0,0,0,0,0,0,0,0,0,0,0,0,0,0,0,0,0,0,0,2219,0,0,0,0,0,0,0,0,0,0,0,
0,0,0,0,0,0,2219,0,0,0,0,0,0,0,0,0,0,0,0,0,0,0,0,0,0,0,0,0,0,0,0,0,2220,2221,2222,0,0,0,0,0,0,0,0,0,
0,2030,2031,2032,0,0,2220,2221,2222,0,0,0,0,0,0,0,0,0,0,0,0,0,0,0,0,0,0,0,0,0,0,0,2223,2224,2225,0,0,0,0,0,0,0,0,0,
0,0,0,0,0,0,2223,2224,2225,0,0,0,0,0,0,0,0,0,0,0,0,0,0,0,0,0,0,0,0,0,0,0,0,0,0,0,0,0,0,0,0,0,0,0,
0,2031,2032,0,0,0,0,0,0,0,0,0,0,0,0,0,0,0,0,0,0,0,0,0,0,0,0,0,0,0,0,0,0,0,0,0,0,0,0,0,0,0,0,0,
0,0,0,0,0,0,0,0,0,0,0,0,0,0,0,0,0,0,0,0,0,0,0,0,0,0,0,0,0,0,0,0,0,0,0,0,0,0,0,0,0,0,0,0,
0,2030,2031,0,0,0,0,0,0,0,0,0,0,0,0,0,0,0,0,0,0,0,0,0,0,0,0,0,0,0,0,0,0,0,0,0,0,0,0,0,0,0,0,0,
0,0,0,0,0,0,0,0,0,0,0,0,0,0,0,0,0,0,0,0,0,0,0,0,0,0,0,0,0,0,0,0,0,0,0,0,0,0,0,0,2030,2031,2032,0,
0,0,2030,2031,0,0,0,0,0,0,0,0,0,0,0,0,0,0,0,0,0,0,0,0,0,0,0,0,2147,2148,0,0,0,0,0,0,0,0,0,0,0,0,0,0,
0,0,2032,0,0,0,0,0,0,0,0,0,0,0,0,0,0,0,0,0,0,0,0,0,0,0,0,0,0,0,0,0,0,0,0,0,0,0,0,0,0,2030,2031,0,
0,0,2035,2030,2031,0,0,0,0,0,0,0,0,0,0,0,0,0,0,0,0,0,0,0,0,0,0,0,0,0,0,0,0,0,0,0,0,0,0,0,0,0,0,0,
2030,2031,2032,0,0,0,0,0,0,2218,0,0,0,0,0,0,0,0,0,0,0,0,0,0,0,0,0,0,0,0,0,0,0,0,0,0,0,0,0,0,0,0,0,0,
0,0,0,0,0,0,0,0,0,2219,0,0,0,0,0,0,0,0,0,0,0,0,0,0,0,0,0,0,0,0,0,0,2218,0,0,0,0,0,0,2030,2031,0,0,0,
2030,2031,2032,0,0,0,0,0,0,2220,2221,2222,0,0,2054,2055,2056,0,0,0,0,0,0,0,0,0,0,0,0,0,0,0,2219,0,0,0,0,0,0,0,0,2030,0,0,
0,0,0,0,0,0,0,0,0,2223,2224,2225,0,0,0,0,0,0,0,0,0,0,0,0,0,0,0,0,0,0,0,0,2220,2221,2222,0,0,0,0,2043,2044,2033,0,0,
2030,2031,2032,0,0,0,0,0,0,0,0,0,0,0,0,0,0,0,0,0,0,0,0,0,0,0,0,0,0,0,0,0,2223,2224,2225,0,0,0,0,0,0,2030,2031,2032,
0,0,0,0,0,0,0,0,2103,0,0,0,0,0,0,0,2032,0,0,0,0,0,0,0,0,0,2144,2145,2146,2147,2148,2030,2031,0,0,0,0,0,2043,2044,0,0,0,0,
2030,2031,2032,0,2104,2105,0,0,2108,0,0,0,0,0,2032,0,2035,0,0,0,0,0,0,0,0,0,2149,2150,0,2030,2031,2032,2054,2055,0,0,0,0,0,2030,0,2032,0,0,
0,0,0,0,2109,2110,0,0,2113,0,2030,0,2032,0,2035,0,2038,0,0,0,0,0,0,0,0,0,2031,2032,0,2033,2034,2035,2059,2060,0,0,2030,2031,2032,2033,0,2042,0,0,
0,0,0,0,2114,2115,0,0,0,0,0,0,2035,0,0,0,0,0,0,0,0,0,0,0,0,0,2034,2035,0,2036,2037,0,0,0,0,0,2033,0,0,0,0,2045,0,0,
0,0,0,0,0,0,0,0,0,0,0,0,0,0,0,0,0,0,0,0,0,0,0,0,0,0,0,0,0,0,0,0,0,0,0,0,0,0,0,0,0,0,0,0,
0,0,0,0,0,0,0,0,0,0,0,0,0,0,0,0,0,0,0,0,0,0,0,0,0,0,0,0,0,0,0,0,0,0,0,0,0,0,0,0,0,0,0,0
</data>
 </layer>
 <layer id="16" name="roof" width="44" height="36">
  <data encoding="csv">
0,0,0,0,0,0,0,0,0,0,0,0,0,0,0,0,0,0,0,0,0,0,0,0,0,0,0,0,0,0,0,0,0,0,0,0,0,0,0,0,0,0,0,0,
0,0,0,0,0,0,0,0,0,0,0,0,0,0,0,0,0,0,0,0,0,0,0,0,0,0,0,0,0,0,0,0,0,0,0,0,0,0,0,0,0,0,0,0,
0,0,0,0,0,0,0,0,0,0,0,0,0,0,0,0,0,0,0,0,0,0,0,0,0,0,0,0,0,0,0,0,0,0,0,0,0,0,0,0,0,0,0,0,
0,0,0,0,0,0,0,0,0,0,0,0,0,0,0,0,0,0,0,2226,2227,2228,2229,0,0,0,0,0,0,0,0,0,0,0,0,0,0,0,0,0,0,0,0,0,
0,0,0,0,0,0,0,0,0,0,0,0,0,0,0,0,0,0,0,2230,2231,2232,2233,0,0,0,0,0,0,0,0,0,0,0,0,0,0,0,0,0,0,0,0,0,
0,0,0,0,0,0,0,0,0,0,0,0,0,0,0,0,0,0,0,2234,2235,2236,2237,0,0,0,0,0,0,0,0,0,0,0,0,0,0,0,0,0,0,0,0,0,
0,0,0,0,0,0,0,0,0,0,0,0,0,0,0,0,0,0,0,2238,2239,2240,2241,0,0,0,0,0,0,0,0,0,0,0,0,0,0,0,0,0,0,0,0,0,
0,0,0,0,0,0,0,0,0,0,0,0,0,0,0,0,0,0,0,2242,2243,2244,2245,0,0,0,0,0,0,0,0,0,0,0,0,0,0,0,0,0,0,0,0,0,
0,0,0,0,0,0,0,0,0,0,0,0,0,0,0,0,0,0,0,0,0,0,0,0,0,0,0,0,0,0,0,0,0,0,0,0,0,0,0,0,0,0,0,0,
0,0,0,0,0,0,0,0,0,0,0,0,0,0,0,0,0,0,0,0,0,0,0,0,0,0,0,0,0,0,0,2226,2227,2228,2229,0,0,0,0,0,0,0,0,0,
0,0,0,0,0,2226,2227,2228,2229,0,0,0,0,0,0,0,0,0,0,0,0,0,0,0,0,0,0,0,0,0,0,2230,2231,2232,2233,0,0,0,0,0,0,0,0,0,
0,0,0,0,0,2230,2231,2232,2233,0,0,0,0,0,0,0,0,0,0,0,0,0,0,0,0,0,0,0,0,0,0,2234,2235,2236,2237,0,0,0,0,0,0,0,0,0,
0,0,0,0,0,2234,2235,2236,2237,0,0,0,0,0,0,0,0,0,0,0,0,0,0,0,0,0,0,0,0,0,0,2238,2239,2240,2241,0,0,0,0,0,0,0,0,0,
0,0,0,0,0,2238,2239,2240,2241,0,0,0,0,0,0,0,0,0,0,0,0,0,0,0,0,0,0,0,0,0,0,2242,2243,2244,2245,0,0,0,0,0,0,0,0,0,
0,0,0,0,0,2242,2243,2244,2245,0,0,0,0,0,0,0,0,0,0,0,0,0,0,0,0,0,0,0,0,0,0,0,0,0,0,0,0,0,0,0,0,0,0,0,
0,0,0,0,0,0,0,0,0,0,0,0,0,0,0,0,0,0,0,0,0,0,0,0,0,0,0,0,0,0,0,0,0,0,0,0,0,0,0,0,0,0,0,0,
0,0,0,0,0,0,0,0,0,0,0,0,0,0,0,0,0,0,0,0,0,0,0,0,0,0,0,0,0,0,0,0,0,0,0,0,0,0,0,0,0,0,0,0,
0,0,0,0,0,0,0,0,0,0,0,0,0,0,0,0,0,0,0,0,0,0,0,0,0,0,0,0,0,0,0,0,0,0,0,0,0,0,0,0,0,0,0,0,
0,0,0,0,0,0,0,0,0,0,0,0,0,0,0,0,0,0,0,0,0,0,0,0,0,0,0,0,0,0,0,0,0,0,0,0,0,0,0,0,0,0,0,0,
0,0,0,0,0,0,0,0,0,0,0,0,0,0,0,0,0,0,0,0,0,0,0,0,0,0,0,0,0,0,0,0,0,0,0,0,0,0,0,0,0,0,0,0,
0,0,0,0,0,0,0,0,0,0,0,0,0,0,0,0,0,0,0,0,0,0,0,0,0,0,0,0,0,0,0,0,0,0,0,0,0,0,0,0,0,0,0,0,
0,0,0,0,0,0,0,0,2226,2227,2228,2229,0,0,0,0,0,0,0,0,0,0,0,0,0,0,0,0,0,0,0,0,0,0,0,0,0,0,0,0,0,0,0,0,
0,0,0,0,0,0,0,0,2230,2231,2232,2233,0,0,0,0,0,0,0,0,0,0,0,0,0,0,0,0,0,0,0,2226,2227,2228,2229,0,0,0,0,0,0,0,0,0,
0,0,0,0,0,0,0,0,2234,2235,2236,2237,0,0,0,0,0,0,0,0,0,0,0,0,0,0,0,0,0,0,0,2230,2231,2232,2233,0,0,0,0,0,0,0,0,0,
0,0,0,0,0,0,0,0,2238,2239,2240,2241,0,0,0,0,0,0,0,0,0,0,0,0,0,0,0,0,0,0,0,2234,2235,2236,2237,0,0,0,0,0,0,0,0,0,
0,0,0,0,0,0,0,0,2242,2243,2244,2245,0,0,0,0,0,0,0,0,0,0,0,0,0,0,0,0,0,0,0,2238,2239,2240,2241,0,0,0,0,0,0,0,0,0,
0,0,0,0,0,0,0,0,0,0,0,0,0,0,0,0,0,0,0,0,0,0,0,0,0,0,0,0,0,0,0,2242,2243,2244,2245,0,0,0,0,0,0,0,0,0,
0,0,0,0,0,0,0,0,0,0,0,0,0,0,0,0,0,0,0,0,0,0,0,0,0,0,0,0,0,0,0,0,0,0,0,0,0,0,0,0,0,0,0,0,
0,0,0,0,0,0,0,0,0,0,0,0,0,0,0,0,0,0,0,0,0,0,0,0,0,0,0,0,0,0,0,0,0,0,0,0,0,0,0,0,0,0,0,0,
0,0,0,0,0,0,0,0,0,0,0,0,0,0,0,0,0,0,0,0,0,0,0,0,0,0,0,0,0,0,0,0,0,0,0,0,0,0,0,0,0,0,0,0,
0,0,0,0,0,0,0,0,0,0,0,0,0,0,0,0,0,0,0,0,0,0,0,0,0,0,0,0,0,0,0,0,0,0,0,0,0,0,0,0,0,0,0,0,
0,0,0,0,0,0,0,0,0,0,0,0,0,0,0,0,0,0,0,0,0,0,0,0,0,0,0,0,0,0,0,0,0,0,0,0,0,0,0,0,0,0,0,0,
0,0,0,0,0,0,0,0,0,0,0,0,0,0,0,0,0,0,0,0,0,0,0,0,0,0,0,0,0,0,0,0,0,0,0,0,0,0,0,0,0,0,0,0,
0,0,0,0,0,0,0,0,0,0,0,0,0,0,0,0,0,0,0,0,0,0,0,0,0,0,0,0,0,0,0,0,0,0,0,0,0,0,0,0,0,0,0,0,
0,0,0,0,0,0,0,0,0,0,0,0,0,0,0,0,0,0,0,0,0,0,0,0,0,0,0,0,0,0,0,0,0,0,0,0,0,0,0,0,0,0,0,0,
0,0,0,0,0,0,0,0,0,0,0,0,0,0,0,0,0,0,0,0,0,0,0,0,0,0,0,0,0,0,0,0,0,0,0,0,0,0,0,0,0,0,0,0
</data>
 </layer>
 <objectgroup id="2" name="characters">
  <!-- 하겐(사냥꾼 대장), 이르마(약재상), 볼크(대장장이), 니나, 주민 둘 / 귀환 표지석, 표지판 -->
  <object id="1" name="hagen" type="character" x="752" y="384" width="32" height="32">
   <properties>
    <property name="blocksMovement" type="bool" value="true"/>
    <property name="controller.dialogueLines" type="list">
     <item value="서리목은 늘 추웠지만 이렇게 눈이 그치지 않은 적은 없었다."/>
     <item value="늑대인간 녀석들이 밤마다 우리를 맴돈다. 조심해라."/>
    </property>
    <property name="controller.scriptId" value="vn-dialogue"/>
    <property name="displayText" value="사냥꾼 대장 하겐"/>
    <property name="type" value="character_adventurer_brown_hair"/>
   </properties>
  </object>
  <object id="2" name="irma" type="character" x="1136" y="576" width="32" height="32">
   <properties>
    <property name="blocksMovement" type="bool" value="true"/>
    <property name="controller.dialogueLines" type="list">
     <item value="생강차 한 잔이면 눈보라 속에서도 한동안은 버틸 수 있어요."/>
     <item value="필요한 게 있으면 골라 보세요."/>
    </property>
    <property name="controller.scriptId" value="vn-dialogue"/>
    <property name="displayText" value="약재상 이르마"/>
    <property name="type" value="character_villager_flower_dress"/>
   </properties>
  </object>
  <object id="3" name="volk" type="character" x="304" y="608" width="32" height="32">
   <properties>
    <property name="blocksMovement" type="bool" value="true"/>
    <property name="controller.dialogueLines" type="list">
     <item value="쇠가 얼어서 망치질이 영 시원찮아."/>
     <item value="얼음 동굴 근처에 좋은 광맥이 있었는데… 트롤 놈들이 차지해 버렸지."/>
    </property>
    <property name="controller.scriptId" value="vn-dialogue"/>
    <property name="displayText" value="대장장이 볼크"/>
    <property name="type" value="character_bearded_apron_man"/>
   </properties>
  </object>
  <object id="4" name="nina" type="character" x="656" y="736" width="32" height="32">
   <properties>
    <property name="blocksMovement" type="bool" value="true"/>
    <property name="controller.dialogueLines" type="list">
     <item value="눈사람 만들어 본 적 있어요? 근데 요즘은 밖에 못 나가게 해요."/>
     <item value="늑대가 무섭대요. 난 안 무서운데."/>
    </property>
    <property name="controller.scriptId" value="vn-dialogue"/>
    <property name="displayText" value="마을 아이 니나"/>
    <property name="type" value="character_villager_flower_dress"/>
   </properties>
  </object>
  <object id="5" name="frost_villager_1" type="character" x="400" y="960" width="32" height="32">
   <properties>
    <property name="blocksMovement" type="bool" value="true"/>
    <property name="controller.dialogueLines" type="list">
     <item value="장작이 금세 바닥나. 눈이 그쳐야 숲에 들어가지."/>
     <item value="호수 쪽에서 밤마다 종소리 같은 게 들려."/>
    </property>
    <property name="controller.scriptId" value="vn-dialogue"/>
    <property name="displayText" value="나무꾼 테오도르"/>
    <property name="type" value="character_commoner_tan_tunic"/>
   </properties>
  </object>
  <object id="6" name="frost_villager_2" type="character" x="1136" y="992" width="32" height="32">
   <properties>
    <property name="blocksMovement" type="bool" value="true"/>
    <property name="controller.dialogueLines" type="list">
     <item value="양이 또 한 마리 사라졌어. 늑대인간 짓이야."/>
     <item value="하겐이 어떻게든 해 주겠지."/>
    </property>
    <property name="controller.scriptId" value="vn-dialogue"/>
    <property name="displayText" value="양치기 마르타"/>
    <property name="type" value="character_elder_gray_hair"/>
   </properties>
  </object>
  <object id="20" name="waystone_frost-village" type="character" x="784" y="576" width="32" height="32">
   <properties>
    <property name="blocksMovement" type="bool" value="true"/>
    <property name="displayText" value="귀환 표지석"/>
    <property name="type" value="cave_prop_obelisk_r1c0"/>
   </properties>
  </object>
  <object id="21" name="waystone_frost-village_top" type="character" x="784" y="544" width="32" height="32">
   <properties>
    <property name="blocksMovement" type="bool" value="false"/>
    <property name="type" value="cave_prop_obelisk_r0c0"/>
   </properties>
  </object>
  <object id="22" name="frost_village_sign" type="character" x="784" y="1056" width="32" height="32">
   <properties>
    <property name="type" value="sign_inn"/>
    <property name="blocksMovement" type="bool" value="false"/>
    <property name="displayText" value="서리목"/>
   </properties>
  </object>
  <object id="23" name="lake_road_sign" type="character" x="1264" y="480" width="32" height="32">
   <properties>
    <property name="type" value="sign_inn"/>
    <property name="blocksMovement" type="bool" value="false"/>
    <property name="displayText" value="얼어붙은 호수 →"/>
   </properties>
  </object>
  <object id="24" name="smithy_sign" type="character" x="336" y="640" width="32" height="32">
   <properties>
    <property name="type" value="sign_inn"/>
    <property name="blocksMovement" type="bool" value="false"/>
    <property name="displayText" value="대장간"/>
   </properties>
  </object>
  <object id="25" name="apothecary_sign" type="character" x="976" y="608" width="32" height="32">
   <properties>
    <property name="type" value="sign_inn"/>
    <property name="blocksMovement" type="bool" value="false"/>
    <property name="displayText" value="약재상"/>
   </properties>
  </object>
 </objectgroup>
 <objectgroup id="3" name="portals">
  <!-- 남쪽 → 고갯길 (24, 2). 동쪽 → 얼어붙은 호수 (2, 20)(q034 후). -->
  <object id="30" name="pass_road" type="portal" x="672" y="1120" width="96" height="32">
   <properties>
    <property name="appearanceType" value="stairs_stone_step_base_00"/>
    <property name="targetFacing" value="down"/>
    <property name="targetSceneId" value="north-pass"/>
    <property name="targetSpawnTileX" type="int" value="24"/>
    <property name="targetSpawnTileY" type="int" value="2"/>
   </properties>
  </object>
  <object id="31" name="lake_road" type="portal" x="1376" y="480" width="32" height="96">
   <properties>
    <property name="appearanceType" value="swamp_deck_h"/>
    <property name="quest.requiresCompleted" value="q034-snowbound-village"/>
    <property name="targetFacing" value="right"/>
    <property name="targetSceneId" value="frozen-lake"/>
    <property name="targetSpawnTileX" type="int" value="2"/>
    <property name="targetSpawnTileY" type="int" value="20"/>
   </properties>
  </object>
 </objectgroup>
</map>
