<?xml version="1.0" encoding="UTF-8"?>
<map version="1.10" tiledversion="1.12.1" orientation="orthogonal" renderorder="right-down" width="56" height="40" tilewidth="32" tileheight="32" infinite="0" nextlayerid="17" nextobjectid="70">
<!-- scripts/generate-frozen-lake.py 가 생성한다. 손으로 고치지 말고 스크립트를 고친 뒤 다시 돌릴 것. -->
 <tileset firstgid="1" source="../tilesets/town-32.tsx"/>
 <tileset firstgid="1801" source="../tilesets/biome-snow.tsx"/>
 <layer id="10" name="ground" width="56" height="40">
  <data encoding="csv">
1802,1802,1801,1801,1801,1802,1801,1801,1802,1802,1801,1801,1802,1802,1801,1801,1802,1801,1801,1801,1802,1802,1801,1801,1802,1801,1801,1801,1802,1801,1801,1801,1802,1801,1801,1801,1802,1801,1801,1801,1802,1801,1801,1801,1802,1801,1801,1801,1802,1801,1801,1801,1802,1801,1801,1801,
1802,1802,1801,1801,1802,1802,1801,1801,1802,1802,1801,1801,1802,1802,1801,1801,1802,1802,1801,1801,1802,1802,1801,1801,1802,1802,1801,1801,1802,1802,1801,1801,1802,1802,1801,1801,1802,1802,1801,1801,1801,1802,1801,1801,1801,1802,1801,1801,1801,1801,1801,1801,1801,1801,1801,1801,
1801,1801,1802,1802,1802,1801,1802,1802,1801,1801,1802,1802,1801,1801,1802,1802,1801,1802,1802,1802,1801,1802,1802,1803,1803,1803,1803,1803,1803,1803,1803,1803,1803,1803,1803,1803,1803,1802,1801,1802,1801,1802,1801,1802,1801,1802,1801,1802,1801,1802,1801,1802,1801,1802,1801,1802,
1801,1801,1801,1801,1801,1801,1801,1801,1801,1801,1801,1801,1801,1801,1801,1801,1801,1803,1803,1803,1803,1803,1803,1803,1803,1803,1803,1803,1803,1803,1803,1803,1803,1803,1803,1803,1803,1803,1803,1803,1803,1803,1801,1802,1801,1801,1801,1802,1801,1802,1801,1802,1801,1801,1801,1802,
1801,1801,1802,1802,1801,1801,1801,1801,1801,1801,1802,1802,1801,1801,1803,1803,1803,1803,1803,1803,1803,1803,1803,1803,1803,1803,1803,1803,1803,1803,1803,1803,1803,1803,1803,1803,1803,1803,1803,1803,1803,1803,1803,1803,1803,1801,1802,1801,1801,1802,1801,1801,1801,1801,1802,1801,
1801,1801,1802,1802,1801,1801,1802,1802,1801,1801,1802,1802,1803,1803,1803,1803,1803,1803,1803,1803,1803,1803,1803,1802,1801,1801,1801,1802,1801,1801,1802,1802,1801,1801,1801,1802,1801,1803,1803,1803,1803,1803,1803,1803,1803,1803,1802,1801,1801,1801,1801,1802,1801,1801,1802,1801,
1801,1801,1801,1801,1801,1801,1801,1801,1801,1801,1801,1803,1803,1803,1803,1803,1803,1803,1801,1801,1801,1801,1801,1801,2029,2029,1801,1801,2029,2029,2029,1801,1802,1801,1801,1801,1801,1801,1801,1801,1802,1803,1803,1803,1803,1803,1803,1803,1802,1801,1802,1801,1801,1801,1801,1801,
1802,1801,1801,1801,1801,1802,1801,1801,1802,1801,1803,1803,1803,1803,1803,1801,1802,1801,1802,1801,1801,1802,2029,2029,2029,2029,2029,2029,2029,2029,2029,2029,2029,2029,2029,2029,1801,1801,1801,1801,1802,1801,1802,1801,1803,1803,1803,1803,1803,1801,1802,1801,1802,1801,1801,1801,
1802,1801,1801,1801,1801,1802,1801,1801,1801,1803,1803,1803,1803,1801,1801,1801,1802,1801,1801,1801,1801,2029,2029,2029,2029,2029,2029,2029,2029,2029,2029,2029,2029,2029,2029,2029,2029,2029,2029,1801,1801,1802,1801,1802,1801,1803,1803,1803,1803,1801,1801,1801,1802,1802,1801,1801,
1801,1801,1801,1801,1801,1801,1801,1801,1802,1803,1803,1803,1801,1801,1801,1801,1801,1801,1801,2029,2029,2029,2029,2029,2029,2029,2029,2029,2029,2029,2029,2029,2029,2029,2029,2029,2029,2029,2029,2029,2029,1802,1802,1801,1801,1801,1803,1803,1803,1803,1801,1801,1802,1802,1802,1801,
1801,1802,1802,1801,1802,1801,1801,1801,1803,1803,1803,1803,1801,1802,1802,1802,1801,1802,2029,2029,2029,2029,2029,2029,2029,2029,2029,2029,2029,2029,2029,2029,2029,2029,2029,2029,2029,2029,2029,2029,2029,1801,1801,1801,1801,1801,1802,1803,1803,1803,1802,1802,1801,1801,1801,1802,
1801,1801,1802,1801,1802,1801,1801,1803,1803,1803,1803,1802,1801,1802,1802,1802,2029,2029,2029,2029,2029,2029,2029,2029,2029,2029,2029,2029,2029,2029,2029,2029,2029,2029,2029,2029,2029,2029,2029,2029,2029,2029,1801,1802,1801,1802,1801,1803,1803,1803,1801,1801,1801,1801,1801,1801,
1801,1802,1801,1801,1802,1801,1802,1803,1803,1803,1803,1801,1801,1801,1801,1801,2029,2029,2029,2029,2029,2029,2029,2029,2029,2029,2029,2029,2029,2029,2029,2029,2029,2029,2029,2029,2029,2029,2029,2029,2029,2029,2029,1801,1801,1801,1801,1801,1803,1803,1803,1802,1801,1801,1801,1801,
1801,1801,1802,1801,1801,1801,1802,1803,1803,1803,1801,1802,1801,1801,1801,2029,2029,2029,2029,2029,2029,2029,2029,2029,2029,2029,2029,2029,2029,2029,2029,2029,2029,2029,2029,2029,2029,2029,2029,2029,2029,2029,2029,1801,1801,1801,1802,1801,1803,1803,1803,1802,1801,1801,1801,1802,
1802,1801,1801,1802,1801,1802,1801,1803,1803,1801,1802,1801,1801,2029,2029,2029,2029,2029,2029,2029,2029,2029,2029,2029,2029,2029,2029,2029,2029,2029,2029,2029,2029,2029,2029,2029,2029,2029,2029,2029,2029,2029,2029,2029,1802,1801,1801,1801,1803,1803,1803,1801,1801,1801,1801,1801,
1802,1801,1801,1802,1801,1802,1801,1801,1801,1802,1802,1801,1802,2029,2029,2029,2029,2029,2029,2029,2029,2029,2029,2029,2029,2029,2029,2029,2029,2029,2029,2029,2029,2029,2029,2029,2029,2029,2029,2029,2029,2029,2029,2029,1802,1801,1801,1801,1801,1803,1803,1801,1801,1802,1802,1801,
1801,1801,1802,1802,1801,1801,1801,1801,1801,1801,1801,1801,1801,2029,2029,2029,2029,2029,2029,2029,2029,2029,2029,2029,2029,2029,2029,2029,1801,2029,2029,2029,2029,2029,2029,2029,2029,2029,2029,2029,2029,2029,2029,2029,2029,1801,1802,1802,1801,1801,1802,1801,1801,1801,1801,1801,
1801,1801,1802,1801,1801,1801,1802,1802,1801,1801,1802,1802,1801,2029,2029,2029,2029,2029,2029,2029,2029,2029,2029,2029,2029,2029,1801,1802,1801,1801,1801,1801,2029,2029,2029,2029,2029,2029,2029,2029,2029,2029,2029,2029,2029,1801,1802,1802,1801,1801,1802,1801,1801,1801,1801,1802,
1801,1801,1801,1801,1801,1801,1801,1801,1801,1801,1801,1801,1801,1801,2029,2029,2029,2029,2029,2029,2029,2029,2029,2029,2029,1801,1801,1801,1801,1801,1801,1801,1801,2029,2029,1801,1801,1801,2029,2029,2029,2029,2029,2029,2029,1801,1801,1801,1802,1801,1801,1801,1802,1801,1802,1801,
1801,1801,1801,1802,1801,1801,1801,1801,1801,1801,1801,1801,1802,1802,1801,2029,2029,1802,1801,1801,1802,1802,1802,1801,1802,1802,1802,1801,1801,1801,1802,1801,1801,1801,1802,1801,1801,1801,1801,1801,1801,1801,1801,1801,1802,1801,1801,1801,1802,1801,1801,1801,1802,1801,1802,1801,
1801,1801,1801,1801,1801,1802,1802,1801,1802,1801,1801,1801,1802,1802,1801,1801,1802,1802,1801,1801,1802,1802,2029,2029,1801,1801,1801,1801,1801,1801,1801,1802,1802,1801,2029,2029,2029,2029,2029,1802,1802,1801,1801,1801,1802,1802,1801,1801,1801,1801,1801,1802,1802,1802,1801,1801,
1802,1801,1801,1801,1801,1802,1801,1801,1802,1801,1801,1801,1802,2029,2029,2029,2029,2029,2029,2029,2029,2029,2029,2029,2029,1802,1801,1801,1802,1802,1801,1801,1802,2029,2029,2029,2029,2029,2029,2029,2029,2029,2029,2029,1801,1802,1801,1801,1801,1802,1801,1801,1801,1802,1801,1801,
1802,1802,1801,1801,1802,1801,1801,1802,1801,1802,1802,1802,1801,2029,2029,2029,2029,2029,2029,2029,2029,2029,2029,2029,2029,2029,1801,1801,1802,1802,1801,1801,2029,2029,2029,2029,2029,2029,2029,2029,2029,2029,2029,2029,2029,1801,1802,1802,1801,1802,1801,1802,1801,1801,1801,1802,
1801,1802,1801,1801,1802,1801,1802,1802,1801,1802,1801,1801,1801,2029,2029,2029,2029,2029,2029,2029,2029,2029,2029,2029,2029,2029,2029,2029,2029,2029,2029,2029,2029,2029,2029,2029,2029,2029,2029,2029,2029,2029,2029,2029,2029,1801,1801,1802,1801,1801,1801,1802,1801,1801,1801,1802,
1801,1802,1801,1801,1802,1801,1802,1802,1802,1801,1802,1801,1801,2029,2029,2029,2029,2029,2029,2029,2029,2029,2029,2029,2029,2029,2029,2029,2029,2029,2029,2029,2029,2029,2029,2029,2029,2029,2029,2029,2029,2029,2029,2029,1801,1801,1801,1801,1802,1802,1801,1801,1801,1801,1801,1802,
1801,1801,1802,1801,1801,1801,1802,1802,1801,1801,1802,1801,1801,1801,2029,2029,2029,2029,2029,2029,2029,2029,2029,2029,2029,2029,2029,2029,2029,2029,2029,2029,2029,2029,2029,2029,2029,2029,2029,2029,2029,2029,2029,2029,1802,1801,1801,1801,1802,1801,1802,1802,1801,1801,1801,1801,
1801,1801,1801,1802,1801,1801,1801,1801,1801,1801,1801,1801,1802,1801,1801,2029,2029,2029,2029,2029,2029,2029,2029,2029,2029,2029,2029,2029,2029,2029,2029,2029,2029,2029,2029,2029,2029,2029,2029,2029,2029,2029,2029,2029,1802,1801,1801,1801,1801,1801,1801,1801,1801,1801,1802,1801,
1802,1801,1801,1802,1801,1802,1801,1801,1801,1802,1801,1801,1802,1801,1801,2029,2029,2029,2029,2029,2029,2029,2029,2029,2029,2029,2029,2029,2029,2029,2029,2029,2029,2029,2029,2029,2029,2029,2029,2029,2029,2029,2029,1801,1801,1801,1801,1801,1801,1801,1801,1801,1802,1802,1801,1802,
1802,1801,1801,1801,1801,1802,1801,1801,1801,1801,1801,1802,1802,1802,1802,1801,2029,2029,2029,2029,2029,2029,2029,2029,2029,2029,2029,2029,2029,2029,2029,2029,2029,2029,2029,2029,2029,2029,2029,2029,2029,1801,1801,1802,1801,1801,1802,1802,1801,1801,1801,1801,1802,1802,1801,1801,
1801,1801,1801,1802,1801,1801,1801,1801,1801,1802,1801,1801,1801,1802,1802,1801,1801,1801,2029,2029,2029,2029,2029,2029,2029,2029,2029,2029,2029,2029,2029,2029,2029,2029,2029,2029,2029,2029,2029,2029,1802,1801,1801,1802,1801,1802,1801,1801,1801,1801,1801,1801,1802,1801,1802,1801,
1801,1801,1802,1801,1801,1801,1802,1802,1802,1802,1801,1801,1801,1801,1801,1802,1801,1802,1802,2029,2029,2029,2029,2029,2029,2029,2029,2029,2029,2029,2029,2029,2029,2029,2029,2029,2029,2029,2029,2029,1802,1802,1801,1801,1801,1802,1801,1801,1801,1801,1802,1802,1801,1801,1801,1802,
1801,1802,1801,1801,1802,1801,1801,1801,1802,1801,1801,1802,1801,1801,1801,1802,1801,1802,1802,1801,2029,2029,2029,2029,2029,2029,2029,2029,2029,2029,2029,2029,2029,2029,2029,2029,2029,1801,1801,1802,1801,1802,1801,1801,1801,1801,1802,1802,1802,1802,1801,1801,1801,1801,1801,1801,
1802,1801,1801,1801,1802,1801,1802,1801,1801,1802,1801,1802,1801,1801,1801,1801,1801,1802,1801,1801,1801,1802,2029,2029,2029,2029,2029,2029,2029,2029,2029,2029,2029,2029,1801,1802,1801,1802,1801,1802,1801,1801,1801,1801,1801,1802,1801,1802,1801,1801,1801,1802,1801,1801,1801,1801,
1801,1801,1801,1801,1801,1801,1801,1801,1801,1801,1801,1801,1801,1801,1801,1801,1801,1801,1801,1801,1801,1801,1801,1801,2029,2029,1802,1801,2029,2029,2029,2029,2029,2029,1801,1801,1802,1801,1802,1801,1801,1801,1801,1801,1801,1802,1801,1802,1802,1801,1802,1802,1802,1801,1802,1801,
1801,1802,1801,1801,1801,1802,1801,1801,1802,1801,1801,1801,1802,1802,1801,1801,1801,1801,1802,1801,1801,1801,1802,1801,1802,1801,1801,1801,1801,1802,1801,1801,1802,1801,1802,1801,1802,1801,1801,1801,1801,1801,1802,1801,1801,1801,1802,1801,1802,1801,1801,1801,1802,1801,1801,1801,
1801,1802,1801,1801,1801,1802,1802,1801,1802,1801,1801,1802,1802,1802,1801,1801,1801,1801,1802,1801,1801,1801,1802,1802,1802,1802,1801,1801,1801,1802,1801,1801,1801,1801,1802,1801,1801,1801,1801,1802,1801,1802,1802,1801,1801,1801,1802,1801,1801,1802,1801,1801,1801,1802,1801,1801,
1801,1802,1801,1801,1801,1801,1801,1802,1801,1801,1801,1801,1802,1801,1802,1802,1801,1801,1801,1801,1801,1801,1801,1801,1801,1802,1801,1802,1801,1801,1802,1802,1801,1801,1802,1801,1802,1801,1801,1801,1802,1802,1802,1802,1801,1801,1801,1801,1801,1802,1801,1801,1801,1802,1801,1801,
1802,1801,1801,1801,1801,1801,1801,1801,1801,1801,1801,1802,1801,1801,1801,1801,1802,1801,1802,1801,1801,1801,1801,1801,1801,1802,1801,1801,1801,1801,1801,1802,1801,1801,1802,1801,1801,1801,1801,1801,1802,1802,1802,1801,1801,1801,1801,1801,1801,1802,1801,1801,1801,1801,1801,1802,
1802,1801,1802,1802,1801,1801,1801,1801,1801,1801,1802,1801,1801,1801,1801,1801,1802,1801,1801,1802,1802,1802,1801,1801,1801,1801,1802,1801,1802,1801,1801,1801,1801,1801,1801,1801,1801,1802,1801,1802,1801,1801,1801,1801,1802,1802,1801,1802,1801,1802,1802,1801,1801,1801,1802,1801,
1802,1801,1802,1802,1802,1801,1801,1802,1801,1802,1802,1801,1801,1801,1802,1802,1801,1802,1801,1802,1802,1802,1801,1801,1801,1801,1801,1802,1802,1801,1802,1801,1801,1802,1801,1801,1801,1802,1802,1801,1801,1801,1801,1802,1802,1802,1801,1801,1801,1801,1801,1801,1801,1801,1802,1801
</data>
 </layer>
 <layer id="11" name="shadow_lower" width="56" height="40">
  <data encoding="csv">
0,0,0,0,0,0,0,0,0,0,0,0,0,0,0,0,0,0,0,0,0,0,0,0,0,0,0,0,0,0,1805,0,0,1804,0,0,0,0,0,0,0,0,0,0,1808,0,0,0,0,0,0,0,0,0,0,0,
0,1804,0,0,0,0,0,0,0,0,0,0,0,0,0,0,0,0,1807,0,0,0,0,0,0,0,0,0,0,0,0,0,0,0,0,0,1807,0,0,0,0,0,0,0,0,1804,1808,0,1808,0,0,0,0,0,0,0,
0,0,0,0,0,0,0,0,0,0,0,0,0,0,0,0,0,0,0,0,0,0,0,1970,1944,1942,1944,1942,1944,1942,1944,1942,1944,1942,1944,1942,1994,0,0,0,1804,0,0,0,0,0,0,0,0,0,0,0,0,0,0,0,
0,0,0,0,0,0,0,0,0,0,0,0,0,0,0,0,0,1969,1944,1942,1938,1940,1944,1927,0,0,0,0,0,0,0,0,0,0,0,0,1928,1940,1944,1939,1943,1998,0,0,0,0,0,0,0,0,0,0,0,0,0,0,
0,0,0,0,0,0,0,0,0,0,0,0,1804,0,1968,1938,1937,1922,0,0,0,0,1979,2003,2008,2010,2007,2006,2003,2008,2007,2003,2008,2010,2007,2006,2003,1949,0,0,0,1932,1941,1941,1997,0,0,0,0,0,0,0,0,0,0,0,
0,0,0,0,0,0,0,0,0,0,0,0,1970,1944,1921,0,0,1977,2009,2004,2005,2009,2028,0,0,0,0,0,0,0,0,0,0,0,0,0,0,2016,2007,2003,2002,1946,0,0,1931,1996,0,0,0,0,0,0,1808,2051,0,2053,
0,0,0,0,0,0,0,0,0,0,0,1965,1925,0,1976,2008,2004,2020,2119,2120,1804,2122,2123,0,1857,1883,0,0,1858,1828,1889,0,1808,0,0,0,0,0,0,0,0,2013,2004,2002,1952,1931,1937,1996,0,0,0,0,0,0,0,0,
0,0,0,0,0,0,0,0,0,0,1970,1920,1980,2004,2026,0,0,0,0,0,0,0,1858,1890,1853,1820,1832,1834,1811,0,1825,1834,1832,1884,1858,1887,0,0,0,0,0,0,1806,0,2018,1947,0,1933,2001,0,0,2164,2165,0,2167,2168,
0,0,0,0,0,1807,0,0,0,1967,1925,1982,2022,0,0,0,1805,0,0,0,0,1857,1809,1824,1815,0,0,0,0,0,2051,0,2053,1819,1810,1877,1863,1829,1883,0,0,0,0,0,0,2012,1953,0,1990,0,0,0,0,0,0,0,
0,0,0,0,0,0,0,0,0,1963,0,1990,0,0,0,1808,0,0,0,1863,1835,1817,0,2119,2120,0,2122,2123,0,0,0,0,0,0,0,1820,1817,0,1819,1834,1891,0,0,0,0,0,2019,1954,1929,2000,0,0,0,0,0,0,
0,0,0,0,0,0,1807,1805,1965,1925,1978,2021,0,0,0,0,0,1807,1861,1817,2139,2140,0,2142,2143,0,0,0,0,0,0,0,0,0,2164,2165,0,2167,2168,0,1880,1806,0,0,0,0,0,1962,0,1992,0,0,0,0,0,0,
0,1807,0,0,0,0,0,1969,1920,0,1987,0,0,0,0,0,1862,1835,1811,0,0,0,0,0,0,0,0,0,0,2184,2185,0,2187,2188,0,0,0,0,0,0,1818,1886,0,0,0,0,0,2014,1949,1991,0,0,0,0,0,0,
0,0,0,0,0,0,0,1959,0,1977,2021,0,0,0,0,0,1849,0,0,0,0,0,0,0,0,0,0,0,0,0,0,0,0,0,0,0,0,0,0,0,0,1822,1884,0,0,1808,0,0,1959,1933,2001,0,0,0,0,0,
0,0,0,0,0,0,0,1960,1978,2021,0,0,0,0,0,1862,1814,0,0,0,0,0,2094,2095,0,2097,2098,0,0,0,0,0,0,2069,2070,0,2072,2073,0,2051,0,2053,1876,0,0,0,0,0,1960,0,1991,0,0,0,0,0,
0,0,0,0,0,0,0,2017,2023,0,0,0,0,1859,1828,1812,0,2119,2120,0,2122,2123,0,0,0,0,0,0,0,0,0,0,0,0,0,0,0,0,0,0,0,0,1824,1886,0,0,0,0,2019,1948,1988,0,0,0,0,0,
0,1806,0,0,0,0,0,0,2139,2140,0,2142,2143,1904,1842,0,0,0,0,0,0,0,0,0,0,0,0,1870,1897,1840,0,0,0,0,0,0,0,0,0,0,0,0,0,1879,0,0,0,0,0,2013,2025,0,0,0,0,0,
0,0,0,0,0,0,0,1806,1806,0,0,0,0,1857,1815,0,0,0,0,0,0,0,0,0,0,1871,1900,1912,1804,1906,1897,1896,1840,0,0,0,2139,2140,0,2142,2143,0,0,1824,1886,0,0,0,0,0,0,0,0,0,0,0,
0,0,0,0,0,0,0,0,0,1808,0,0,0,1909,1841,0,0,0,0,0,0,1868,1840,0,1869,1914,0,0,0,0,0,0,1904,1839,1871,1894,1892,1898,1844,0,0,0,0,0,1878,0,0,0,0,0,0,0,0,0,0,0,
0,0,0,0,0,0,0,0,0,0,0,0,0,0,1905,1840,1869,1893,1892,1898,1897,1914,1905,1899,1918,0,0,0,0,0,0,0,0,1906,1915,0,0,0,1907,1892,1892,1892,1892,1898,1915,0,0,0,0,0,0,0,0,0,0,0,
0,0,0,0,0,0,0,0,0,0,0,0,0,0,0,1906,1918,1807,0,0,0,0,0,0,0,1807,0,0,0,0,0,0,0,0,0,0,0,0,0,0,0,0,0,0,0,0,0,0,0,0,0,0,0,0,0,0,
0,0,0,0,0,0,0,0,0,0,0,0,0,0,0,0,0,0,0,0,0,1805,1856,1886,0,0,0,0,0,0,0,0,0,0,1856,1827,1830,1831,1887,0,0,0,0,0,0,0,0,0,0,0,0,0,0,0,0,0,
0,0,0,0,0,0,0,0,1807,0,0,0,0,1858,1828,1830,1834,1829,1827,1833,1835,1829,1812,1822,1884,0,0,0,0,0,0,0,0,1863,1814,0,0,0,1823,1832,1831,1828,1827,1889,0,0,0,0,0,0,0,0,0,0,0,0,
0,0,0,0,0,0,0,0,2069,2070,0,2072,2073,1903,1838,0,0,0,0,0,0,0,0,0,1820,1888,1808,0,0,0,0,0,1858,1816,0,0,0,0,0,0,0,0,0,1825,1884,0,0,0,0,0,0,0,0,0,0,0,
2051,0,2053,1808,1804,0,0,0,0,0,0,0,0,1861,1811,0,0,0,0,0,0,0,0,0,0,1821,1827,1830,1890,1860,1834,1832,1810,0,0,0,0,0,0,0,0,0,0,1864,1910,0,0,0,0,0,0,0,0,0,0,0,
0,0,0,0,0,0,0,0,0,0,0,0,0,1901,1836,0,0,0,0,0,0,0,0,0,0,0,0,0,1826,1817,0,0,0,0,0,0,0,0,0,0,0,0,0,1874,0,0,0,0,0,0,0,0,0,0,0,0,
0,0,0,0,0,0,0,0,0,0,0,0,0,0,1903,1841,0,0,0,0,0,0,0,0,0,0,0,0,0,0,0,0,0,0,0,0,0,0,0,0,0,0,0,1875,1805,0,0,0,0,0,0,0,0,0,0,0,
1806,0,0,0,0,0,0,0,0,0,0,0,0,0,0,1849,0,0,0,0,0,0,0,0,0,0,0,0,0,0,0,0,0,0,0,0,0,0,0,0,0,0,1870,1915,0,0,0,0,1804,0,0,0,0,0,0,0,
2164,2165,1804,2167,2168,0,0,0,0,0,0,0,0,0,0,1905,1837,0,0,0,0,0,0,0,0,0,0,0,0,0,0,0,0,0,0,0,0,0,0,0,1868,1899,1912,0,0,0,1808,0,0,0,1806,0,0,0,0,0,
0,0,0,1806,0,0,0,0,0,0,0,0,0,0,0,0,1902,1896,1840,0,0,0,0,0,0,0,0,0,0,0,0,0,0,0,0,0,0,0,0,1872,1915,1806,0,0,0,0,0,0,0,0,0,0,0,0,0,0,
1804,0,0,0,0,0,0,0,0,0,0,0,0,0,0,0,0,1805,1905,1840,0,0,0,0,0,0,0,0,0,0,0,0,0,0,0,0,0,0,0,1880,0,0,0,0,0,0,0,0,0,0,2069,2070,0,2072,2073,1808,
0,0,0,0,0,0,0,0,0,0,0,0,0,0,0,0,0,0,0,1906,1838,0,0,0,0,0,0,0,0,0,0,0,0,0,0,0,1865,1895,1899,1912,0,0,0,0,0,0,0,0,0,0,0,0,0,2051,0,2053,
0,0,0,0,0,0,0,0,0,0,0,0,0,0,0,0,0,0,0,0,1902,1893,1842,1868,1837,0,0,0,0,0,0,0,0,1869,1893,1898,1915,0,0,0,0,0,0,1807,0,0,0,0,1805,0,0,0,0,0,0,0,
0,0,0,0,0,0,0,0,0,0,0,0,0,0,0,0,0,0,0,0,0,0,1909,1915,1846,1866,1892,1895,1840,1866,1839,0,0,1882,1805,0,0,0,0,0,0,0,0,0,0,0,0,0,0,0,1807,0,0,0,0,0,
0,0,0,0,0,0,0,0,0,0,0,0,0,0,0,0,0,0,0,0,0,0,0,0,1905,1917,0,0,1905,1917,1905,1899,1900,1918,0,0,1806,0,0,0,0,1807,0,0,0,0,0,0,1808,0,0,0,1804,0,0,0,
0,0,0,0,0,0,0,0,0,0,0,0,0,0,0,0,0,0,0,0,1807,0,0,0,0,0,0,0,0,0,0,1806,0,0,0,0,0,0,1807,0,0,0,0,0,0,0,0,0,0,0,0,0,0,0,0,0,
0,0,1807,0,0,0,0,0,0,0,0,0,0,0,0,0,0,0,0,0,0,0,2119,2120,0,2122,2123,0,0,0,0,0,1806,0,0,0,0,0,0,0,0,0,0,0,1804,0,0,0,0,0,0,0,0,0,0,0,
0,0,0,0,0,0,1804,0,0,0,0,0,0,0,0,0,0,0,0,0,0,0,0,0,0,0,0,0,0,0,0,0,0,0,0,0,0,0,0,0,0,0,0,0,0,0,0,0,0,0,0,0,0,0,0,0,
0,0,0,0,0,0,0,0,0,0,0,0,0,0,2069,2070,0,2072,2073,0,0,0,0,0,0,1808,0,0,0,0,2164,2165,0,2167,2168,0,2119,2120,0,2122,2123,0,0,0,0,0,0,0,0,0,0,0,0,0,0,0,
0,1805,0,0,0,0,0,0,0,0,0,0,0,0,0,0,0,1807,0,0,0,0,0,0,0,0,0,0,0,0,0,0,0,0,0,0,0,1807,0,0,2069,2070,0,2072,2073,0,0,0,0,0,0,0,0,0,0,0,
0,0,0,2139,2140,0,2142,2143,0,0,0,0,0,0,0,0,0,0,0,0,2069,2070,0,2072,2073,0,1805,0,0,0,0,0,0,0,0,0,0,0,0,0,0,0,1808,0,0,1804,0,2184,2185,0,2187,2188,0,1805,0,0
</data>
 </layer>
 <layer id="12" name="object" width="56" height="40">
  <data encoding="csv">
302,302,302,302,302,302,302,302,302,302,302,2196,302,302,302,2196,2195,2201,2196,302,302,302,302,302,302,302,302,2196,2196,302,302,302,2200,2195,302,302,302,2199,2198,302,302,302,2198,2196,302,302,302,2195,302,302,302,302,302,302,2196,2196,
302,302,2039,2040,2041,2039,2040,2041,2039,2040,2041,2195,2039,2040,2041,0,2195,0,0,0,0,2039,2040,2041,2039,2040,2041,0,0,2039,2040,2041,2197,2195,2039,2040,2041,0,0,2039,2040,2041,0,0,2039,2040,2041,0,2039,2040,2041,2039,2040,2041,0,2196,
2039,2040,2041,0,0,0,0,0,0,0,0,0,0,0,0,0,0,0,0,0,0,0,0,0,0,0,0,0,0,0,0,0,0,0,0,0,0,0,0,0,0,0,0,0,0,0,0,0,0,0,0,0,0,0,0,302,
302,302,302,2039,2040,2041,0,0,0,0,0,0,2039,2040,2041,0,0,0,0,2039,2040,2041,0,0,0,0,0,0,0,0,0,0,0,0,0,0,0,0,0,0,0,0,0,0,0,0,0,0,0,0,0,2039,2040,2041,0,302,
2039,2040,2041,0,0,0,0,0,0,0,0,0,0,0,0,0,0,0,0,0,0,0,0,0,0,0,0,0,0,0,0,0,0,0,0,0,0,0,0,0,0,0,0,0,0,2039,2040,2041,0,0,0,0,0,0,0,302,
2196,0,0,0,0,0,2039,2040,2041,0,0,0,0,0,0,0,0,0,0,0,0,0,0,0,0,0,0,0,0,0,0,0,0,0,0,0,0,0,0,0,0,0,0,0,0,0,0,0,0,0,2039,2040,2041,0,2052,302,
2196,0,0,0,0,0,0,0,0,0,0,0,0,0,0,0,0,0,0,0,2121,0,0,0,0,0,0,0,2194,302,0,0,0,0,0,0,0,0,0,0,0,0,0,0,0,0,0,0,0,0,0,0,0,0,0,302,
2196,0,0,0,0,0,0,0,0,0,0,0,0,0,0,0,0,0,0,0,0,0,0,0,302,302,302,302,302,302,302,302,302,0,0,0,0,0,0,0,0,2039,2040,2041,0,0,0,0,0,0,0,0,0,2166,0,2196,
2195,0,0,0,0,0,0,0,0,0,0,0,0,0,0,0,0,0,0,0,0,0,302,302,302,302,302,302,302,302,302,2052,302,302,302,302,0,302,0,0,0,0,0,0,0,0,0,0,0,0,0,0,0,0,0,302,
2201,0,0,0,0,0,0,0,0,0,0,0,0,0,0,0,0,0,0,2194,302,302,302,302,302,2121,302,302,302,302,302,302,302,302,302,302,302,302,302,302,2194,0,0,0,0,0,0,0,0,0,0,0,0,0,0,302,
302,0,0,0,0,0,0,0,0,0,0,0,0,0,0,0,0,0,0,302,302,302,2141,302,302,302,302,302,302,302,302,302,302,302,302,302,2166,302,302,302,302,0,0,0,0,0,0,0,0,0,0,0,0,0,0,302,
302,2039,2040,2041,0,0,0,0,0,0,0,0,0,0,0,0,0,302,302,302,302,302,302,302,302,302,302,302,302,302,302,2186,302,302,302,302,302,302,302,302,302,0,2039,2040,2041,0,0,0,0,0,0,0,0,2039,2040,2041,
302,302,302,2201,0,0,0,0,0,0,0,0,0,0,0,0,302,302,302,302,302,302,302,302,302,302,302,302,302,302,302,302,302,302,302,302,302,302,302,302,302,302,0,0,0,0,0,2201,0,0,0,0,0,0,0,302,
2039,2040,2041,0,0,0,0,0,0,0,0,0,0,0,0,0,302,302,302,302,302,302,302,302,2096,302,302,302,302,302,302,302,302,302,302,2071,302,302,302,302,2052,302,302,0,0,0,0,0,0,0,0,0,0,2039,2040,2041,
302,0,0,0,0,0,0,0,0,0,0,0,0,0,302,302,302,302,302,2121,302,302,302,302,302,302,302,302,302,302,302,302,302,302,302,302,302,302,302,302,302,302,302,0,0,0,0,0,0,0,0,0,0,0,0,2196,
2039,2040,2041,0,0,0,0,0,0,0,2141,0,0,2194,302,302,302,302,302,302,302,302,302,302,302,302,302,302,302,302,302,302,302,302,302,302,302,302,302,302,302,302,302,302,0,0,0,0,0,0,0,0,0,0,0,2196,
302,0,0,0,0,0,0,0,0,0,0,0,0,0,302,302,302,302,302,302,302,302,302,302,302,302,302,0,0,0,302,302,302,302,302,302,302,302,2141,302,302,302,302,302,0,0,0,0,0,0,0,0,0,0,0,2195,
2039,2040,2041,0,0,0,0,0,0,0,0,0,0,0,302,302,302,302,302,302,302,302,302,302,302,0,0,0,0,0,0,0,0,302,302,302,302,302,302,302,302,302,302,302,302,0,0,0,0,0,0,0,0,0,0,2195,
2196,0,0,0,0,0,0,0,0,0,0,0,0,0,0,302,302,302,302,302,302,0,0,302,0,0,0,0,0,0,0,0,0,0,0,0,0,0,0,302,302,302,302,302,0,0,0,0,0,0,0,2199,2198,2199,2198,2196,
0,0,0,0,0,0,0,0,2039,2040,2041,0,0,0,0,0,0,0,0,0,0,0,0,0,0,0,0,0,0,0,0,0,0,0,0,0,0,0,0,0,0,0,0,0,0,0,0,0,0,0,0,0,0,0,0,2196,
0,0,0,0,0,0,0,0,0,0,0,0,0,0,0,0,0,0,0,0,0,0,0,0,0,0,0,0,0,0,0,0,0,0,0,302,302,302,0,0,0,0,0,0,0,0,0,0,0,0,0,0,0,0,0,2196,
0,0,0,0,0,0,0,0,0,0,0,0,0,0,302,302,302,302,302,302,302,302,302,302,0,0,0,0,0,0,0,0,0,0,302,302,302,302,302,302,302,302,302,0,0,0,0,0,0,0,0,0,0,0,0,2196,
302,0,0,0,0,0,0,2202,0,0,2071,0,0,0,302,302,302,302,302,302,302,302,302,302,302,2194,0,0,0,0,0,0,0,302,302,302,302,302,302,302,302,302,302,302,0,0,0,0,0,0,0,0,0,0,0,302,
302,2052,0,0,0,0,0,0,0,0,0,0,0,2194,302,302,302,302,302,302,302,302,302,302,302,302,302,302,0,0,302,302,302,302,302,302,302,302,302,302,302,302,302,302,0,0,0,0,0,0,0,0,0,0,0,302,
302,0,0,0,0,0,0,0,0,0,0,0,0,0,302,302,302,302,302,302,302,302,302,302,302,302,302,302,302,302,302,302,302,302,302,302,302,302,302,302,302,302,302,302,0,0,0,0,0,0,0,0,0,0,0,302,
2039,2040,2041,0,0,0,0,0,0,0,0,0,0,0,0,302,302,302,302,302,302,302,302,302,302,302,302,302,302,302,302,302,302,302,302,302,302,302,302,302,302,302,302,302,0,0,0,0,0,0,0,0,0,2039,2040,2041,
302,0,0,0,0,0,0,0,0,0,0,0,0,0,2194,302,302,302,302,302,302,302,302,302,302,302,302,302,302,302,302,302,302,302,302,302,302,302,302,302,302,302,302,0,0,2199,0,0,0,0,0,0,0,0,0,302,
2196,0,2166,0,0,0,0,0,0,0,0,0,0,0,0,0,302,302,302,302,302,302,302,302,302,302,302,302,302,302,302,302,302,302,302,302,302,302,302,302,302,302,0,0,0,0,0,0,0,0,0,0,0,2039,2040,2041,
2200,0,0,0,0,0,0,0,0,0,0,0,0,0,0,0,0,302,302,302,302,302,302,302,302,302,302,302,302,302,302,302,302,302,302,302,302,302,302,302,0,0,0,0,0,0,0,0,0,0,0,0,0,0,0,302,
302,2039,2040,2041,0,0,0,0,0,0,0,0,0,0,0,0,0,0,0,302,302,302,302,302,302,302,302,302,302,302,302,302,302,302,302,302,302,302,302,302,0,0,0,0,0,0,0,0,0,0,0,0,2071,0,0,302,
302,0,0,0,0,0,0,0,0,0,0,0,0,0,0,0,0,0,0,0,302,302,302,302,302,302,302,302,302,302,302,302,302,302,302,302,302,302,302,0,0,0,0,0,0,0,0,0,0,0,0,0,0,0,2052,2195,
302,0,0,0,0,0,0,0,0,0,0,0,0,0,0,0,0,0,0,0,0,302,302,302,302,302,302,302,302,302,302,302,302,302,302,302,0,0,0,0,0,0,0,0,0,0,0,0,0,0,0,0,0,0,0,2196,
2039,2040,2041,0,0,0,0,0,0,0,0,0,0,0,0,0,0,0,0,0,0,0,0,0,302,302,302,302,302,302,302,302,302,302,0,0,0,0,2039,2040,2041,0,0,0,0,0,0,0,0,0,0,0,2039,2040,2041,302,
302,0,0,0,0,0,0,0,0,0,0,0,0,0,0,0,0,0,0,0,0,0,2039,2040,2041,0,0,2198,0,0,0,302,302,0,0,0,0,0,0,0,0,0,0,0,0,0,0,0,0,0,0,0,0,0,0,302,
302,0,0,0,0,0,0,0,0,0,0,0,0,0,2039,2040,2041,0,0,0,0,0,0,0,0,0,0,0,0,0,0,0,0,0,0,0,0,0,0,0,0,0,0,0,0,0,0,0,0,0,2039,2040,2041,0,0,302,
2039,2040,2041,0,0,0,0,0,0,2039,2040,2041,0,0,0,0,0,0,2039,2040,2041,0,0,0,2121,0,0,0,0,0,0,0,0,0,0,0,0,2039,2040,2041,0,2039,2040,2041,0,0,0,0,0,0,0,0,0,2039,2040,2041,
302,0,0,0,0,0,0,0,0,0,0,0,0,0,0,0,0,0,0,0,0,0,0,0,0,0,0,0,0,0,0,0,0,0,0,0,0,0,0,0,0,0,0,0,0,0,0,0,0,0,2039,2040,2041,0,0,2195,
302,0,0,0,0,0,0,0,2039,2040,2041,0,2039,2040,2041,0,2071,0,0,0,0,2039,2040,2041,2039,2040,2041,0,2039,2040,2041,0,2166,0,2039,2040,2041,0,2121,0,0,0,0,0,2039,2040,2041,0,0,0,0,0,0,0,0,2200,
2039,2040,2041,0,0,0,2039,2040,2041,0,0,0,0,0,0,2195,2195,2039,2040,2041,0,0,0,0,0,0,2039,2040,2041,302,2196,0,0,0,0,0,0,0,0,0,0,0,2071,0,2195,2195,2039,2040,2041,2039,2040,2041,2039,2040,2041,2196,
2199,2196,2039,2040,2041,2141,2196,2195,2196,2039,2040,2041,2196,2196,2196,2195,2199,2195,2197,2195,2201,2195,2071,2196,2196,2196,2195,2195,2195,2196,2196,2039,2040,2041,2196,2196,2196,2039,2040,2041,2201,2196,2195,2200,2195,2195,2196,2195,2196,2186,2199,2196,2196,2198,2201,2195
</data>
 </layer>
 <layer id="13" name="shadow_upper" width="56" height="40">
  <data encoding="csv">
0,0,0,0,0,0,0,0,0,0,0,0,0,0,0,0,0,0,0,0,0,0,0,0,0,0,0,0,0,0,0,0,0,0,0,0,0,0,0,0,0,0,0,0,0,0,0,0,0,0,0,0,0,0,0,0,
0,0,0,0,0,0,0,0,0,0,0,0,0,0,0,0,0,0,0,0,0,0,0,0,0,0,0,0,0,0,0,0,0,0,0,0,0,0,0,0,0,0,0,0,0,0,0,0,0,0,0,0,0,0,0,0,
0,0,0,0,0,0,0,0,0,0,0,0,0,0,0,0,0,0,0,0,0,0,0,0,0,0,0,0,0,0,0,0,0,0,0,0,0,0,0,0,0,0,0,0,0,0,0,0,0,0,0,0,0,0,0,0,
0,0,0,0,0,0,0,0,0,0,0,0,0,0,0,0,0,0,0,0,0,0,0,0,0,0,0,0,0,0,0,0,0,0,0,0,0,0,0,0,0,0,0,0,0,0,0,0,0,0,0,0,0,0,0,0,
0,0,0,0,0,0,0,0,0,0,0,0,0,0,0,0,0,0,0,0,0,0,0,0,0,0,0,0,0,0,0,0,0,0,0,0,0,0,0,0,0,0,0,0,0,0,0,0,0,0,0,0,0,0,0,0,
0,0,0,0,0,0,0,0,0,0,0,0,0,0,0,0,0,0,0,0,0,0,0,0,0,0,0,0,0,0,0,0,0,0,0,0,0,0,0,0,0,0,0,0,0,0,0,0,0,0,0,0,0,0,0,0,
0,0,0,0,0,0,0,0,0,0,0,0,0,0,0,0,0,0,0,0,0,0,0,0,0,0,0,0,0,0,0,0,0,0,0,0,0,0,0,0,0,0,0,0,0,0,0,0,0,0,0,0,0,0,0,0,
0,0,0,0,0,0,0,0,0,0,0,0,0,0,0,0,0,0,0,0,0,0,0,0,0,0,0,0,0,0,0,0,0,0,0,0,0,0,0,0,0,0,0,0,0,0,0,0,0,0,0,0,0,0,0,0,
0,0,0,0,0,0,0,0,0,0,0,0,0,0,0,0,0,0,0,0,0,0,0,0,0,0,0,0,0,0,0,0,0,0,0,0,0,0,0,0,0,0,0,0,0,0,0,0,0,0,0,0,0,0,0,0,
0,0,0,0,0,0,0,0,0,0,0,0,0,0,0,0,0,0,0,0,0,0,0,0,0,0,0,0,0,0,0,0,0,0,0,0,0,0,0,0,0,0,0,0,0,0,0,0,0,0,0,0,0,0,0,0,
0,0,0,0,0,0,0,0,0,0,0,0,0,0,0,0,0,0,0,0,0,0,0,0,0,0,0,0,0,0,0,0,0,0,0,0,0,0,0,0,0,0,0,0,0,0,0,0,0,0,0,0,0,0,0,0,
0,0,0,0,0,0,0,0,0,0,0,0,0,0,0,0,0,0,0,0,0,0,0,0,0,0,0,0,0,0,0,0,0,0,0,0,0,0,0,0,0,0,0,0,0,0,0,0,0,0,0,0,0,0,0,0,
0,0,0,0,0,0,0,0,0,0,0,0,0,0,0,0,0,0,0,0,0,0,0,0,0,0,0,0,0,0,0,0,0,0,0,0,0,0,0,0,0,0,0,0,0,0,0,0,0,0,0,0,0,0,0,0,
0,0,0,0,0,0,0,0,0,0,0,0,0,0,0,0,0,0,0,0,0,0,0,0,0,0,0,0,0,0,0,0,0,0,0,0,0,0,0,0,0,0,0,0,0,0,0,0,0,0,0,0,0,0,0,0,
0,0,0,0,0,0,0,0,0,0,0,0,0,0,0,0,0,0,0,0,0,0,0,0,0,0,0,0,0,0,0,0,0,0,0,0,0,0,0,0,0,0,0,0,0,0,0,0,0,0,0,0,0,0,0,0,
0,0,0,0,0,0,0,0,0,0,0,0,0,0,0,0,0,0,0,0,0,0,0,0,0,0,0,0,0,0,0,0,0,0,0,0,0,0,0,0,0,0,0,0,0,0,0,0,0,0,0,0,0,0,0,0,
0,0,0,0,0,0,0,0,0,0,0,0,0,0,0,0,0,0,0,0,0,0,0,0,0,0,0,0,0,0,0,0,0,0,0,0,0,0,0,0,0,0,0,0,0,0,0,0,0,0,0,0,0,0,0,0,
0,0,0,0,0,0,0,0,0,0,0,0,0,0,0,0,0,0,0,0,0,0,0,0,0,0,0,0,0,0,0,0,0,0,0,0,0,0,0,0,0,0,0,0,0,0,0,0,0,0,0,0,0,0,0,0,
0,0,0,0,0,0,0,0,0,0,0,0,0,0,0,0,0,0,0,0,0,0,0,0,0,0,0,0,0,0,0,0,0,0,0,0,0,0,0,0,0,0,0,0,0,0,0,0,0,0,0,0,0,0,0,0,
0,0,0,0,0,0,0,0,0,0,0,0,0,0,0,0,0,0,0,0,0,0,0,0,0,0,0,0,0,0,0,0,0,0,0,0,0,0,0,0,0,0,0,0,0,0,0,0,0,0,0,0,0,0,0,0,
0,0,0,0,0,0,0,0,0,0,0,0,0,0,0,0,0,0,0,0,0,0,0,0,0,0,0,0,0,0,0,0,0,0,0,0,0,0,0,0,0,0,0,0,0,0,0,0,0,0,0,0,0,0,0,0,
0,0,0,0,0,0,0,0,0,0,0,0,0,0,0,0,0,0,0,0,0,0,0,0,0,0,0,0,0,0,0,0,0,0,0,0,0,0,0,0,0,0,0,0,0,0,0,0,0,0,0,0,0,0,0,0,
0,0,0,0,0,0,0,0,0,0,0,0,0,0,0,0,0,0,0,0,0,0,0,0,0,0,0,0,0,0,0,0,0,0,0,0,0,0,0,0,0,0,0,0,0,0,0,0,0,0,0,0,0,0,0,0,
0,0,0,0,0,0,0,0,0,0,0,0,0,0,0,0,0,0,0,0,0,0,0,0,0,0,0,0,0,0,0,0,0,0,0,0,0,0,0,0,0,0,0,0,0,0,0,0,0,0,0,0,0,0,0,0,
0,0,0,0,0,0,0,0,0,0,0,0,0,0,0,0,0,0,0,0,0,0,0,0,0,0,0,0,0,0,0,0,0,0,0,0,0,0,0,0,0,0,0,0,0,0,0,0,0,0,0,0,0,0,0,0,
0,0,0,0,0,0,0,0,0,0,0,0,0,0,0,0,0,0,0,0,0,0,0,0,0,0,0,0,0,0,0,0,0,0,0,0,0,0,0,0,0,0,0,0,0,0,0,0,0,0,0,0,0,0,0,0,
0,0,0,0,0,0,0,0,0,0,0,0,0,0,0,0,0,0,0,0,0,0,0,0,0,0,0,0,0,0,0,0,0,0,0,0,0,0,0,0,0,0,0,0,0,0,0,0,0,0,0,0,0,0,0,0,
0,0,0,0,0,0,0,0,0,0,0,0,0,0,0,0,0,0,0,0,0,0,0,0,0,0,0,0,0,0,0,0,0,0,0,0,0,0,0,0,0,0,0,0,0,0,0,0,0,0,0,0,0,0,0,0,
0,0,0,0,0,0,0,0,0,0,0,0,0,0,0,0,0,0,0,0,0,0,0,0,0,0,0,0,0,0,0,0,0,0,0,0,0,0,0,0,0,0,0,0,0,0,0,0,0,0,0,0,0,0,0,0,
0,0,0,0,0,0,0,0,0,0,0,0,0,0,0,0,0,0,0,0,0,0,0,0,0,0,0,0,0,0,0,0,0,0,0,0,0,0,0,0,0,0,0,0,0,0,0,0,0,0,0,0,0,0,0,0,
0,0,0,0,0,0,0,0,0,0,0,0,0,0,0,0,0,0,0,0,0,0,0,0,0,0,0,0,0,0,0,0,0,0,0,0,0,0,0,0,0,0,0,0,0,0,0,0,0,0,0,0,0,0,0,0,
0,0,0,0,0,0,0,0,0,0,0,0,0,0,0,0,0,0,0,0,0,0,0,0,0,0,0,0,0,0,0,0,0,0,0,0,0,0,0,0,0,0,0,0,0,0,0,0,0,0,0,0,0,0,0,0,
0,0,0,0,0,0,0,0,0,0,0,0,0,0,0,0,0,0,0,0,0,0,0,0,0,0,0,0,0,0,0,0,0,0,0,0,0,0,0,0,0,0,0,0,0,0,0,0,0,0,0,0,0,0,0,0,
0,0,0,0,0,0,0,0,0,0,0,0,0,0,0,0,0,0,0,0,0,0,0,0,0,0,0,0,0,0,0,0,0,0,0,0,0,0,0,0,0,0,0,0,0,0,0,0,0,0,0,0,0,0,0,0,
0,0,0,0,0,0,0,0,0,0,0,0,0,0,0,0,0,0,0,0,0,0,0,0,0,0,0,0,0,0,0,0,0,0,0,0,0,0,0,0,0,0,0,0,0,0,0,0,0,0,0,0,0,0,0,0,
0,0,0,0,0,0,0,0,0,0,0,0,0,0,0,0,0,0,0,0,0,0,0,0,0,0,0,0,0,0,0,0,0,0,0,0,0,0,0,0,0,0,0,0,0,0,0,0,0,0,0,0,0,0,0,0,
0,0,0,0,0,0,0,0,0,0,0,0,0,0,0,0,0,0,0,0,0,0,0,0,0,0,0,0,0,0,0,0,0,0,0,0,0,0,0,0,0,0,0,0,0,0,0,0,0,0,0,0,0,0,0,0,
0,0,0,0,0,0,0,0,0,0,0,0,0,0,0,0,0,0,0,0,0,0,0,0,0,0,0,0,0,0,0,0,0,0,0,0,0,0,0,0,0,0,0,0,0,0,0,0,0,0,0,0,0,0,0,0,
0,0,0,0,0,0,0,0,0,0,0,0,0,0,0,0,0,0,0,0,0,0,0,0,0,0,0,0,0,0,0,0,0,0,0,0,0,0,0,0,0,0,0,0,0,0,0,0,0,0,0,0,0,0,0,0,
0,0,0,0,0,0,0,0,0,0,0,0,0,0,0,0,0,0,0,0,0,0,0,0,0,0,0,0,0,0,0,0,0,0,0,0,0,0,0,0,0,0,0,0,0,0,0,0,0,0,0,0,0,0,0,0
</data>
 </layer>
 <layer id="14" name="object_upper" width="56" height="40">
  <data encoding="csv">
2033,2034,2036,2037,2038,2036,2037,2038,2036,2037,2038,0,2036,2037,2038,0,0,0,0,2030,2031,2036,2037,2038,2036,2037,2038,0,0,2036,2037,2038,0,0,2036,2037,2038,0,0,2036,2037,2038,0,0,2036,2037,2038,0,2036,2037,2038,2036,2037,2038,0,0,
2036,2037,2038,2033,2034,2035,0,0,0,0,0,0,2033,2034,2035,0,0,0,0,2033,2034,2035,0,0,0,0,0,0,0,0,0,0,0,0,0,0,0,0,0,0,0,0,0,0,0,2030,2031,2032,0,0,0,2033,2034,2035,0,0,
2033,2034,2035,2036,2037,2038,2030,2031,2032,0,0,0,2036,2037,2038,0,0,0,2099,2036,2037,2038,2103,0,0,0,0,0,0,0,0,0,0,0,0,0,0,0,0,0,0,0,0,0,0,2033,2034,2035,0,0,2030,2036,2037,2038,2043,2044,
2036,2037,2038,0,0,0,2033,2034,2035,0,0,0,0,0,0,0,0,0,2104,2105,2106,2107,2108,0,0,0,0,0,0,0,0,0,0,0,0,0,0,0,0,0,0,0,0,0,0,2036,2037,2038,0,0,2033,2034,2035,2045,2046,2047,
0,0,0,0,0,0,2036,2037,2038,0,0,0,0,0,0,0,0,0,2109,2110,2111,2112,2113,0,0,0,0,0,0,0,0,0,0,0,0,0,0,0,0,0,0,2030,2031,2032,0,0,0,0,0,0,2036,2037,2038,2048,2049,2050,
0,0,0,0,0,0,0,0,0,0,0,0,0,0,0,0,0,0,2114,2115,2116,2117,2118,2099,2100,2101,2102,2103,2193,0,2042,2043,2044,0,0,0,0,0,0,0,0,2033,2034,2035,0,0,0,0,0,0,0,2154,2155,2156,2157,2158,
0,0,0,0,0,0,0,0,0,0,0,0,0,0,0,0,0,0,0,0,0,0,0,2104,2105,2106,2107,2108,0,0,2045,2046,2047,0,2144,2145,2146,2147,2148,0,0,2036,2037,2038,0,0,0,0,0,0,0,2159,2160,2161,2162,2163,
0,0,0,0,0,0,0,0,0,0,0,0,0,0,0,0,0,0,0,0,2124,2125,2126,2109,2110,2111,2112,2113,0,0,2048,2049,2050,0,2149,2150,2151,2152,2153,0,0,0,0,0,0,0,0,0,0,0,0,0,0,0,0,0,
0,2030,2031,2032,0,0,0,0,0,0,0,0,0,0,0,0,0,0,0,2193,2129,2130,2131,2114,2115,2116,2117,2118,0,2169,2170,2171,2172,2173,2154,2155,2156,2157,2158,0,2193,0,2030,2031,2032,0,0,0,0,0,0,0,0,2030,2031,2032,
0,2033,2034,2035,0,0,0,0,0,0,0,0,0,0,0,0,0,0,0,0,2134,2135,2136,2137,2138,2077,2078,0,0,2174,2175,2176,2177,2178,2159,2160,2161,2162,2163,0,0,0,2033,2034,2035,0,0,0,0,0,0,0,0,2033,2034,2035,
2030,2036,2037,2038,0,0,0,0,0,0,0,0,0,0,0,0,0,2099,2100,2101,2102,2103,2079,2080,2081,2082,2083,0,0,2179,2180,2181,2182,2183,2055,2056,2057,2058,0,2042,2043,2044,2036,2037,2038,0,0,0,0,0,0,0,0,2036,2037,2038,
2033,2034,2035,0,0,0,0,0,0,0,0,0,0,0,0,0,0,2104,2105,2106,2107,2108,2084,2085,2086,2087,2088,0,0,0,0,0,0,2059,2060,2061,2062,2063,0,2045,2046,2047,0,0,0,0,0,0,0,0,0,0,0,2033,2034,2035,
2036,2037,2038,0,0,0,0,0,2124,2125,2126,2127,2128,0,0,0,0,2109,2110,2111,2112,2113,2089,2090,2091,2092,2093,0,0,0,0,0,0,2064,2065,2066,2067,2068,0,2048,2049,2050,0,0,0,0,0,0,0,0,0,0,0,2036,2037,2038,
2033,2034,2035,0,0,0,0,0,2129,2130,2131,2132,2133,0,0,0,0,2114,2115,2116,2117,2118,0,0,0,0,0,0,0,0,0,0,0,0,0,0,2124,2125,2126,2127,2128,0,0,0,0,0,0,0,0,0,0,0,0,0,0,0,
2036,2037,2038,0,0,0,0,0,2134,2135,2136,2137,2138,2193,0,0,0,0,0,0,0,0,0,0,0,0,0,0,0,0,0,0,0,0,0,0,2129,2130,2131,2132,2133,0,0,0,0,0,0,0,0,0,0,0,0,0,0,0,
2033,2034,2035,0,0,0,0,0,0,0,0,0,0,0,0,0,0,0,0,0,0,0,0,0,0,0,0,0,0,0,0,0,0,0,0,0,2134,2135,2136,2137,2138,0,0,0,0,0,0,0,0,0,0,0,0,0,0,0,
2036,2037,2038,0,0,0,0,0,2030,2031,2032,0,0,0,0,0,0,0,0,0,0,0,0,0,0,0,0,0,0,0,0,0,0,0,0,0,0,0,0,0,0,0,0,0,0,0,0,0,0,0,0,0,0,0,0,0,
0,0,0,0,0,0,0,0,2033,2034,2035,0,0,0,0,0,0,0,0,0,0,0,0,0,0,0,0,0,0,0,0,0,0,0,0,0,0,0,0,0,0,0,0,0,0,0,0,0,0,0,0,0,0,0,0,0,
0,0,0,0,0,0,0,0,2036,2037,2038,0,0,0,0,0,0,0,0,0,0,0,0,0,0,0,0,0,0,0,0,0,0,0,0,0,0,0,0,0,0,0,0,0,0,0,0,0,0,0,0,0,0,0,0,0,
0,0,0,0,0,0,0,0,2054,2055,2056,2057,2058,0,0,0,0,0,0,0,0,0,0,0,0,0,0,0,0,0,0,0,0,0,0,0,0,0,0,0,0,0,0,0,0,0,0,0,0,0,0,0,0,0,0,0,
2042,2043,2044,0,0,0,0,0,2059,2060,2061,2062,2063,0,0,0,0,0,0,0,0,0,0,0,0,0,0,0,0,0,0,0,0,0,0,0,0,0,0,0,0,0,0,0,0,0,0,0,0,0,0,0,0,0,0,0,
2045,2046,2047,0,0,0,0,0,2064,2065,2066,2067,2068,0,0,0,0,0,0,0,0,0,0,0,0,2193,0,0,0,0,0,0,0,0,0,0,0,0,0,0,0,0,0,0,0,0,0,0,0,0,0,0,0,0,0,0,
2048,2049,2050,0,0,0,0,0,0,0,0,0,0,2193,0,0,0,0,0,0,0,0,0,0,0,0,0,0,0,0,0,0,0,0,0,0,0,0,0,0,0,0,0,0,0,0,0,0,0,0,0,0,0,2030,2031,2032,
2033,2034,2035,2147,2148,0,0,0,0,0,0,0,0,0,0,0,0,0,0,0,0,0,0,0,0,0,0,0,0,0,0,0,0,0,0,0,0,0,0,0,0,0,0,0,0,0,0,0,0,0,0,0,0,2033,2034,2035,
2036,2037,2038,2152,2153,0,0,0,0,0,0,0,0,0,0,0,0,0,0,0,0,0,0,0,0,0,0,0,0,0,0,0,0,0,0,0,0,0,0,0,0,0,0,0,0,0,0,0,0,0,0,0,0,2036,2037,2038,
2154,2155,2156,2157,2158,0,0,0,0,0,0,0,0,0,2193,0,0,0,0,0,0,0,0,0,0,0,0,0,0,0,0,0,0,0,0,0,0,0,0,0,0,0,0,0,0,0,0,0,0,0,0,0,0,2033,2034,2035,
2159,2160,2161,2162,2163,0,0,0,0,0,0,0,0,0,0,0,0,0,0,0,0,0,0,0,0,0,0,0,0,0,0,0,0,0,0,0,0,0,0,0,0,0,0,0,0,0,0,0,0,0,2054,2055,2056,2036,2037,2038,
0,2033,2034,2035,0,0,0,0,0,0,0,0,0,0,0,0,0,0,0,0,0,0,0,0,0,0,0,0,0,0,0,0,0,0,0,0,0,0,0,0,0,0,0,0,0,0,0,0,0,0,2059,2060,2061,2062,2063,2044,
0,2036,2037,2038,0,0,0,0,0,0,0,0,0,0,0,0,0,0,0,0,0,0,0,0,0,0,0,0,0,0,0,0,0,0,0,0,0,0,0,0,0,0,0,0,0,0,0,0,0,0,2064,2065,2066,2067,2068,2047,
2030,2031,2032,0,0,0,0,0,0,0,0,0,0,0,0,0,0,0,0,0,0,0,0,0,0,0,0,0,0,0,0,0,0,0,0,0,0,0,2030,2031,2032,0,0,0,0,0,0,0,0,0,0,0,2030,2048,2049,2050,
2033,2034,2035,0,0,0,0,0,0,0,0,0,0,0,0,0,0,0,0,0,0,0,2030,2031,2032,0,0,0,0,0,0,0,0,0,0,0,0,0,2033,2034,2035,0,0,0,0,0,0,0,0,0,0,0,2033,2034,2035,0,
2036,2037,2038,0,0,0,0,0,0,0,0,0,0,0,2030,2031,2032,0,0,0,0,0,2033,2034,2035,2102,2103,0,0,0,0,0,0,0,0,0,0,0,2036,2037,2038,0,0,0,0,0,0,0,0,0,2030,2031,2036,2037,2038,0,
2030,2031,2032,0,0,0,0,0,0,2030,2031,2032,0,0,2033,2034,2035,0,2030,2031,2032,0,2036,2037,2038,2107,2108,0,0,0,0,0,0,0,0,0,0,2030,2031,2032,0,2030,2031,2032,0,0,0,0,0,0,2033,2034,2035,2030,2031,2032,
2033,2034,2035,0,0,0,0,0,0,2033,2034,2035,0,0,2036,2037,2038,0,2033,2034,2035,0,2109,2110,2111,2112,2113,0,0,0,2144,2145,2146,2147,2148,0,2099,2033,2034,2035,2103,2033,2034,2035,0,0,0,0,0,0,2036,2037,2038,2033,2034,2035,
2036,2037,2038,0,0,0,0,0,2030,2036,2037,2038,2030,2031,2032,2055,2056,2057,2036,2037,2038,2030,2114,2115,2116,2117,2118,0,2030,2031,2149,2150,2151,2152,2153,2031,2104,2036,2037,2038,2108,2036,2037,2038,2030,2031,2032,0,0,0,2033,2034,2035,2036,2037,2038,
2030,2031,2032,0,0,0,2030,2031,2033,2034,2035,0,2033,2034,2035,2060,2061,2062,2063,2032,0,2033,2034,2035,2033,2034,2035,2031,2033,2034,2154,2155,2156,2157,2158,2034,2109,2110,2111,2112,2113,2055,2056,2057,2033,2034,2035,2031,2032,2030,2036,2037,2038,2031,2032,0,
2033,2034,2035,2031,2032,2126,2033,2034,2036,2037,2038,2032,2036,2037,2038,2065,2066,2067,2068,2035,2054,2036,2037,2038,2036,2037,2038,2034,2036,2037,2159,2160,2161,2162,2163,2037,2114,2115,2116,2117,2118,2060,2061,2062,2036,2037,2038,2034,2035,2033,2034,2035,2033,2034,2035,0,
2036,2037,2038,2034,2035,2131,2036,2037,2038,2033,2034,2035,0,0,0,0,0,2036,2037,2038,2059,2060,2061,2062,2063,0,2036,2037,2038,0,0,2033,2034,2035,0,0,0,2033,2034,2035,2064,2065,2066,2067,2068,0,2036,2037,2038,2036,2037,2038,2036,2037,2038,0,
0,0,2036,2037,2038,2136,2137,2138,0,2036,2037,2038,0,0,0,0,0,0,0,0,2064,2065,2066,2067,2068,0,0,0,0,0,0,2036,2037,2038,0,0,0,2036,2037,2038,0,0,0,0,0,0,0,2179,2180,2181,2182,2183,0,0,0,0,
0,0,0,0,0,0,0,0,0,0,0,0,0,0,0,0,0,0,0,0,0,0,0,0,0,0,0,0,0,0,0,0,0,0,0,0,0,0,0,0,0,0,0,0,0,0,0,0,0,0,0,0,0,0,0,0
</data>
 </layer>
 <layer id="15" name="deco" width="56" height="40">
  <data encoding="csv">
0,0,2035,2030,2031,2032,0,0,0,0,0,0,2030,2031,2032,0,0,0,0,0,0,2032,0,0,0,0,0,0,0,0,0,0,0,0,0,0,0,0,0,0,0,0,0,0,0,0,0,0,0,0,0,2030,2031,2032,0,0,
2030,2031,2032,0,0,0,0,0,0,0,0,0,0,0,0,0,0,0,0,0,0,0,0,0,0,0,0,0,0,0,0,0,0,0,0,0,0,0,0,0,0,0,0,0,0,0,0,0,0,0,0,0,0,0,0,0,
0,0,0,0,0,0,0,0,0,0,0,0,0,0,0,0,0,0,0,2100,2101,2102,0,0,0,0,0,0,0,0,0,0,0,0,0,0,0,0,0,0,0,0,0,0,0,0,0,0,0,0,0,2031,2032,2042,0,0,
0,0,0,0,0,0,0,0,0,0,0,0,0,0,0,0,0,0,0,0,0,0,0,0,0,0,0,0,0,0,0,0,0,0,0,0,0,0,0,0,0,0,0,0,0,0,0,0,0,0,0,2144,2145,2146,2147,2148,
0,0,0,0,0,0,0,0,0,0,0,0,0,0,0,0,0,0,0,0,0,0,0,0,0,0,0,0,0,0,0,0,0,0,0,0,0,0,0,0,0,0,0,0,0,0,0,0,0,0,0,2149,2150,2151,2152,2153,
0,0,0,0,0,0,0,0,0,0,0,0,0,0,0,0,0,0,0,0,0,0,0,0,0,0,0,0,0,0,0,0,0,0,0,0,0,0,0,0,0,0,0,0,0,0,0,0,0,0,0,0,0,0,0,0,
0,0,0,0,0,0,0,0,0,0,0,0,0,0,0,0,0,0,0,0,0,0,0,0,0,0,0,0,0,0,0,0,0,0,0,0,0,0,0,0,0,0,0,0,0,0,0,0,0,0,0,0,0,0,0,0,
0,0,0,0,0,0,0,0,0,0,0,0,0,0,0,0,0,0,0,0,0,0,0,2127,2128,0,0,0,0,0,0,0,0,0,0,0,0,0,0,0,0,0,0,0,0,0,0,0,0,0,0,0,0,0,0,0,
0,0,0,0,0,0,0,0,0,0,0,0,0,0,0,0,0,0,0,0,0,0,0,2132,2133,0,0,0,0,0,0,0,0,0,0,0,0,0,0,0,0,0,0,0,0,0,0,0,0,0,0,0,0,0,0,0,
0,0,0,0,0,0,0,0,0,0,0,0,0,0,0,0,0,0,0,0,0,0,2074,2075,2076,0,0,0,0,0,0,0,0,0,0,0,0,0,0,0,0,0,0,0,0,0,0,0,0,0,0,0,0,0,0,0,
0,2031,2032,0,0,0,0,0,0,0,0,0,0,0,0,0,0,0,0,0,0,0,0,0,0,0,0,0,0,0,0,0,0,2054,0,0,0,0,0,0,0,0,0,0,0,0,0,0,0,0,0,0,0,2030,2031,2032,
0,0,0,0,0,0,0,0,0,0,0,0,0,0,0,0,0,0,0,0,0,0,0,0,0,0,0,0,0,0,0,0,0,0,0,0,0,0,0,0,0,0,0,0,0,0,0,0,0,0,0,0,0,0,0,0,
2030,2031,2032,0,0,0,0,0,0,0,0,0,0,0,0,0,0,0,0,0,0,0,0,0,0,0,0,0,0,0,0,0,0,0,0,0,0,0,0,0,0,0,0,0,0,0,0,0,0,0,0,0,0,0,0,0,
0,0,0,0,0,0,0,0,0,0,0,0,0,0,0,0,0,0,0,0,0,0,0,0,0,0,0,0,0,0,0,0,0,0,0,0,0,0,0,0,0,0,0,0,0,0,0,0,0,0,0,0,0,0,0,0,
2030,2031,2032,0,0,0,0,0,0,0,0,0,0,0,0,0,0,0,0,0,0,0,0,0,0,0,0,0,0,0,0,0,0,0,0,0,0,0,0,0,0,0,0,0,0,0,0,0,0,0,0,0,0,0,0,0,
0,0,0,0,0,0,0,0,0,0,0,0,0,0,0,0,0,0,0,0,0,0,0,0,0,0,0,0,0,0,0,0,0,0,0,0,0,0,0,0,0,0,0,0,0,0,0,0,0,0,0,0,0,0,0,0,
0,0,0,0,0,0,0,0,0,0,0,0,0,0,0,0,0,0,0,0,0,0,0,0,0,0,0,0,0,0,0,0,0,0,0,0,0,0,0,0,0,0,0,0,0,0,0,0,0,0,0,0,0,0,0,0,
0,0,0,0,0,0,0,0,0,0,0,0,0,0,0,0,0,0,0,0,0,0,0,0,0,0,0,0,0,0,0,0,0,0,0,0,0,0,0,0,0,0,0,0,0,0,0,0,0,0,0,0,0,0,0,0,
0,0,0,0,0,0,0,0,0,0,0,0,0,0,0,0,0,0,0,0,0,0,0,0,0,0,0,0,0,0,0,0,0,0,0,0,0,0,0,0,0,0,0,0,0,0,0,0,0,0,0,0,0,0,0,0,
0,0,0,0,0,0,0,0,0,0,0,0,0,0,0,0,0,0,0,0,0,0,0,0,0,0,0,0,0,0,0,0,0,0,0,0,0,0,0,0,0,0,0,0,0,0,0,0,0,0,0,0,0,0,0,0,
0,0,0,0,0,0,0,0,0,0,0,0,0,0,0,0,0,0,0,0,0,0,0,0,0,0,0,0,0,0,0,0,0,0,0,0,0,0,0,0,0,0,0,0,0,0,0,0,0,0,0,0,0,0,0,0,
0,0,0,0,0,0,0,0,0,0,0,0,0,0,0,0,0,0,0,0,0,0,0,0,0,0,0,0,0,0,0,0,0,0,0,0,0,0,0,0,0,0,0,0,0,0,0,0,0,0,0,0,0,0,0,0,
2030,2031,2032,0,0,0,0,0,0,0,0,0,0,0,0,0,0,0,0,0,0,0,0,0,0,0,0,0,0,0,0,0,0,0,0,0,0,0,0,0,0,0,0,0,0,0,0,0,0,0,0,0,0,0,0,0,
2144,2145,2146,0,0,0,0,0,0,0,0,0,0,0,0,0,0,0,0,0,0,0,0,0,0,0,0,0,0,0,0,0,0,0,0,0,0,0,0,0,0,0,0,0,0,0,0,0,0,0,0,0,0,0,0,0,
2149,2150,2151,0,0,0,0,0,0,0,0,0,0,0,0,0,0,0,0,0,0,0,0,0,0,0,0,0,0,0,0,0,0,0,0,0,0,0,0,0,0,0,0,0,0,0,0,0,0,0,0,0,0,2030,2031,2032,
0,0,0,0,0,0,0,0,0,0,0,0,0,0,0,0,0,0,0,0,0,0,0,0,0,0,0,0,0,0,0,0,0,0,0,0,0,0,0,0,0,0,0,0,0,0,0,0,0,0,0,0,0,0,0,0,
0,2030,2031,2032,0,0,0,0,0,0,0,0,0,0,0,0,0,0,0,0,0,0,0,0,0,0,0,0,0,0,0,0,0,0,0,0,0,0,0,0,0,0,0,0,0,0,0,0,0,0,0,0,0,2057,2058,0,
0,0,0,0,0,0,0,0,0,0,0,0,0,0,0,0,0,0,0,0,0,0,0,0,0,0,0,0,0,0,0,0,0,0,0,0,0,0,0,0,0,0,0,0,0,0,0,0,0,0,0,0,0,2042,2043,0,
0,0,0,0,0,0,0,0,0,0,0,0,0,0,0,0,0,0,0,0,0,0,0,0,0,0,0,0,0,0,0,0,0,0,0,0,0,0,0,0,0,0,0,0,0,0,0,0,0,0,0,0,0,2045,2046,0,
0,0,0,0,0,0,0,0,0,0,0,0,0,0,0,0,0,0,0,0,0,0,0,0,0,0,0,0,0,0,0,0,0,0,0,0,0,0,0,0,0,0,0,0,0,0,0,0,0,0,0,0,0,2031,2032,0,
0,0,0,0,0,0,0,0,0,0,0,0,0,0,0,0,0,0,0,0,0,0,0,0,0,0,0,0,0,0,0,0,0,0,0,0,0,0,0,0,0,0,0,0,0,0,0,0,0,0,0,0,0,0,0,0,
0,0,0,0,0,0,0,0,0,0,0,0,0,0,0,0,0,0,0,0,0,0,2099,2100,2101,0,0,0,0,0,0,0,0,0,0,0,0,0,0,0,0,0,0,0,0,0,0,0,0,0,0,0,2032,0,0,0,
0,0,0,0,0,0,0,0,0,0,0,0,0,0,0,0,0,0,0,0,0,0,2104,2105,2106,0,0,0,0,0,0,0,0,0,0,0,0,0,0,0,0,0,0,0,0,0,0,0,0,0,0,0,0,0,0,0,
0,0,0,0,0,0,0,0,0,0,0,0,0,0,0,0,0,0,0,0,0,0,0,0,0,0,0,0,0,0,0,0,0,0,0,0,0,2100,2101,2102,0,0,0,0,0,0,0,0,0,0,2030,2031,2032,0,0,0,
0,0,0,0,0,0,0,0,0,2031,2032,0,0,0,2054,0,0,0,2058,0,0,0,2031,2032,2030,2031,2032,0,0,0,2032,0,0,0,2030,0,2032,2105,2106,2107,0,0,0,0,0,0,0,0,0,0,0,0,0,0,0,0,
0,0,0,0,0,0,0,0,2032,0,0,0,0,0,2059,0,0,2030,2031,0,0,0,0,0,0,0,2030,0,2032,0,2035,0,0,0,2033,0,2035,0,0,0,2054,0,0,0,2058,0,2030,0,0,0,2031,2032,2030,0,0,0,
0,0,2030,2124,2125,0,2127,2128,2035,2030,2031,0,0,0,2064,0,0,2033,2034,0,0,2055,2056,2057,2058,0,2033,0,2035,0,2038,2030,2031,2032,2036,0,2038,2030,2031,2032,2059,0,0,0,2063,0,2033,2169,2170,2171,2172,2173,0,0,0,0,
0,0,2033,2129,2130,0,2132,2133,0,0,0,0,0,0,0,0,0,0,0,0,0,0,0,0,0,0,0,0,0,0,0,0,0,0,0,0,0,0,0,0,0,0,0,0,0,0,0,2174,2175,2176,2177,2178,0,0,0,0,
0,0,0,2134,2135,0,0,0,0,0,0,0,0,0,0,0,0,0,0,0,0,0,0,0,0,0,0,0,0,0,0,0,0,0,0,0,0,0,0,0,0,0,0,0,0,0,0,0,0,0,0,0,0,0,0,0,
0,0,0,0,0,0,0,0,0,0,0,0,0,0,0,0,0,0,0,0,0,0,0,0,0,0,0,0,0,0,0,0,0,0,0,0,0,0,0,0,0,0,0,0,0,0,0,0,0,0,0,0,0,0,0,0
</data>
 </layer>
 <layer id="16" name="roof" width="56" height="40">
  <data encoding="csv">
0,0,0,0,0,0,0,0,0,0,0,0,0,0,0,0,2249,2248,2248,2246,2247,2248,2248,2248,2247,2246,2247,2247,2247,2246,2247,2246,2248,2246,2248,2246,2248,2248,2248,2248,2247,2247,2248,0,0,0,0,0,0,0,0,0,0,0,0,0,
0,0,0,0,0,0,0,0,0,0,0,0,0,0,0,0,2249,2247,2248,2247,2246,2248,2247,2248,2246,2248,2246,2248,2248,2247,2246,2247,2248,2246,2248,2246,2246,2248,2248,2246,2246,2248,2246,0,0,0,0,0,0,0,0,0,0,0,0,0,
0,0,0,0,0,0,0,0,0,0,0,0,0,0,0,0,2249,2247,2248,2247,2246,2246,2246,2248,2247,2246,2246,2248,2247,2247,2248,2248,2247,2247,2248,2247,2246,2247,2248,2247,2246,2248,2246,0,0,0,0,0,0,0,0,0,0,0,0,0,
0,0,0,0,0,0,0,0,0,0,0,0,0,0,0,0,2249,2247,2247,2247,2246,2248,2246,2247,2247,2246,2246,2246,2247,2246,2247,2246,2248,2247,2247,2246,2246,2247,2246,2247,2247,2247,2246,0,0,0,0,0,0,0,0,0,0,0,0,0,
0,0,0,0,0,0,0,0,0,0,0,0,0,0,0,0,2249,2247,2248,2246,2246,2248,2246,2247,2247,2246,2247,2248,2247,2246,2247,2246,2248,2247,2248,2246,2246,2248,2248,2247,2246,2247,2246,0,0,0,0,0,0,0,0,0,0,0,0,0,
0,0,0,0,0,0,0,0,0,0,0,0,0,0,0,0,2249,2248,2248,2247,2247,2248,2248,2248,2246,2248,2246,2248,2248,2247,2247,2246,2247,2246,2248,2247,2248,2248,2248,2248,2246,2248,2246,0,0,0,0,0,0,0,0,0,0,0,0,0,
0,0,0,0,0,0,0,0,0,0,0,0,0,0,0,0,2249,2247,2248,2247,2246,2247,2247,2248,2247,2248,2246,2248,2248,2246,2246,2247,2246,2247,2247,2247,2246,2247,2248,2246,2248,2248,2246,0,0,0,0,0,0,0,0,0,0,0,0,0,
0,0,0,0,0,0,0,0,0,0,0,0,0,0,0,0,2249,2247,2248,2247,2246,2248,2246,2247,2247,2246,2247,2247,2247,2246,2248,2248,2248,2247,2247,2246,2246,2248,2246,2247,2247,2248,2248,0,0,0,0,0,0,0,0,0,0,0,0,0,
0,0,0,0,0,0,0,0,0,0,0,0,0,0,0,0,2249,2247,2247,2247,2246,2248,2246,2248,2247,2248,2246,2248,2248,2246,2247,2246,2248,2247,2247,2246,2246,2248,2248,2247,2246,2248,2246,0,0,0,0,0,0,0,0,0,0,0,0,0,
0,0,0,0,0,0,0,0,0,0,0,0,0,0,0,0,2249,2247,2248,2247,2247,2246,2246,2247,2247,2246,2246,2247,2247,2246,2247,2246,2247,2247,2247,2246,2248,2247,2246,2247,2247,2248,2246,0,0,0,0,0,0,0,0,0,0,0,0,0,
0,0,0,0,0,0,0,0,0,0,0,0,0,0,0,0,2249,2247,2248,2247,2247,2248,2246,2247,2246,2246,2246,2248,2247,2246,2247,2246,2248,2246,2248,2246,2246,2247,2246,2247,2246,2247,2248,0,0,0,0,0,0,0,0,0,0,0,0,0,
0,0,0,0,0,0,0,0,0,0,0,0,0,0,0,0,2249,2247,2248,2246,2246,2248,2248,2248,2246,2248,2247,2248,2248,2247,2248,2247,2248,2247,2248,2246,2246,2248,2248,2248,2246,2248,2248,0,0,0,0,0,0,0,0,0,0,0,0,0,
0,0,0,0,0,0,0,0,0,0,0,0,0,0,0,0,2249,2247,2246,2247,2246,2246,2247,2248,2247,2248,2246,2247,2248,2246,2248,2248,2247,2247,2247,2247,2246,2247,2248,2248,2248,2248,2246,0,0,0,0,0,0,0,0,0,0,0,0,0,
0,0,0,0,0,0,0,0,0,0,0,0,0,0,0,0,2249,2247,2248,2247,2246,2247,2246,2247,2247,2248,2246,2248,2248,2246,2247,2246,2248,2247,2248,2246,2246,2247,2246,2247,2246,2248,2248,0,0,0,0,0,0,0,0,0,0,0,0,0,
0,0,0,0,0,0,0,0,0,0,0,0,0,0,0,0,2249,2248,2248,2246,2247,2248,2246,2247,2246,2246,2247,2248,2247,2247,2247,2246,2248,2246,2248,2246,2248,2248,2246,2247,2246,2248,2248,0,0,0,0,0,0,0,0,0,0,0,0,0,
0,0,0,0,0,0,0,0,0,0,0,0,0,0,0,0,2249,2247,2248,2246,2246,2248,2246,2248,2247,2248,2246,2248,2248,2246,2247,2246,2248,2247,2247,2246,2246,2248,2248,2247,2246,2248,2246,0,0,0,0,0,0,0,0,0,0,0,0,0,
0,0,0,0,0,0,0,0,0,0,0,0,0,0,0,0,2249,2247,2246,2247,2247,2248,2247,2248,2246,2248,2246,2248,2247,2246,2246,2246,2246,2247,2248,2246,2246,2247,2246,2247,2248,2248,2248,0,0,0,0,0,0,0,0,0,0,0,0,0,
0,0,0,0,0,0,0,0,0,0,0,0,0,0,0,0,2249,2247,2248,2246,2246,2246,2246,2247,2246,2248,2246,2248,2248,2246,2248,2246,2248,2246,2247,2247,2248,2248,2248,2248,2247,2247,2248,0,0,0,0,0,0,0,0,0,0,0,0,0,
0,0,0,0,0,0,0,0,0,0,0,0,0,0,0,0,2249,2247,2248,2246,2246,2247,2246,2247,2247,2246,2246,2246,2248,2247,2247,2246,2248,2247,2247,2246,2246,2248,2248,2248,2246,2248,2246,0,0,0,0,0,0,0,0,0,0,0,0,0,
0,0,0,0,0,0,0,0,0,0,0,0,0,0,0,0,2249,2248,2248,2247,2247,2248,2248,2248,2247,2248,2247,2247,2247,2246,2247,2248,2247,2247,2247,2246,2246,2247,2246,2247,2246,2248,2246,0,0,0,0,0,0,0,0,0,0,0,0,0,
0,0,0,0,0,0,0,0,0,0,0,0,0,0,0,0,2249,2248,2248,2246,2247,2248,2248,2248,2246,2248,2246,2248,2247,2246,2247,2248,2248,2247,2248,2247,2246,2247,2246,2247,2247,2248,2248,0,0,0,0,0,0,0,0,0,0,0,0,0,
0,0,0,0,0,0,0,0,0,0,0,0,0,0,0,0,2249,2247,2248,2246,2246,2246,2246,2248,2247,2248,2246,2246,2247,2246,2248,2246,2248,2247,2247,2246,2246,2248,2248,2247,2246,2247,2246,0,0,0,0,0,0,0,0,0,0,0,0,0,
0,0,0,0,0,0,0,0,0,0,0,0,0,0,0,0,2249,2247,2248,2247,2246,2248,2246,2247,2247,2246,2246,2247,2248,2247,2248,2246,2247,2246,2247,2246,2246,2247,2248,2248,2246,2248,2246,0,0,0,0,0,0,0,0,0,0,0,0,0,
0,0,0,0,0,0,0,0,0,0,0,0,0,0,0,0,2249,2248,2247,2247,2247,2248,2246,2247,2246,2246,2247,2248,2248,2246,2247,2247,2246,2247,2248,2246,2246,2247,2248,2246,2248,2248,2246,0,0,0,0,0,0,0,0,0,0,0,0,0,
0,0,0,0,0,0,0,0,0,0,0,0,0,0,0,0,2249,2247,2248,2246,2246,2246,2246,2247,2247,2246,2246,2247,2248,2247,2247,2248,2248,2247,2247,2247,2246,2248,2248,2248,2246,2248,2246,0,0,0,0,0,0,0,0,0,0,0,0,0,
0,0,0,0,0,0,0,0,0,0,0,0,0,0,0,0,2249,2248,2247,2247,2247,2248,2246,2248,2247,2246,2247,2248,2248,2246,2247,2246,2248,2247,2248,2246,2246,2248,2248,2247,2246,2248,2246,0,0,0,0,0,0,0,0,0,0,0,0,0,
0,0,0,0,0,0,0,0,0,0,0,0,0,0,0,0,2249,2247,2246,2247,2246,2248,2248,2248,2246,2248,2247,2248,2247,2246,2246,2246,2246,2246,2248,2246,2248,2247,2246,2247,2247,2248,2246,0,0,0,0,0,0,0,0,0,0,0,0,0,
0,0,0,0,0,0,0,0,0,0,0,0,0,0,0,0,2249,2247,2248,2247,2246,2246,2246,2248,2247,2248,2246,2248,2247,2247,2247,2246,2248,2246,2247,2246,2246,2248,2248,2247,2246,2247,2248,0,0,0,0,0,0,0,0,0,0,0,0,0,
0,0,0,0,0,0,0,0,0,0,0,0,0,0,0,0,2249,2247,2248,2247,2246,2247,2246,2248,2247,2248,2246,2248,2247,2247,2247,2246,2248,2246,2248,2246,2246,2248,2248,2247,2246,2247,2246,0,0,0,0,0,0,0,0,0,0,0,0,0,
0,0,0,0,0,0,0,0,0,0,0,0,0,0,0,0,2249,2248,2246,2247,2247,2248,2246,2247,2246,2246,2247,2248,2248,2246,2247,2248,2247,2247,2248,2246,2246,2247,2248,2246,2247,2248,2246,0,0,0,0,0,0,0,0,0,0,0,0,0,
0,0,0,0,0,0,0,0,0,0,0,0,0,0,0,0,2249,2247,2248,2247,2246,2248,2246,2248,2247,2246,2247,2248,2247,2246,2247,2246,2248,2247,2248,2246,2246,2247,2248,2247,2246,2248,2246,0,0,0,0,0,0,0,0,0,0,0,0,0,
0,0,0,0,0,0,0,0,0,0,0,0,0,0,0,0,2249,2247,2248,2246,2246,2246,2248,2248,2247,2248,2246,2246,2247,2247,2248,2246,2248,2246,2247,2247,2248,2248,2246,2247,2246,2247,2248,0,0,0,0,0,0,0,0,0,0,0,0,0,
0,0,0,0,0,0,0,0,0,0,0,0,0,0,0,0,2249,2247,2248,2247,2246,2246,2246,2247,2246,2248,2246,2248,2248,2247,2248,2248,2247,2247,2247,2247,2246,2247,2246,2247,2246,2248,2246,0,0,0,0,0,0,0,0,0,0,0,0,0,
0,0,0,0,0,0,0,0,0,0,0,0,0,0,0,0,2249,2247,2246,2247,2246,2247,2246,2247,2247,2246,2246,2247,2247,2246,2247,2246,2246,2247,2247,2246,2246,2247,2246,2247,2248,2248,2248,0,0,0,0,0,0,0,0,0,0,0,0,0,
0,0,0,0,0,0,0,0,0,0,0,0,0,0,0,0,2249,2248,2248,2246,2247,2248,2246,2248,2247,2248,2247,2247,2248,2246,2247,2246,2248,2246,2247,2246,2248,2248,2248,2247,2246,2248,2248,0,0,0,0,0,0,0,0,0,0,0,0,0,
0,0,0,0,0,0,0,0,0,0,0,0,0,0,0,0,2249,2247,2248,2246,2246,2248,2247,2248,2246,2248,2247,2248,2248,2247,2246,2246,2248,2247,2248,2246,2246,2248,2248,2248,2246,2248,2246,0,0,0,0,0,0,0,0,0,0,0,0,0,
0,0,0,0,0,0,0,0,0,0,0,0,0,0,0,0,2249,2247,2247,2247,2246,2246,2246,2248,2247,2248,2246,2246,2248,2246,2248,2247,2247,2247,2247,2246,2246,2247,2248,2246,2246,2248,2246,0,0,0,0,0,0,0,0,0,0,0,0,0,
0,0,0,0,0,0,0,0,0,0,0,0,0,0,0,0,2249,2247,2248,2246,2246,2248,2246,2247,2247,2246,2247,2247,2247,2246,2247,2246,2248,2247,2247,2246,2246,2247,2246,2247,2247,2248,2248,0,0,0,0,0,0,0,0,0,0,0,0,0,
0,0,0,0,0,0,0,0,0,0,0,0,0,0,0,0,2249,2247,2248,2246,2247,2248,2246,2247,2246,2246,2247,2248,2247,2247,2247,2246,2248,2247,2248,2246,2248,2248,2246,2247,2246,2247,2248,0,0,0,0,0,0,0,0,0,0,0,0,0,
0,0,0,0,0,0,0,0,0,0,0,0,0,0,0,0,2249,2247,2248,2247,2247,2246,2248,2248,2246,2248,2246,2248,2248,2247,2247,2246,2247,2246,2248,2246,2246,2247,2248,2248,2246,2248,2246,0,0,0,0,0,0,0,0,0,0,0,0,0
</data>
 </layer>
 <objectgroup id="2" name="characters">
  <!-- 얼음 속 종탑(frozen_bell, q037), 늑대인간의 굴(wolf_den, q035), 둑길 눈더미(q036 후 치워짐) / 서리 늑대인간 6(Lv42~44), 눈 말캉이 3, 고블린 2, 트롤 족장-보스(Lv46) + 소환 고블린 4 -->
  <object id="20" name="서리 늑대인간-1" type="character" x="208" y="864" width="32" height="32">
   <properties>
    <property name="blocksMovement" type="bool" value="true"/>
    <property name="monster.level" type="int" value="42"/>
    <property name="type" value="monster_frost_wolfman"/>
   </properties>
  </object>
  <object id="21" name="서리 늑대인간-2" type="character" x="304" y="992" width="32" height="32">
   <properties>
    <property name="blocksMovement" type="bool" value="true"/>
    <property name="monster.level" type="int" value="42"/>
    <property name="type" value="monster_frost_wolfman"/>
   </properties>
  </object>
  <object id="22" name="서리 늑대인간-3" type="character" x="144" y="1152" width="32" height="32">
   <properties>
    <property name="blocksMovement" type="bool" value="true"/>
    <property name="monster.level" type="int" value="43"/>
    <property name="type" value="monster_frost_wolfman"/>
   </properties>
  </object>
  <object id="23" name="서리 늑대인간-4" type="character" x="528" y="224" width="32" height="32">
   <properties>
    <property name="blocksMovement" type="bool" value="true"/>
    <property name="monster.level" type="int" value="43"/>
    <property name="type" value="monster_frost_wolfman"/>
   </properties>
  </object>
  <object id="24" name="서리 늑대인간-5" type="character" x="1104" y="160" width="32" height="32">
   <properties>
    <property name="blocksMovement" type="bool" value="true"/>
    <property name="monster.level" type="int" value="44"/>
    <property name="type" value="monster_frost_wolfman"/>
   </properties>
  </object>
  <object id="25" name="서리 늑대인간-6" type="character" x="304" y="320" width="32" height="32">
   <properties>
    <property name="blocksMovement" type="bool" value="true"/>
    <property name="monster.level" type="int" value="44"/>
    <property name="type" value="monster_frost_wolfman"/>
   </properties>
  </object>
  <object id="26" name="눈 말캉이-1" type="character" x="176" y="512" width="32" height="32">
   <properties>
    <property name="blocksMovement" type="bool" value="true"/>
    <property name="monster.level" type="int" value="41"/>
    <property name="type" value="monster_snow_slime"/>
   </properties>
  </object>
  <object id="27" name="눈 말캉이-2" type="character" x="368" y="896" width="32" height="32">
   <properties>
    <property name="blocksMovement" type="bool" value="true"/>
    <property name="monster.level" type="int" value="41"/>
    <property name="type" value="monster_snow_slime"/>
   </properties>
  </object>
  <object id="28" name="눈 말캉이-3" type="character" x="112" y="224" width="32" height="32">
   <properties>
    <property name="blocksMovement" type="bool" value="true"/>
    <property name="monster.level" type="int" value="42"/>
    <property name="type" value="monster_snow_slime"/>
   </properties>
  </object>
  <object id="29" name="고블린 약탈자-1" type="character" x="1648" y="480" width="32" height="32">
   <properties>
    <property name="blocksMovement" type="bool" value="true"/>
    <property name="monster.level" type="int" value="43"/>
    <property name="type" value="monster_goblin"/>
   </properties>
  </object>
  <object id="30" name="고블린 약탈자-2" type="character" x="1616" y="832" width="32" height="32">
   <properties>
    <property name="blocksMovement" type="bool" value="true"/>
    <property name="monster.level" type="int" value="43"/>
    <property name="type" value="monster_goblin"/>
   </properties>
  </object>
  <object id="31" name="트롤 족장-보스" type="character" x="1552" y="640" width="32" height="32">
   <properties>
    <property name="blocksMovement" type="bool" value="true"/>
    <property name="monster.level" type="int" value="46"/>
    <property name="type" value="monster_troll_chief"/>
   </properties>
  </object>
  <object id="40" name="트롤 족장-소환-1" type="character" x="1488" y="544" width="32" height="32">
   <properties>
    <property name="blocksMovement" type="bool" value="true"/>
    <property name="displayText" value="고블린 약탈자"/>
    <property name="monster.level" type="int" value="43"/>
    <property name="type" value="monster_goblin"/>
   </properties>
  </object>
  <object id="41" name="트롤 족장-소환-2" type="character" x="1488" y="736" width="32" height="32">
   <properties>
    <property name="blocksMovement" type="bool" value="true"/>
    <property name="displayText" value="고블린 약탈자"/>
    <property name="monster.level" type="int" value="43"/>
    <property name="type" value="monster_goblin"/>
   </properties>
  </object>
  <object id="42" name="트롤 족장-소환-3" type="character" x="1648" y="576" width="32" height="32">
   <properties>
    <property name="blocksMovement" type="bool" value="true"/>
    <property name="displayText" value="고블린 약탈자"/>
    <property name="monster.level" type="int" value="43"/>
    <property name="type" value="monster_goblin"/>
   </properties>
  </object>
  <object id="43" name="트롤 족장-소환-4" type="character" x="1648" y="736" width="32" height="32">
   <properties>
    <property name="blocksMovement" type="bool" value="true"/>
    <property name="displayText" value="고블린 약탈자"/>
    <property name="monster.level" type="int" value="43"/>
    <property name="type" value="monster_goblin"/>
   </properties>
  </object>
  <object id="1" name="frozen_bell" type="character" x="944" y="608" width="32" height="32">
   <properties>
    <property name="blocksMovement" type="bool" value="true"/>
    <property name="controller.dialogueLines" type="list">
     <item value="두꺼운 얼음 속에 종이 갇혀 있다. 얼음 너머로 물결 세 줄 문양이 비친다."/>
    </property>
    <property name="controller.scriptId" value="vn-dialogue"/>
    <property name="displayText" value="얼음 속 종탑"/>
    <property name="type" value="ruins_stele_lit_r1c0"/>
   </properties>
  </object>
  <object id="2" name="frozen_bell_top" type="character" x="944" y="576" width="32" height="32">
   <properties>
    <property name="blocksMovement" type="bool" value="false"/>
    <property name="type" value="ruins_stele_lit_r0c0"/>
   </properties>
  </object>
  <object id="3" name="wolf_den" type="character" x="208" y="1088" width="32" height="32">
   <properties>
    <property name="blocksMovement" type="bool" value="true"/>
    <property name="controller.dialogueLines" type="list">
     <item value="눈 덮인 바위 틈에 늑대인간의 굴이 있다. 양털이 흩어져 있다."/>
    </property>
    <property name="controller.scriptId" value="vn-dialogue"/>
    <property name="displayText" value="늑대인간의 굴"/>
    <property name="type" value="cave_prop_skull_pile_r0c0"/>
   </properties>
  </object>
  <object id="4" name="lake_sign" type="character" x="144" y="608" width="32" height="32">
   <properties>
    <property name="type" value="sign_inn"/>
    <property name="blocksMovement" type="bool" value="false"/>
    <property name="displayText" value="서리목 ←"/>
   </properties>
  </object>
  <object id="5" name="snow_drift_0" type="character" x="496" y="64" width="32" height="32">
   <properties>
    <property name="blocksMovement" type="bool" value="true"/>
    <property name="controller.dialogueLines" type="list">
     <item value="허리까지 쌓인 눈더미가 둑길을 막고 있다."/>
     <item value="그 너머는 앞이 보이지 않는 눈보라다. 맨몸으로는 갈 수 없다."/>
    </property>
    <property name="controller.scriptId" value="vn-dialogue"/>
    <property name="quest.hiddenWhenCompleted" value="q036-warming-tea"/>
    <property name="type" value="snow_drift_wall"/>
   </properties>
  </object>
  <object id="6" name="snow_drift_1" type="character" x="496" y="96" width="32" height="32">
   <properties>
    <property name="blocksMovement" type="bool" value="true"/>
    <property name="controller.dialogueLines" type="list">
     <item value="허리까지 쌓인 눈더미가 둑길을 막고 있다."/>
     <item value="그 너머는 앞이 보이지 않는 눈보라다. 맨몸으로는 갈 수 없다."/>
    </property>
    <property name="controller.scriptId" value="vn-dialogue"/>
    <property name="quest.hiddenWhenCompleted" value="q036-warming-tea"/>
    <property name="type" value="snow_drift_wall"/>
   </properties>
  </object>
  <object id="7" name="snow_drift_2" type="character" x="496" y="128" width="32" height="32">
   <properties>
    <property name="blocksMovement" type="bool" value="true"/>
    <property name="controller.dialogueLines" type="list">
     <item value="허리까지 쌓인 눈더미가 둑길을 막고 있다."/>
     <item value="그 너머는 앞이 보이지 않는 눈보라다. 맨몸으로는 갈 수 없다."/>
    </property>
    <property name="controller.scriptId" value="vn-dialogue"/>
    <property name="quest.hiddenWhenCompleted" value="q036-warming-tea"/>
    <property name="type" value="snow_drift_wall"/>
   </properties>
  </object>
  <object id="8" name="snow_drift_3" type="character" x="496" y="160" width="32" height="32">
   <properties>
    <property name="blocksMovement" type="bool" value="true"/>
    <property name="controller.dialogueLines" type="list">
     <item value="허리까지 쌓인 눈더미가 둑길을 막고 있다."/>
     <item value="그 너머는 앞이 보이지 않는 눈보라다. 맨몸으로는 갈 수 없다."/>
    </property>
    <property name="controller.scriptId" value="vn-dialogue"/>
    <property name="quest.hiddenWhenCompleted" value="q036-warming-tea"/>
    <property name="type" value="snow_drift_wall"/>
   </properties>
  </object>
  <object id="9" name="snow_drift_4" type="character" x="496" y="192" width="32" height="32">
   <properties>
    <property name="blocksMovement" type="bool" value="true"/>
    <property name="controller.dialogueLines" type="list">
     <item value="허리까지 쌓인 눈더미가 둑길을 막고 있다."/>
     <item value="그 너머는 앞이 보이지 않는 눈보라다. 맨몸으로는 갈 수 없다."/>
    </property>
    <property name="controller.scriptId" value="vn-dialogue"/>
    <property name="quest.hiddenWhenCompleted" value="q036-warming-tea"/>
    <property name="type" value="snow_drift_wall"/>
   </properties>
  </object>
  <object id="10" name="snow_drift_5" type="character" x="496" y="224" width="32" height="32">
   <properties>
    <property name="blocksMovement" type="bool" value="true"/>
    <property name="controller.dialogueLines" type="list">
     <item value="허리까지 쌓인 눈더미가 둑길을 막고 있다."/>
     <item value="그 너머는 앞이 보이지 않는 눈보라다. 맨몸으로는 갈 수 없다."/>
    </property>
    <property name="controller.scriptId" value="vn-dialogue"/>
    <property name="quest.hiddenWhenCompleted" value="q036-warming-tea"/>
    <property name="type" value="snow_drift_wall"/>
   </properties>
  </object>
  <object id="11" name="snow_drift_6" type="character" x="496" y="256" width="32" height="32">
   <properties>
    <property name="blocksMovement" type="bool" value="true"/>
    <property name="controller.dialogueLines" type="list">
     <item value="허리까지 쌓인 눈더미가 둑길을 막고 있다."/>
     <item value="그 너머는 앞이 보이지 않는 눈보라다. 맨몸으로는 갈 수 없다."/>
    </property>
    <property name="controller.scriptId" value="vn-dialogue"/>
    <property name="quest.hiddenWhenCompleted" value="q036-warming-tea"/>
    <property name="type" value="snow_drift_wall"/>
   </properties>
  </object>
  <object id="12" name="snow_drift_7" type="character" x="496" y="288" width="32" height="32">
   <properties>
    <property name="blocksMovement" type="bool" value="true"/>
    <property name="controller.dialogueLines" type="list">
     <item value="허리까지 쌓인 눈더미가 둑길을 막고 있다."/>
     <item value="그 너머는 앞이 보이지 않는 눈보라다. 맨몸으로는 갈 수 없다."/>
    </property>
    <property name="controller.scriptId" value="vn-dialogue"/>
    <property name="quest.hiddenWhenCompleted" value="q036-warming-tea"/>
    <property name="type" value="snow_drift_wall"/>
   </properties>
  </object>
  <object id="13" name="snow_drift_8" type="character" x="496" y="320" width="32" height="32">
   <properties>
    <property name="blocksMovement" type="bool" value="true"/>
    <property name="controller.dialogueLines" type="list">
     <item value="허리까지 쌓인 눈더미가 둑길을 막고 있다."/>
     <item value="그 너머는 앞이 보이지 않는 눈보라다. 맨몸으로는 갈 수 없다."/>
    </property>
    <property name="controller.scriptId" value="vn-dialogue"/>
    <property name="quest.hiddenWhenCompleted" value="q036-warming-tea"/>
    <property name="type" value="snow_drift_wall"/>
   </properties>
  </object>
  <object id="14" name="snow_drift_9" type="character" x="496" y="352" width="32" height="32">
   <properties>
    <property name="blocksMovement" type="bool" value="true"/>
    <property name="controller.dialogueLines" type="list">
     <item value="허리까지 쌓인 눈더미가 둑길을 막고 있다."/>
     <item value="그 너머는 앞이 보이지 않는 눈보라다. 맨몸으로는 갈 수 없다."/>
    </property>
    <property name="controller.scriptId" value="vn-dialogue"/>
    <property name="quest.hiddenWhenCompleted" value="q036-warming-tea"/>
    <property name="type" value="snow_drift_wall"/>
   </properties>
  </object>
  <object id="15" name="snow_drift_10" type="character" x="496" y="384" width="32" height="32">
   <properties>
    <property name="blocksMovement" type="bool" value="true"/>
    <property name="controller.dialogueLines" type="list">
     <item value="허리까지 쌓인 눈더미가 둑길을 막고 있다."/>
     <item value="그 너머는 앞이 보이지 않는 눈보라다. 맨몸으로는 갈 수 없다."/>
    </property>
    <property name="controller.scriptId" value="vn-dialogue"/>
    <property name="quest.hiddenWhenCompleted" value="q036-warming-tea"/>
    <property name="type" value="snow_drift_wall"/>
   </properties>
  </object>
  <object id="16" name="snow_drift_11" type="character" x="496" y="416" width="32" height="32">
   <properties>
    <property name="blocksMovement" type="bool" value="true"/>
    <property name="controller.dialogueLines" type="list">
     <item value="허리까지 쌓인 눈더미가 둑길을 막고 있다."/>
     <item value="그 너머는 앞이 보이지 않는 눈보라다. 맨몸으로는 갈 수 없다."/>
    </property>
    <property name="controller.scriptId" value="vn-dialogue"/>
    <property name="quest.hiddenWhenCompleted" value="q036-warming-tea"/>
    <property name="type" value="snow_drift_wall"/>
   </properties>
  </object>
  <object id="17" name="snow_drift_12" type="character" x="496" y="448" width="32" height="32">
   <properties>
    <property name="blocksMovement" type="bool" value="true"/>
    <property name="controller.dialogueLines" type="list">
     <item value="허리까지 쌓인 눈더미가 둑길을 막고 있다."/>
     <item value="그 너머는 앞이 보이지 않는 눈보라다. 맨몸으로는 갈 수 없다."/>
    </property>
    <property name="controller.scriptId" value="vn-dialogue"/>
    <property name="quest.hiddenWhenCompleted" value="q036-warming-tea"/>
    <property name="type" value="snow_drift_wall"/>
   </properties>
  </object>
  <object id="18" name="snow_drift_13" type="character" x="496" y="640" width="32" height="32">
   <properties>
    <property name="blocksMovement" type="bool" value="true"/>
    <property name="controller.dialogueLines" type="list">
     <item value="허리까지 쌓인 눈더미가 둑길을 막고 있다."/>
     <item value="그 너머는 앞이 보이지 않는 눈보라다. 맨몸으로는 갈 수 없다."/>
    </property>
    <property name="controller.scriptId" value="vn-dialogue"/>
    <property name="quest.hiddenWhenCompleted" value="q036-warming-tea"/>
    <property name="type" value="snow_drift_wall"/>
   </properties>
  </object>
  <object id="19" name="snow_drift_14" type="character" x="496" y="672" width="32" height="32">
   <properties>
    <property name="blocksMovement" type="bool" value="true"/>
    <property name="controller.dialogueLines" type="list">
     <item value="허리까지 쌓인 눈더미가 둑길을 막고 있다."/>
     <item value="그 너머는 앞이 보이지 않는 눈보라다. 맨몸으로는 갈 수 없다."/>
    </property>
    <property name="controller.scriptId" value="vn-dialogue"/>
    <property name="quest.hiddenWhenCompleted" value="q036-warming-tea"/>
    <property name="type" value="snow_drift_wall"/>
   </properties>
  </object>
  <object id="20" name="snow_drift_15" type="character" x="496" y="896" width="32" height="32">
   <properties>
    <property name="blocksMovement" type="bool" value="true"/>
    <property name="controller.dialogueLines" type="list">
     <item value="허리까지 쌓인 눈더미가 둑길을 막고 있다."/>
     <item value="그 너머는 앞이 보이지 않는 눈보라다. 맨몸으로는 갈 수 없다."/>
    </property>
    <property name="controller.scriptId" value="vn-dialogue"/>
    <property name="quest.hiddenWhenCompleted" value="q036-warming-tea"/>
    <property name="type" value="snow_drift_wall"/>
   </properties>
  </object>
  <object id="21" name="snow_drift_16" type="character" x="496" y="928" width="32" height="32">
   <properties>
    <property name="blocksMovement" type="bool" value="true"/>
    <property name="controller.dialogueLines" type="list">
     <item value="허리까지 쌓인 눈더미가 둑길을 막고 있다."/>
     <item value="그 너머는 앞이 보이지 않는 눈보라다. 맨몸으로는 갈 수 없다."/>
    </property>
    <property name="controller.scriptId" value="vn-dialogue"/>
    <property name="quest.hiddenWhenCompleted" value="q036-warming-tea"/>
    <property name="type" value="snow_drift_wall"/>
   </properties>
  </object>
  <object id="22" name="snow_drift_17" type="character" x="496" y="960" width="32" height="32">
   <properties>
    <property name="blocksMovement" type="bool" value="true"/>
    <property name="controller.dialogueLines" type="list">
     <item value="허리까지 쌓인 눈더미가 둑길을 막고 있다."/>
     <item value="그 너머는 앞이 보이지 않는 눈보라다. 맨몸으로는 갈 수 없다."/>
    </property>
    <property name="controller.scriptId" value="vn-dialogue"/>
    <property name="quest.hiddenWhenCompleted" value="q036-warming-tea"/>
    <property name="type" value="snow_drift_wall"/>
   </properties>
  </object>
  <object id="23" name="snow_drift_18" type="character" x="496" y="992" width="32" height="32">
   <properties>
    <property name="blocksMovement" type="bool" value="true"/>
    <property name="controller.dialogueLines" type="list">
     <item value="허리까지 쌓인 눈더미가 둑길을 막고 있다."/>
     <item value="그 너머는 앞이 보이지 않는 눈보라다. 맨몸으로는 갈 수 없다."/>
    </property>
    <property name="controller.scriptId" value="vn-dialogue"/>
    <property name="quest.hiddenWhenCompleted" value="q036-warming-tea"/>
    <property name="type" value="snow_drift_wall"/>
   </properties>
  </object>
  <object id="24" name="snow_drift_19" type="character" x="496" y="1024" width="32" height="32">
   <properties>
    <property name="blocksMovement" type="bool" value="true"/>
    <property name="controller.dialogueLines" type="list">
     <item value="허리까지 쌓인 눈더미가 둑길을 막고 있다."/>
     <item value="그 너머는 앞이 보이지 않는 눈보라다. 맨몸으로는 갈 수 없다."/>
    </property>
    <property name="controller.scriptId" value="vn-dialogue"/>
    <property name="quest.hiddenWhenCompleted" value="q036-warming-tea"/>
    <property name="type" value="snow_drift_wall"/>
   </properties>
  </object>
  <object id="25" name="snow_drift_20" type="character" x="496" y="1056" width="32" height="32">
   <properties>
    <property name="blocksMovement" type="bool" value="true"/>
    <property name="controller.dialogueLines" type="list">
     <item value="허리까지 쌓인 눈더미가 둑길을 막고 있다."/>
     <item value="그 너머는 앞이 보이지 않는 눈보라다. 맨몸으로는 갈 수 없다."/>
    </property>
    <property name="controller.scriptId" value="vn-dialogue"/>
    <property name="quest.hiddenWhenCompleted" value="q036-warming-tea"/>
    <property name="type" value="snow_drift_wall"/>
   </properties>
  </object>
  <object id="26" name="snow_drift_21" type="character" x="496" y="1088" width="32" height="32">
   <properties>
    <property name="blocksMovement" type="bool" value="true"/>
    <property name="controller.dialogueLines" type="list">
     <item value="허리까지 쌓인 눈더미가 둑길을 막고 있다."/>
     <item value="그 너머는 앞이 보이지 않는 눈보라다. 맨몸으로는 갈 수 없다."/>
    </property>
    <property name="controller.scriptId" value="vn-dialogue"/>
    <property name="quest.hiddenWhenCompleted" value="q036-warming-tea"/>
    <property name="type" value="snow_drift_wall"/>
   </properties>
  </object>
  <object id="27" name="snow_drift_22" type="character" x="496" y="1152" width="32" height="32">
   <properties>
    <property name="blocksMovement" type="bool" value="true"/>
    <property name="controller.dialogueLines" type="list">
     <item value="허리까지 쌓인 눈더미가 둑길을 막고 있다."/>
     <item value="그 너머는 앞이 보이지 않는 눈보라다. 맨몸으로는 갈 수 없다."/>
    </property>
    <property name="controller.scriptId" value="vn-dialogue"/>
    <property name="quest.hiddenWhenCompleted" value="q036-warming-tea"/>
    <property name="type" value="snow_drift_wall"/>
   </properties>
  </object>
  <object id="28" name="snow_drift_23" type="character" x="496" y="1184" width="32" height="32">
   <properties>
    <property name="blocksMovement" type="bool" value="true"/>
    <property name="controller.dialogueLines" type="list">
     <item value="허리까지 쌓인 눈더미가 둑길을 막고 있다."/>
     <item value="그 너머는 앞이 보이지 않는 눈보라다. 맨몸으로는 갈 수 없다."/>
    </property>
    <property name="controller.scriptId" value="vn-dialogue"/>
    <property name="quest.hiddenWhenCompleted" value="q036-warming-tea"/>
    <property name="type" value="snow_drift_wall"/>
   </properties>
  </object>
  <object id="29" name="snow_drift_24" type="character" x="496" y="1216" width="32" height="32">
   <properties>
    <property name="blocksMovement" type="bool" value="true"/>
    <property name="controller.dialogueLines" type="list">
     <item value="허리까지 쌓인 눈더미가 둑길을 막고 있다."/>
     <item value="그 너머는 앞이 보이지 않는 눈보라다. 맨몸으로는 갈 수 없다."/>
    </property>
    <property name="controller.scriptId" value="vn-dialogue"/>
    <property name="quest.hiddenWhenCompleted" value="q036-warming-tea"/>
    <property name="type" value="snow_drift_wall"/>
   </properties>
  </object>
 </objectgroup>
 <objectgroup id="3" name="portals">
  <!-- 서쪽 → 서리목 (41, 16). 동쪽 동굴 계단 → 얼음 동굴 1층 (20, 36)(q038 후). -->
  <object id="60" name="village_road" type="portal" x="0" y="608" width="32" height="96">
   <properties>
    <property name="appearanceType" value="swamp_deck_h"/>
    <property name="targetFacing" value="left"/>
    <property name="targetSceneId" value="frost-village"/>
    <property name="targetSpawnTileX" type="int" value="41"/>
    <property name="targetSpawnTileY" type="int" value="16"/>
   </properties>
  </object>
  <object id="61" name="ice_cave_stairs" type="portal" x="1664" y="608" width="64" height="32">
   <properties>
    <property name="appearanceType" value="stairs_stone_step_base_00"/>
    <property name="quest.requiresCompleted" value="q038-cave-guardian"/>
    <property name="targetFacing" value="up"/>
    <property name="targetSceneId" value="ice-cave-1f"/>
    <property name="targetSpawnTileX" type="int" value="20"/>
    <property name="targetSpawnTileY" type="int" value="36"/>
   </properties>
  </object>
 </objectgroup>
</map>
