<?xml version="1.0" encoding="UTF-8"?>
<map version="1.10" tiledversion="1.12.1" orientation="orthogonal" renderorder="right-down" width="60" height="60" tilewidth="32" tileheight="32" infinite="0" nextlayerid="27" nextobjectid="34">
 <tileset firstgid="1" source="../tilesets/town-32.tsx"/>
 <layer id="20" name="ground" width="60" height="60">
  <data encoding="csv">
457,517,517,517,457,517,517,517,517,517,517,457,517,517,517,517,517,517,517,457,517,517,517,517,517,517,517,517,515,515,515,515,517,517,517,517,517,517,517,517,517,517,517,517,517,517,457,517,457,457,457,517,517,517,517,517,517,517,517,517,
517,457,517,457,457,457,457,517,517,457,457,457,457,517,517,517,517,457,457,517,457,457,517,517,517,517,517,517,515,515,515,515,457,517,517,517,517,517,517,517,517,517,517,517,517,517,457,457,457,457,517,517,517,517,517,517,517,517,517,517,
457,310,310,310,517,517,310,310,310,517,457,310,310,310,517,517,310,310,310,517,517,310,310,310,517,517,310,310,515,515,515,515,310,310,517,517,310,310,310,517,517,310,310,310,517,457,310,310,310,457,517,310,310,310,517,457,310,310,310,517,
517,309,310,311,517,457,309,310,311,457,517,309,310,311,457,517,309,310,311,457,457,309,310,311,517,517,309,310,515,515,515,515,310,311,517,517,309,310,311,517,517,309,310,311,457,517,309,310,311,517,517,309,310,311,457,517,309,310,311,517,
517,309,318,311,457,457,309,318,311,457,457,309,318,311,517,517,309,318,311,457,457,309,324,311,517,517,309,318,515,515,515,515,324,311,517,517,309,318,311,457,457,309,318,311,457,457,309,318,311,517,517,309,318,311,457,517,309,318,311,517,
316,317,318,319,320,316,317,318,319,320,316,317,318,319,320,316,317,324,319,320,316,317,318,319,320,316,317,324,515,515,515,515,318,319,320,316,317,318,319,320,316,317,318,319,320,316,317,318,319,320,316,317,318,319,320,316,317,324,319,320,
517,517,457,517,457,589,640,639,641,589,457,457,457,517,517,457,457,457,457,457,457,457,457,457,457,517,457,517,587,515,515,581,517,517,517,457,457,517,517,517,457,517,517,457,517,457,517,457,517,517,517,517,517,517,517,457,517,517,517,517,
517,517,457,517,517,589,642,639,639,589,517,457,457,517,517,517,457,457,457,457,457,517,457,457,517,517,457,457,587,515,515,581,517,517,517,457,517,517,517,517,517,517,517,517,457,517,517,457,457,517,517,517,517,517,517,517,517,517,517,517,
517,457,457,517,457,589,640,639,640,589,457,457,457,517,517,517,517,517,517,457,457,517,457,517,517,457,457,457,587,515,515,581,517,517,517,517,517,517,517,457,457,457,517,517,517,517,457,457,517,457,517,517,517,517,517,517,517,517,457,517,
517,517,517,457,517,589,639,639,640,589,457,517,457,517,517,517,517,457,517,517,517,457,517,517,517,457,457,457,587,515,515,581,517,517,517,517,517,517,517,457,457,457,517,457,517,457,457,457,457,457,517,517,517,517,517,517,457,457,517,457,
517,517,517,517,517,589,640,642,639,589,457,517,517,517,517,517,457,517,457,517,517,517,517,517,517,517,457,517,587,515,515,581,517,517,517,517,517,517,457,457,457,457,457,457,457,517,457,457,457,457,517,457,517,517,517,517,457,457,457,457,
517,517,517,457,517,589,639,642,641,589,457,517,517,82,82,457,517,457,517,517,517,517,517,517,517,517,517,517,587,515,515,581,517,517,517,517,517,517,517,457,457,457,457,517,457,507,507,507,507,507,507,507,507,507,507,507,457,457,457,457,
517,517,457,457,457,589,642,639,640,589,517,517,517,517,517,517,517,457,457,457,517,82,82,457,517,517,517,517,587,515,515,581,517,517,517,457,457,457,517,457,517,457,457,457,517,507,507,507,507,507,507,507,507,507,507,507,457,457,457,457,
517,517,517,457,517,589,642,639,640,589,517,517,517,517,517,517,457,457,517,457,517,517,517,517,517,517,517,517,587,515,515,596,561,561,561,561,561,561,561,561,561,561,563,517,517,507,507,507,507,507,507,507,507,507,507,507,517,457,457,457,
517,517,517,517,517,589,639,642,640,589,517,517,517,517,517,517,457,517,457,457,517,517,517,517,517,517,517,517,587,515,515,515,507,507,507,507,507,507,507,507,507,507,562,517,457,507,507,507,507,507,507,507,507,507,507,507,457,517,457,457,
517,517,517,517,517,589,640,639,642,589,457,517,517,517,517,517,457,457,457,517,517,517,517,517,517,517,517,517,587,515,515,597,564,564,564,564,564,564,564,564,564,564,566,457,457,507,507,507,507,507,507,507,507,507,507,507,517,457,517,457,
517,517,517,457,457,589,642,639,639,589,457,457,457,517,517,517,457,457,457,457,517,517,517,517,517,517,517,517,587,515,515,581,517,517,457,457,457,457,457,457,517,517,517,517,457,507,507,507,507,507,507,507,507,507,507,507,517,517,517,517,
517,517,517,517,457,589,639,642,639,589,457,517,457,517,571,457,457,457,457,457,457,517,517,517,517,517,517,517,587,515,515,581,457,457,457,457,457,457,457,457,517,517,517,517,457,507,507,507,507,507,507,507,507,507,507,507,457,517,517,517,
517,517,517,517,517,589,641,639,639,589,457,457,457,569,507,561,561,561,561,561,561,561,561,561,561,561,561,561,595,515,515,581,457,517,517,457,457,457,517,457,517,517,517,517,517,507,507,507,507,507,507,507,507,507,507,507,457,457,517,517,
517,517,517,517,517,589,640,639,640,589,457,457,457,572,564,564,564,564,507,564,564,564,564,564,564,564,564,564,598,515,515,581,457,457,517,515,515,515,515,515,515,517,517,517,517,507,507,507,507,507,507,507,507,507,507,507,457,517,517,517,
457,517,517,517,457,589,640,639,640,589,457,457,457,457,457,457,457,517,570,457,457,517,457,457,517,517,517,517,587,515,515,581,457,517,517,515,515,515,515,515,515,517,517,517,517,517,517,517,517,517,457,457,457,457,517,517,517,517,517,517,
457,457,457,517,457,589,639,639,639,589,457,457,457,457,517,457,457,517,570,457,457,517,517,517,457,457,457,517,587,515,515,581,457,517,517,515,515,515,515,515,515,517,517,517,517,517,517,517,517,517,457,457,457,517,517,517,517,517,517,517,
517,457,457,517,457,589,641,639,639,589,517,457,1191,1191,1191,1191,1191,517,570,517,517,457,457,457,457,457,517,457,587,515,515,581,517,517,517,515,515,515,515,515,515,517,517,517,517,517,517,517,517,517,457,457,457,517,517,517,517,517,517,517,
457,517,457,457,517,589,640,639,640,589,457,517,1191,1191,1191,1191,1191,517,570,517,1191,1191,1191,457,457,457,457,517,587,515,515,581,517,517,517,517,517,517,517,517,517,517,517,517,517,517,517,517,517,517,457,457,457,457,517,517,517,517,517,517,
457,457,457,457,457,589,639,642,641,589,517,517,1191,1191,1191,1191,1191,517,570,517,1191,1191,1191,457,457,457,457,517,587,515,515,581,457,517,517,517,517,517,517,517,517,517,517,517,517,517,517,517,517,457,517,457,457,457,517,517,457,517,517,517,
517,457,457,517,457,589,639,639,639,589,517,517,457,517,517,517,517,517,570,517,517,517,517,517,517,457,457,588,595,515,515,596,580,582,517,517,517,517,517,517,517,517,517,569,561,563,517,517,457,457,457,457,517,457,517,457,457,457,517,517,
457,457,457,457,457,589,640,642,641,589,517,517,517,517,517,517,517,517,570,517,517,517,517,517,517,457,588,595,515,515,515,515,515,596,582,517,517,517,517,517,517,517,517,568,507,562,517,517,517,517,457,457,457,457,517,517,517,517,517,517,
517,457,457,457,457,589,642,640,641,589,517,517,517,517,517,517,517,517,570,517,457,457,517,517,517,588,595,515,515,515,515,515,515,515,596,582,517,517,517,517,517,517,517,568,507,562,517,517,517,457,457,457,457,517,517,517,517,517,517,517,
517,517,457,457,457,589,642,639,640,589,517,517,517,517,517,517,517,517,570,517,517,457,517,517,588,595,515,515,515,515,515,515,515,515,515,596,580,582,517,517,517,517,569,576,507,562,517,517,517,517,517,517,517,517,517,517,517,517,517,517,
517,517,457,457,457,589,639,642,640,589,517,517,517,517,517,517,517,517,570,517,517,517,517,588,595,515,515,515,515,515,515,515,515,515,515,515,515,596,580,561,561,561,576,507,507,577,561,561,561,563,517,517,517,457,457,457,517,457,517,517,
517,517,457,517,457,589,641,641,639,589,457,457,457,517,517,517,517,517,570,517,517,517,517,587,515,515,515,515,515,515,515,515,515,515,515,515,515,515,515,507,507,507,507,507,507,507,507,507,507,577,561,561,561,561,561,561,561,561,563,517,
517,457,457,457,457,589,641,641,641,589,457,457,517,457,517,517,517,517,570,517,517,517,592,515,515,515,515,515,515,515,515,515,515,515,515,515,515,515,515,515,507,578,564,564,564,564,564,564,564,579,507,507,507,507,507,507,507,507,562,517,
517,517,457,457,517,589,639,641,639,589,517,457,457,517,517,517,517,517,570,517,517,517,517,587,515,515,515,515,515,515,515,515,515,515,515,515,515,515,515,507,507,562,517,517,457,517,517,517,457,572,564,564,564,564,564,564,564,564,566,517,
517,517,457,457,457,589,642,639,642,589,517,457,517,517,517,517,517,517,570,517,517,517,517,591,598,515,515,515,515,515,515,515,515,515,515,515,515,597,583,579,507,562,517,457,517,517,517,517,517,457,457,457,457,457,457,517,517,457,517,517,
517,517,457,517,457,589,639,642,639,589,517,457,457,517,517,517,517,517,570,517,517,517,517,517,587,515,515,515,515,515,515,515,515,597,583,515,583,585,457,568,507,562,457,457,457,457,457,517,517,517,457,457,457,457,457,517,457,517,517,517,
517,457,457,457,457,589,642,639,642,589,457,457,569,561,561,561,561,561,507,561,561,561,561,561,576,578,583,583,583,583,515,583,583,585,517,593,457,457,517,568,507,562,457,569,561,563,457,457,517,457,457,457,457,457,457,457,457,517,517,517,
517,517,457,517,517,589,641,639,642,589,457,457,572,564,564,564,579,578,564,564,564,564,564,564,564,566,517,517,517,517,593,517,517,517,517,517,457,457,517,568,507,562,517,568,507,562,457,517,517,517,457,457,457,457,457,517,517,517,517,517,
517,517,517,517,517,589,639,641,639,589,517,457,457,457,517,517,568,562,457,457,457,457,517,517,517,517,517,517,517,517,517,517,517,517,517,457,517,517,457,568,507,562,517,568,507,562,457,517,517,457,507,507,507,507,507,507,517,517,517,517,
517,517,517,517,517,589,641,641,639,589,517,517,457,517,517,517,568,562,457,457,457,517,517,517,457,517,517,517,517,517,517,517,517,517,457,457,517,457,457,568,507,507,565,564,564,566,517,517,517,517,507,507,507,507,507,507,517,517,517,517,
517,588,584,584,584,585,642,640,641,591,582,517,517,517,517,517,568,562,457,457,517,457,457,517,517,517,517,517,517,517,517,517,517,517,517,517,457,457,517,568,507,562,517,517,517,517,517,517,517,517,507,507,507,507,507,507,457,457,517,517,
517,589,642,641,639,641,639,639,639,639,589,517,517,517,517,517,568,562,517,517,457,457,457,457,517,517,517,517,517,517,517,517,517,517,517,517,457,517,517,568,507,562,517,517,517,517,517,517,517,517,507,507,507,507,507,507,457,457,457,517,
517,589,639,640,639,639,639,641,642,642,589,517,517,517,517,517,568,562,517,517,457,457,457,457,457,517,517,517,517,517,517,517,517,517,457,517,517,517,517,568,507,562,457,517,517,517,517,517,517,517,507,507,507,507,507,507,457,457,517,517,
517,589,642,642,641,639,639,639,642,641,589,517,517,517,517,517,568,562,517,517,517,517,457,457,517,517,517,517,517,517,517,517,517,457,457,457,517,517,517,568,507,562,457,517,517,517,517,517,517,517,507,507,507,507,507,507,517,517,517,517,
517,589,639,642,639,639,640,639,639,639,587,561,561,561,561,561,576,562,517,517,517,517,517,457,517,517,517,517,517,517,517,517,517,517,457,517,517,517,517,568,507,562,457,517,517,517,517,517,517,517,507,507,507,507,507,507,517,517,517,517,
517,589,641,642,639,639,641,639,639,641,587,564,564,564,564,564,579,562,517,517,517,517,517,517,517,517,517,517,517,457,517,517,517,517,517,517,517,517,517,568,507,562,517,517,517,517,517,517,517,517,507,507,507,507,507,507,517,517,517,517,
517,589,639,641,641,641,642,641,640,640,589,457,457,457,457,517,568,562,517,517,517,517,517,517,457,517,517,517,517,517,517,517,517,517,517,457,517,517,457,568,507,562,457,457,517,517,517,517,517,517,517,517,517,517,517,517,517,517,517,517,
517,589,640,642,639,642,642,641,642,640,589,457,457,457,457,457,568,562,517,517,517,457,517,517,517,517,517,517,517,517,457,517,517,517,517,517,517,517,517,568,507,562,517,517,457,517,457,517,517,517,517,517,517,517,517,517,517,517,517,517,
457,589,639,639,639,639,639,639,639,641,589,457,457,457,457,517,572,566,517,517,517,457,517,517,517,457,517,517,517,517,517,517,517,517,517,517,457,517,457,568,507,577,563,457,517,457,457,517,517,457,457,517,517,517,517,517,517,517,517,517,
457,591,584,584,584,584,584,584,584,584,585,457,457,457,517,457,517,517,517,517,517,457,517,517,517,517,517,517,517,517,517,457,517,517,517,517,517,517,457,568,507,507,577,563,457,517,457,457,457,457,457,457,457,517,457,457,517,517,517,517,
457,457,457,457,457,457,517,517,517,517,457,517,457,457,457,517,517,517,517,517,517,517,517,517,517,517,457,517,517,517,517,517,517,517,517,517,517,457,457,568,507,507,507,562,517,517,457,457,457,457,457,457,457,457,457,457,457,517,457,517,
457,457,457,517,517,517,517,517,517,517,517,457,517,517,517,517,457,517,457,517,457,457,517,517,517,517,517,517,517,517,517,517,457,517,517,517,517,517,457,568,507,578,564,566,517,517,457,457,457,457,457,457,457,517,457,517,457,517,457,457,
457,457,517,457,457,517,517,517,517,517,517,517,517,517,517,457,517,457,457,457,517,517,517,517,517,517,517,457,517,517,517,517,517,517,517,517,517,517,457,568,507,562,517,517,517,457,457,457,457,517,457,517,517,517,457,457,457,457,457,517,
517,517,457,457,457,517,517,517,517,517,517,517,517,517,457,457,457,457,457,457,457,457,580,580,580,580,580,580,580,580,580,580,580,580,580,580,580,580,457,568,507,562,517,517,517,517,457,457,457,457,457,457,457,457,517,517,517,517,457,517,
517,457,457,457,457,517,517,517,517,517,517,517,517,517,517,517,457,457,457,517,457,517,515,515,515,515,515,515,515,515,515,515,515,515,515,515,515,515,457,568,507,562,457,517,517,517,517,457,517,457,517,457,457,457,517,517,457,517,517,517,
457,457,517,457,457,457,517,517,517,517,517,517,517,517,517,517,457,517,457,517,457,457,515,515,515,515,515,515,515,515,515,515,515,515,515,515,515,515,561,576,507,562,517,517,517,517,517,517,457,457,457,457,457,457,457,517,517,517,517,517,
517,457,517,517,517,517,517,517,517,517,517,517,517,517,517,517,517,517,517,517,457,517,515,515,515,515,515,515,515,515,515,515,515,515,515,515,515,515,507,578,564,566,517,517,517,517,517,517,517,457,457,457,457,517,517,517,517,517,517,517,
517,517,457,457,517,517,517,517,517,517,517,517,517,517,517,517,517,517,457,517,517,517,517,517,517,517,517,517,517,569,561,561,561,561,561,576,507,507,507,562,517,517,517,517,517,517,517,517,517,457,457,457,457,457,517,517,517,517,517,517,
517,457,517,517,517,517,517,517,517,517,457,517,517,517,517,457,457,457,457,457,457,517,517,517,517,517,517,517,517,568,507,507,507,507,507,507,578,564,564,566,517,517,517,517,517,457,517,517,517,517,457,517,517,517,517,517,517,517,517,517,
457,517,517,517,517,517,517,517,457,457,457,517,517,517,517,517,457,517,457,457,457,457,517,517,517,517,517,517,517,572,564,564,564,564,564,564,566,517,517,517,517,517,517,517,517,457,517,517,517,517,457,457,457,517,517,517,517,517,517,517,
517,517,517,517,517,517,517,457,457,457,457,517,517,517,517,517,517,457,457,517,457,517,517,517,517,517,517,517,517,517,517,517,517,517,457,517,517,517,517,517,517,517,517,457,457,457,517,517,517,517,457,457,517,517,517,517,517,517,517,517
</data>
 </layer>
 <layer id="21" name="shadow_lower" width="60" height="60">
  <data encoding="csv">
0,0,0,0,0,0,0,0,0,0,0,0,0,0,0,0,0,0,0,0,0,0,0,0,0,0,0,0,0,0,0,0,0,0,0,0,0,0,0,0,0,0,0,0,0,0,0,0,0,0,0,0,0,0,0,0,0,0,0,0,
0,0,0,0,0,0,0,0,0,0,0,0,0,0,0,0,0,0,0,0,0,0,0,0,0,0,0,0,0,0,0,0,0,0,0,0,0,0,0,0,0,0,0,0,0,0,0,0,0,0,0,0,0,0,0,0,0,0,0,0,
0,64,62,0,0,0,64,62,0,0,0,64,62,0,0,0,64,62,0,0,0,64,62,0,0,0,64,62,0,0,0,0,62,0,0,0,64,62,0,0,0,64,62,0,0,0,64,62,0,0,0,64,62,0,0,0,64,62,0,0,
0,0,0,0,0,0,0,0,0,0,0,0,0,0,0,0,0,0,0,0,0,0,0,0,0,0,0,0,0,0,0,0,0,0,0,0,0,0,0,0,0,0,0,0,0,0,0,0,0,0,0,0,0,0,0,0,0,0,0,0,
0,0,0,0,0,0,0,0,0,0,0,0,0,0,0,0,0,0,0,0,0,0,0,0,0,0,0,0,0,0,0,0,0,0,0,0,0,0,0,0,0,0,0,0,0,0,0,0,0,0,0,0,0,0,0,0,0,0,0,0,
0,0,0,0,0,0,0,0,0,0,0,0,0,0,0,0,0,0,0,0,0,0,0,0,0,0,0,0,0,0,0,0,0,0,0,0,0,0,0,0,0,0,0,0,0,0,0,0,0,0,0,0,0,0,0,0,0,0,0,0,
0,0,0,0,0,0,0,0,0,0,0,0,0,0,0,0,0,0,0,0,0,0,0,0,0,1167,0,0,0,0,0,0,0,0,1164,0,0,0,0,0,0,0,0,0,0,0,0,0,0,0,0,0,0,0,0,0,0,0,0,0,
0,0,0,0,0,0,0,0,0,0,0,0,0,0,0,0,0,0,0,0,0,0,0,0,1167,0,1165,0,0,0,0,0,0,1164,0,1166,0,0,0,0,0,0,0,0,0,0,0,0,0,0,0,0,0,0,0,0,0,0,0,0,
0,0,0,0,0,0,0,0,0,0,0,0,0,0,0,0,0,0,1166,0,0,0,0,0,0,0,1166,0,0,0,0,0,1164,0,0,0,0,0,0,0,0,0,0,0,0,0,0,0,0,0,0,0,0,0,0,0,0,0,0,0,
0,0,0,0,0,0,0,0,0,0,0,0,0,0,0,0,0,0,0,0,0,0,0,0,0,0,0,0,0,0,0,0,0,0,0,0,0,0,0,0,0,0,0,0,0,0,0,0,0,0,0,0,0,0,0,0,0,0,0,0,
0,0,0,0,0,0,0,0,0,0,0,0,0,0,0,0,0,0,0,0,0,0,0,0,0,0,0,1165,0,0,0,0,1165,0,0,0,0,0,0,0,0,0,0,0,0,0,0,0,0,0,0,0,0,0,0,0,0,0,0,0,
0,0,0,0,0,0,0,0,0,0,0,0,0,0,0,0,0,0,0,0,0,0,0,0,0,0,0,0,0,0,0,0,0,0,0,0,0,0,0,0,0,0,0,0,0,1257,1257,1257,1257,1257,1257,1257,1257,1257,1257,1257,0,0,0,0,
0,0,0,0,0,0,0,0,0,1158,0,0,0,0,0,0,0,0,0,0,0,0,0,0,0,0,0,1166,0,0,0,0,1166,0,0,0,0,0,0,0,0,0,0,0,0,1191,1191,1191,1191,1191,1191,1191,1191,1191,1191,1191,0,0,0,0,
0,0,0,0,0,0,0,0,0,0,0,0,0,0,0,0,0,0,0,0,0,0,0,0,0,0,0,0,0,0,0,0,0,0,0,0,0,0,0,0,0,0,0,0,0,1257,1257,1257,1257,1257,1257,1257,1257,1257,1257,1257,0,0,0,0,
0,0,0,0,0,0,0,0,0,0,0,0,0,0,0,0,0,0,0,0,0,0,0,0,0,0,0,1167,0,0,0,0,1167,0,0,0,0,0,0,0,0,0,0,0,0,1191,1191,1191,1191,1191,1191,1191,1191,1191,1191,1191,0,0,0,0,
0,0,0,0,0,0,0,0,0,0,0,0,0,0,0,0,0,0,0,0,0,0,0,0,0,0,0,0,0,0,0,0,0,0,0,0,0,0,0,0,0,0,0,0,0,1257,1257,1257,1257,1257,1257,1257,1257,1257,1257,1257,0,0,0,0,
0,0,0,0,0,0,0,0,0,0,0,0,1164,0,0,0,0,0,0,0,0,0,1166,0,0,0,0,1164,0,0,0,0,1164,0,0,0,0,0,0,0,0,0,0,0,0,1191,1191,1191,1191,1191,1191,1191,1191,1191,1191,1191,0,0,0,0,
0,0,0,0,0,1158,0,0,0,0,0,0,0,0,0,0,0,0,0,0,0,0,0,0,0,0,0,0,0,0,0,0,0,0,0,0,0,0,0,0,0,0,0,0,0,1257,1257,1257,1257,1257,1257,1257,1257,1257,1257,1257,0,0,0,0,
0,0,0,0,0,0,0,0,0,0,0,0,0,0,0,0,0,0,0,0,0,0,0,0,0,0,0,1165,0,0,0,0,1165,0,0,0,0,0,0,0,0,0,0,0,0,1191,1191,1191,1191,1191,1191,1191,1191,1191,1191,1191,0,0,0,0,
0,0,0,0,0,0,0,0,0,0,0,0,0,0,0,0,0,0,0,0,0,0,0,0,0,0,0,0,0,0,0,0,0,0,0,0,0,0,0,0,0,0,0,0,0,1257,1257,1257,1257,1257,1257,1257,1257,1257,1257,1257,0,0,0,0,
0,0,0,0,0,0,0,0,0,0,0,0,0,0,0,0,0,0,0,0,0,0,0,0,0,0,0,1166,0,0,0,0,1166,0,0,0,0,0,426,426,0,0,0,0,0,0,0,0,0,0,0,0,0,0,0,0,0,0,0,0,
0,0,0,0,0,0,0,0,0,0,0,0,0,0,0,0,0,0,0,0,0,0,0,0,0,0,0,0,0,0,0,0,0,0,0,412,412,412,434,434,0,0,0,0,0,0,0,0,0,0,0,0,0,0,0,0,0,0,0,0,
0,0,0,0,0,0,0,0,0,0,0,0,1166,1166,1166,1166,1166,0,0,0,0,0,0,0,0,0,0,1167,0,0,0,0,1167,0,0,420,420,420,442,442,558,0,0,0,0,0,0,0,0,0,0,0,0,0,0,0,0,0,0,0,
0,0,0,0,0,0,0,0,0,0,0,0,1149,0,1149,0,1149,0,0,0,1166,1166,1166,0,0,0,0,0,0,0,0,0,0,0,0,0,0,0,0,0,0,0,0,0,0,0,0,0,0,0,0,0,0,0,0,0,0,0,0,0,
0,0,0,0,0,0,0,0,0,0,0,0,1166,1166,1166,1166,1166,0,0,0,1149,0,1149,0,0,0,0,1164,0,0,0,0,1164,0,0,0,0,0,0,0,0,0,0,0,0,0,0,0,0,0,0,0,0,0,0,0,0,0,0,0,
0,0,0,0,0,0,0,0,0,0,0,0,0,0,0,0,0,0,0,0,0,0,0,0,0,0,0,0,0,0,0,0,0,0,0,0,0,0,0,0,0,0,0,0,0,0,0,0,0,0,0,0,0,0,0,0,0,0,0,0,
0,0,0,0,0,0,0,0,0,1158,0,0,0,0,0,0,0,0,0,0,0,0,0,0,0,0,0,0,0,0,0,0,0,0,0,0,0,0,0,0,0,0,0,0,0,0,0,0,0,0,0,0,0,0,0,0,0,0,0,0,
0,0,0,0,0,0,0,0,0,0,0,0,0,0,0,0,0,0,0,0,0,0,0,0,0,0,0,0,0,0,0,0,0,0,0,0,0,0,0,0,0,0,0,0,0,0,0,0,0,0,0,0,0,0,0,0,0,0,0,0,
0,0,0,0,0,0,0,0,0,0,0,0,0,0,0,0,0,0,0,0,0,0,0,0,0,0,0,0,0,0,0,0,0,0,0,0,0,0,0,0,0,0,0,0,0,0,0,0,0,0,0,0,0,0,0,0,0,0,0,0,
0,0,0,0,0,0,0,0,0,0,0,0,0,0,0,0,0,0,0,0,0,0,0,0,0,0,0,0,0,0,0,0,0,0,0,0,0,0,0,0,0,0,0,0,0,0,0,0,0,0,0,0,0,0,0,0,0,0,0,0,
0,0,0,0,0,1158,0,0,0,0,0,0,0,0,0,0,0,0,0,0,0,0,0,0,0,0,0,0,0,0,0,0,0,0,0,0,0,0,0,0,0,0,0,0,0,0,0,0,0,0,0,0,0,0,0,0,0,0,0,0,
0,0,0,0,0,0,0,0,0,0,0,0,0,0,0,0,0,0,0,0,0,0,0,0,0,0,0,0,0,0,0,0,0,0,0,0,0,0,0,0,0,0,0,0,0,0,0,0,0,0,0,0,0,0,0,0,0,0,0,0,
0,0,0,0,0,0,0,0,0,0,0,0,0,0,0,0,0,0,0,0,0,0,0,0,0,0,0,0,0,0,0,0,0,0,0,0,0,0,0,0,0,0,0,0,0,0,0,0,0,0,0,0,0,0,0,0,0,0,0,0,
0,0,0,0,0,0,0,0,0,0,0,0,0,0,0,0,0,0,0,0,0,0,0,0,0,0,0,0,0,0,0,0,0,0,0,0,0,0,0,0,0,0,0,0,0,0,0,0,0,0,0,0,0,0,0,0,0,0,0,0,
0,0,0,0,0,0,0,0,0,1158,0,0,0,0,0,0,0,0,0,0,0,0,0,0,0,0,0,0,0,0,0,0,0,0,0,0,0,0,0,0,0,0,0,0,0,0,0,0,0,0,0,0,0,0,0,0,0,0,0,0,
0,0,0,0,0,0,0,0,0,0,0,0,0,0,0,0,0,0,0,0,0,0,0,0,0,0,0,0,0,0,0,0,0,0,0,0,0,0,0,0,0,0,0,0,0,0,0,0,0,0,0,0,0,0,0,0,0,0,0,0,
0,0,0,0,0,0,0,0,0,0,0,0,0,0,0,0,0,0,0,0,0,0,0,0,0,0,0,0,0,0,0,0,0,0,0,0,0,0,0,0,0,0,0,0,0,0,0,0,0,0,0,0,0,0,0,0,0,0,0,0,
0,0,0,0,0,0,0,0,0,0,0,0,0,0,0,0,0,0,0,0,0,0,0,0,0,0,0,0,0,0,0,0,0,0,0,0,0,0,0,0,0,0,0,0,0,0,0,0,0,0,1191,1191,1191,1191,1191,1191,0,0,0,0,
0,0,0,0,0,0,0,0,0,0,0,0,0,0,0,0,0,0,0,0,0,0,0,0,0,0,0,0,0,0,0,0,0,0,0,0,0,0,0,0,0,0,0,0,0,0,0,0,0,0,1191,1191,1191,1191,1191,1191,0,0,0,0,
0,0,0,0,0,0,0,0,0,0,0,0,0,0,0,0,0,0,0,0,0,0,0,0,0,1165,1166,0,0,0,0,0,0,0,1166,1167,0,0,0,0,0,0,0,0,0,0,0,0,0,0,1191,1191,1191,1191,1191,1191,0,0,0,0,
0,0,0,0,0,0,0,0,0,0,0,0,0,0,0,0,0,0,0,0,0,0,0,0,0,0,0,0,0,0,0,0,0,0,0,0,0,0,0,0,0,0,0,0,0,0,0,0,0,0,1191,1191,1191,1191,1191,1191,0,0,0,0,
0,0,0,0,0,0,0,0,0,0,0,0,0,0,0,0,0,0,0,0,0,0,0,0,0,0,0,0,0,0,0,0,0,0,0,0,0,0,0,0,0,0,0,0,0,0,0,0,0,0,1191,1191,1191,1191,1191,1191,0,0,0,0,
0,0,0,0,0,0,0,0,0,0,0,0,0,0,0,0,0,0,0,0,0,0,0,0,0,0,0,0,0,0,0,0,0,0,0,0,0,0,0,0,0,0,0,0,0,0,0,0,0,0,1191,1191,1191,1191,1191,1191,0,0,0,0,
0,0,0,0,0,0,0,0,0,0,0,0,0,0,0,0,0,0,0,0,0,0,0,0,0,0,0,0,0,0,0,0,0,0,0,0,0,0,0,0,0,0,0,0,0,0,0,0,0,0,1191,1191,1191,1191,1191,1191,0,0,0,0,
0,0,0,0,0,0,0,0,0,0,0,1165,0,0,0,0,0,0,0,0,0,0,0,0,0,0,0,0,0,0,0,0,0,0,0,0,0,0,0,0,0,0,0,0,0,0,0,0,0,0,1191,1191,1191,1191,1191,1191,0,0,0,0,
0,0,0,0,0,0,0,0,0,0,0,0,0,0,0,0,0,0,0,0,0,0,0,0,0,0,0,0,0,0,0,0,0,0,0,0,0,0,0,0,0,0,0,0,0,0,0,0,0,0,0,0,0,0,0,0,0,0,0,0,
0,0,0,0,0,0,0,0,0,0,0,0,0,0,0,0,0,0,0,0,0,0,0,0,0,0,0,0,0,0,0,0,0,0,0,0,0,0,0,0,0,0,0,0,0,0,0,0,0,0,0,0,0,0,0,0,0,0,0,0,
0,0,0,0,0,0,0,0,0,0,0,0,0,0,0,0,0,0,0,0,0,0,0,0,0,0,0,0,0,0,0,0,0,0,0,0,0,0,0,0,0,0,0,0,0,0,0,0,0,0,0,0,0,0,0,0,0,0,0,0,
0,0,0,0,0,0,0,0,0,0,0,0,0,0,0,0,0,0,0,0,0,0,0,0,0,0,0,0,0,0,0,0,0,0,0,0,0,0,0,0,0,0,0,0,0,0,0,0,0,0,0,0,0,0,0,0,0,0,0,0,
0,0,0,0,0,0,0,0,0,0,0,0,0,0,0,0,0,0,0,0,0,0,0,0,0,0,0,0,0,0,0,0,0,0,0,0,0,0,0,0,0,0,0,0,0,0,0,0,0,0,0,0,0,0,0,0,0,0,0,0,
0,0,0,0,0,0,0,0,0,0,0,0,0,0,0,0,0,0,0,0,0,0,0,0,0,0,0,0,0,0,0,0,0,0,0,0,0,0,0,0,0,0,0,0,0,0,0,0,0,0,0,0,0,0,0,0,0,0,0,0,
0,0,0,0,0,0,0,0,0,0,0,0,0,0,0,0,0,0,0,0,0,0,0,0,0,0,0,0,0,0,0,0,0,0,0,0,0,0,0,0,0,0,0,0,0,0,0,0,0,0,0,0,0,0,0,0,0,0,0,0,
0,0,0,0,0,0,0,0,0,0,0,0,0,0,0,0,0,0,0,0,0,0,0,0,0,0,0,0,0,0,0,0,0,0,0,0,0,0,0,0,0,0,0,0,0,0,0,0,0,0,0,0,0,0,0,0,0,0,0,0,
0,0,0,0,0,0,0,0,0,0,0,0,0,0,0,0,0,0,0,0,0,0,0,0,0,0,0,0,0,0,0,0,0,0,0,0,0,0,0,0,0,0,0,0,0,0,0,0,0,0,0,0,0,0,0,0,0,0,0,0,
0,0,0,0,0,0,0,0,0,0,0,0,0,0,0,0,0,0,0,0,0,0,0,0,0,0,0,0,0,0,0,0,0,0,0,0,0,0,0,0,0,0,0,0,0,0,0,0,0,0,0,0,0,0,0,0,0,0,0,0,
0,0,0,0,0,0,0,0,0,0,0,0,0,0,0,0,0,0,0,0,0,0,0,0,0,0,0,0,0,0,0,0,0,0,0,0,0,0,0,0,0,0,0,0,0,0,0,0,0,0,0,0,0,0,0,0,0,0,0,0,
0,0,0,0,0,0,0,0,0,0,0,0,0,0,0,0,0,0,0,0,0,0,0,0,0,0,0,0,0,0,0,0,0,0,0,0,0,0,0,0,0,0,0,0,0,0,0,0,0,0,0,0,0,0,0,0,0,0,0,0,
0,0,0,0,0,0,0,0,0,0,0,0,0,0,0,0,0,0,0,0,0,0,0,0,0,0,0,0,0,0,0,0,0,0,0,0,0,0,0,0,0,0,0,0,0,0,0,0,0,0,0,0,0,0,0,0,0,0,0,0,
0,0,0,0,0,0,0,0,0,0,0,0,0,0,0,0,0,0,0,0,0,0,0,0,0,0,0,0,0,0,0,0,0,0,0,0,0,0,0,0,0,0,0,0,0,0,0,0,0,0,0,0,0,0,0,0,0,0,0,0,
0,0,0,0,0,0,0,0,0,0,0,0,0,0,0,0,0,0,0,0,0,0,0,0,0,0,0,0,0,0,0,0,0,0,0,0,0,0,0,0,0,0,0,0,0,0,0,0,0,0,0,0,0,0,0,0,0,0,0,0
</data>
 </layer>
 <layer id="22" name="object" width="60" height="60">
  <data encoding="csv">
45,45,45,45,45,45,45,45,45,45,45,45,45,45,45,45,45,45,45,45,45,45,45,45,45,45,45,45,302,302,302,302,45,45,45,45,45,45,45,45,45,45,45,45,45,45,45,45,45,45,45,45,45,45,45,45,45,45,45,45,
306,53,53,53,53,53,53,53,53,53,53,53,53,53,53,53,53,53,53,53,53,53,53,53,53,53,53,45,302,302,302,302,45,53,53,53,53,53,53,53,53,53,53,53,53,53,53,53,53,53,53,53,53,53,53,53,53,53,53,53,
306,293,294,295,296,292,293,294,295,296,292,293,294,295,296,292,293,294,295,296,292,293,294,295,296,292,293,45,0,0,0,0,45,295,296,292,293,294,295,296,292,293,294,295,296,292,293,294,295,296,292,293,294,295,296,292,293,294,295,296,
314,301,302,303,304,300,301,302,303,304,300,301,302,303,304,300,301,302,303,304,300,301,302,303,304,300,301,45,0,0,0,0,45,303,304,300,301,302,303,304,300,301,302,303,304,300,301,302,303,304,300,301,302,303,304,300,301,302,303,304,
308,0,0,0,312,308,0,0,0,312,308,0,0,0,312,308,0,0,0,312,308,0,0,0,312,308,0,45,0,0,0,0,45,0,312,308,0,0,0,312,308,0,0,0,312,308,0,0,0,312,308,0,0,0,312,308,0,0,0,312,
302,0,0,0,0,0,0,0,0,0,0,0,0,0,0,0,0,0,0,0,0,0,0,0,0,0,0,45,0,0,0,0,45,0,0,0,0,0,0,0,0,0,0,0,0,0,0,0,0,0,0,0,0,0,0,0,0,0,0,302,
302,0,0,0,0,0,302,302,302,0,0,0,0,0,0,0,0,0,0,0,0,0,0,0,0,0,0,0,0,0,0,0,0,0,0,0,0,0,0,0,0,0,0,0,0,0,0,0,0,0,0,0,0,0,0,0,0,0,0,302,
302,0,0,0,0,0,302,302,302,0,1193,0,0,0,0,0,0,0,0,0,0,0,0,0,0,0,0,0,0,0,0,0,0,0,0,0,1193,0,0,0,0,0,0,0,0,0,0,0,0,0,0,0,0,0,0,0,0,0,0,302,
302,0,0,0,0,0,302,302,302,0,0,0,0,0,0,0,0,0,0,0,0,0,0,0,0,0,0,0,0,0,0,0,0,0,0,0,0,0,0,0,0,0,0,0,0,0,0,0,0,0,0,0,0,0,0,0,0,0,0,302,
302,0,0,0,0,0,302,302,302,0,0,1150,0,0,0,0,0,0,0,0,0,0,0,0,0,0,356,357,0,0,0,0,0,356,357,0,0,0,0,0,0,0,0,1161,1161,1161,1161,1161,1161,1161,1161,1161,1161,1161,1161,1161,1161,0,0,302,
350,351,352,0,0,0,302,302,302,0,0,0,0,0,0,0,0,0,0,1150,0,0,0,0,0,0,0,0,0,0,0,0,0,0,0,0,0,0,0,0,0,0,0,1258,0,0,0,0,0,0,0,0,0,0,0,0,1258,350,351,352,
302,0,0,0,0,0,302,302,302,0,0,0,82,82,82,82,0,0,0,0,0,0,0,0,0,0,0,0,0,0,0,0,0,0,0,0,0,0,0,0,0,0,0,1258,0,0,0,0,0,0,0,0,0,0,0,0,1258,0,0,302,
302,0,0,0,0,0,302,302,302,0,0,0,82,82,82,82,0,1286,1287,1288,82,82,82,82,0,0,0,0,0,0,0,0,0,0,0,0,0,0,0,0,0,0,0,1258,0,0,0,0,0,0,0,0,0,0,0,0,1258,0,0,302,
302,0,0,0,0,0,302,302,302,0,0,0,81,98,98,83,0,0,0,0,82,82,82,82,0,0,0,0,0,0,0,0,0,0,0,0,0,0,0,0,0,0,0,1258,0,0,0,0,0,0,1193,0,0,0,0,0,1258,0,0,302,
302,0,0,0,0,0,302,302,302,0,0,0,97,98,98,99,0,0,0,0,81,98,98,83,0,0,0,0,0,0,0,0,0,0,0,0,0,0,0,0,0,0,0,0,0,0,0,0,0,0,0,0,0,0,0,0,1258,0,0,302,
302,0,0,0,0,0,302,302,302,0,473,0,97,98,98,99,0,0,0,0,97,98,98,99,0,0,0,0,0,0,0,0,0,0,0,0,0,0,0,0,0,0,0,0,0,0,0,0,0,0,0,0,0,0,0,0,1258,0,0,302,
302,0,1274,1275,1276,0,302,302,302,0,1095,0,105,106,106,107,0,0,0,0,97,98,98,99,0,1150,0,0,0,0,0,0,0,0,0,0,0,0,0,0,0,0,0,1258,0,0,0,0,0,0,0,0,0,0,0,0,1258,0,0,302,
302,0,0,0,0,0,302,302,302,0,0,1150,0,0,0,0,0,0,0,0,105,106,106,107,0,0,0,0,0,0,0,0,0,0,0,0,0,0,0,0,0,0,0,1258,0,0,0,0,0,0,0,0,0,0,0,0,1258,0,0,302,
302,0,0,0,0,0,302,302,302,0,0,0,0,0,0,0,0,0,0,0,0,0,0,0,0,0,0,0,0,0,0,0,0,0,0,0,0,0,0,0,0,0,0,1258,0,0,0,0,0,0,0,0,0,0,0,0,1258,0,0,302,
302,0,0,0,0,0,302,302,302,0,0,0,0,0,0,0,0,0,0,0,0,0,0,0,0,0,0,0,0,0,0,0,0,0,0,399,400,399,400,399,400,0,0,1258,0,0,0,0,0,0,0,0,0,0,0,0,1258,0,0,302,
302,0,0,0,0,0,302,302,302,0,0,1161,1161,1161,0,0,1161,1161,0,0,0,0,0,0,0,0,0,0,0,0,0,0,0,0,0,407,408,407,408,407,408,1095,0,1161,1161,1161,1161,1161,1161,1161,1161,1161,1161,1161,1161,1161,1161,0,0,302,
302,0,0,0,0,0,302,302,302,0,0,1258,0,0,0,0,0,1258,0,1161,1161,0,0,1161,0,0,0,0,0,0,0,0,0,0,0,415,416,415,416,415,416,1095,0,0,0,0,0,0,0,0,0,0,0,0,0,0,0,0,0,302,
302,0,0,0,0,0,302,302,302,0,0,1258,0,0,0,0,0,1258,0,1258,0,0,0,1258,0,0,0,0,0,0,0,0,0,0,0,423,424,423,424,423,424,0,0,0,0,0,0,0,0,0,0,0,0,0,0,0,0,0,0,302,
302,0,0,0,0,0,302,302,302,0,0,1258,0,0,0,0,0,1258,0,1258,0,0,0,1258,0,0,0,0,0,0,0,0,0,0,0,0,0,0,0,0,0,0,0,0,0,0,0,0,0,0,0,0,0,0,0,0,0,0,0,302,
302,0,0,0,0,0,302,302,302,0,0,1258,0,0,0,0,0,1258,0,1258,0,0,0,1258,0,0,0,0,0,0,0,0,0,0,0,0,0,0,0,0,0,0,0,0,0,0,0,0,0,0,0,0,0,0,0,0,0,0,0,302,
302,0,0,0,0,0,302,302,302,0,0,1161,1161,1161,1161,1161,1161,1161,0,1161,1161,1161,1161,1161,0,0,0,0,0,0,0,0,0,0,0,0,0,0,0,0,0,0,0,393,394,395,0,0,0,0,0,0,0,0,0,0,0,0,0,302,
302,0,0,0,0,0,302,302,302,0,0,0,0,0,0,0,0,0,0,0,0,0,0,0,0,0,0,0,0,0,0,0,0,0,0,0,0,0,0,0,0,0,0,1095,0,1095,0,0,0,0,0,0,0,0,0,0,1274,1275,1276,302,
302,0,0,0,0,0,302,302,302,0,0,0,0,0,0,0,0,0,0,0,0,0,0,0,0,0,0,0,0,0,0,0,0,0,0,0,0,0,0,0,0,0,0,409,0,411,0,0,0,0,0,0,0,0,0,0,0,0,0,302,
302,0,0,0,0,0,302,302,302,0,0,0,0,0,0,0,0,0,0,0,0,0,0,0,0,0,0,0,0,0,0,0,0,0,0,0,0,0,0,0,0,0,0,0,0,0,0,0,0,0,0,0,0,0,0,0,0,0,0,302,
302,0,0,0,0,0,302,302,302,0,0,0,0,0,0,0,0,0,0,0,0,0,0,0,0,0,0,0,0,0,493,1255,1256,0,493,0,0,0,0,0,0,0,0,0,0,0,0,0,0,0,0,0,0,0,0,0,0,0,0,302,
350,351,352,0,0,0,302,302,302,0,0,0,0,0,0,0,0,0,0,0,0,0,0,0,0,0,0,0,0,0,0,0,0,0,0,0,0,0,0,0,0,0,0,0,0,0,0,0,0,0,0,0,0,0,0,0,0,0,0,302,
302,0,0,0,0,0,302,302,302,0,0,0,0,0,0,0,0,0,0,0,0,0,0,0,0,0,0,0,0,0,0,0,0,0,0,0,0,0,0,0,0,0,0,0,0,0,0,0,0,0,0,0,0,0,0,0,0,0,0,302,
302,0,0,0,0,0,302,302,302,0,0,0,0,0,0,0,0,0,0,0,0,0,0,0,0,0,0,0,0,0,0,0,0,0,0,0,0,0,0,0,0,0,0,0,0,0,0,0,0,0,0,0,0,0,0,0,0,0,0,302,
302,0,0,0,0,0,302,302,302,0,0,0,0,0,0,0,0,0,0,0,0,0,0,0,0,0,0,9,0,0,0,0,0,0,0,9,0,0,0,0,0,0,0,0,0,0,0,0,0,0,0,0,0,0,0,0,0,0,0,302,
302,0,1274,1275,1276,0,302,302,302,0,0,0,0,0,0,0,0,0,0,0,0,0,0,0,0,356,357,0,0,0,0,0,0,0,0,0,0,356,357,0,0,0,0,0,0,0,0,0,0,0,0,0,0,0,0,0,0,0,0,302,
302,0,0,0,0,0,302,302,302,0,0,0,0,0,0,0,0,0,0,0,0,0,0,0,0,0,0,0,0,0,0,0,0,0,0,0,0,0,0,0,0,0,0,393,394,395,0,0,0,1161,1161,1161,0,0,1161,1161,1161,0,0,302,
302,0,0,0,0,0,302,302,302,0,0,0,0,0,0,0,0,0,0,0,0,0,0,0,0,0,0,0,0,0,0,0,0,0,0,0,0,0,0,0,0,0,0,1095,0,1095,0,0,0,1258,0,0,0,0,0,0,1258,0,0,302,
302,0,0,0,0,0,302,302,302,0,0,0,0,0,0,0,0,0,0,0,0,0,0,0,0,0,0,0,0,0,0,0,0,0,0,0,0,0,0,0,0,0,0,409,0,411,0,0,0,1258,0,0,0,0,0,0,1258,0,0,302,
302,0,0,0,0,0,302,302,302,0,0,0,0,0,0,0,0,0,0,0,0,0,0,0,0,0,0,0,0,0,0,0,0,0,0,0,0,0,0,0,0,0,0,0,0,0,0,0,0,1258,0,0,0,0,0,0,1258,0,0,302,
302,0,0,0,0,0,302,302,302,0,0,0,0,0,0,0,0,0,0,0,0,0,0,0,9,0,0,9,0,0,0,0,0,9,0,0,9,0,0,0,0,0,0,0,0,0,0,0,0,1258,0,0,0,0,0,0,1258,0,0,302,
302,0,302,302,302,302,302,302,302,302,0,0,0,0,0,0,0,0,0,0,0,0,0,0,0,0,0,0,0,0,0,0,0,0,0,0,0,0,0,0,0,0,0,0,0,0,0,0,0,1258,0,0,0,0,0,0,1258,0,0,302,
302,0,302,302,302,302,302,302,302,302,0,0,0,0,0,1095,0,0,0,0,0,0,0,0,0,0,0,0,0,0,0,0,0,0,0,0,0,0,0,0,0,0,0,0,0,0,0,0,0,1258,0,0,0,0,0,0,1258,0,0,302,
302,0,302,302,302,302,302,302,302,302,0,0,350,351,352,0,0,0,0,350,351,352,0,0,0,0,0,0,0,0,0,0,0,0,0,0,0,0,0,0,0,0,0,0,0,0,0,0,0,1258,0,0,0,0,0,0,1258,350,351,352,
302,0,302,302,302,302,302,302,302,302,0,0,0,0,0,0,0,0,0,0,0,0,82,82,82,82,82,82,82,82,82,82,82,82,82,82,82,82,0,0,0,0,0,0,0,0,0,0,0,1258,0,0,0,0,0,0,1258,0,0,302,
302,0,302,302,302,302,302,302,302,302,0,0,0,0,0,0,0,0,0,0,0,0,82,82,82,82,82,82,82,82,82,82,82,82,82,82,82,82,0,0,0,0,0,0,0,0,0,0,0,1258,0,0,0,0,0,0,1258,0,0,302,
302,0,302,302,302,302,302,302,302,302,0,0,0,0,0,0,0,0,0,0,0,0,82,82,82,82,82,82,82,82,82,82,82,82,82,82,82,82,0,0,0,0,0,0,0,0,0,0,0,1161,1161,1161,1161,1161,1161,1161,1161,0,0,302,
302,0,302,302,302,302,302,302,302,302,0,0,0,0,0,0,0,0,0,0,0,0,82,114,114,114,114,82,82,82,82,82,82,114,114,114,114,82,0,0,0,0,0,0,0,0,0,0,0,0,0,0,0,0,0,0,0,0,0,302,
302,0,302,302,302,302,302,302,302,302,0,0,0,0,0,0,0,0,0,0,0,0,81,114,114,114,114,82,82,277,278,82,82,114,114,114,114,83,0,0,0,0,0,0,0,0,0,0,0,0,0,0,0,0,0,0,0,0,0,302,
302,45,45,45,45,45,45,45,45,45,45,0,350,351,352,0,0,0,0,350,351,352,81,114,114,114,114,82,82,82,82,82,82,114,114,114,114,83,0,0,0,0,0,0,0,0,0,0,0,0,0,0,0,0,0,0,0,0,0,302,
302,0,0,0,0,0,0,0,0,0,0,0,0,0,0,0,0,0,0,0,0,0,81,114,114,114,114,81,114,114,114,114,83,114,114,114,114,83,0,0,0,0,1155,1156,0,1178,1179,0,0,0,0,0,0,0,0,0,0,0,0,302,
302,0,0,0,0,0,0,0,0,0,0,0,0,0,0,0,0,0,0,0,0,0,81,114,114,114,114,81,114,114,114,114,83,114,114,114,114,83,0,0,0,0,0,0,0,0,0,0,1170,1171,0,0,0,0,0,0,0,0,0,302,
302,0,0,0,0,0,0,0,0,0,0,0,0,0,0,0,0,0,0,0,0,0,81,114,114,114,114,81,114,114,114,114,83,114,114,114,114,83,0,0,0,0,0,0,0,0,0,0,0,0,0,0,0,0,0,0,0,0,0,302,
350,351,352,0,0,0,0,0,0,0,0,0,0,0,0,0,0,0,0,0,0,0,89,90,90,90,90,81,114,114,114,114,83,90,90,90,90,91,0,0,0,0,0,0,1095,1174,1175,1190,1189,0,0,0,0,0,0,1274,1275,1276,0,302,
302,0,0,0,0,0,0,0,0,0,0,0,0,0,0,0,0,0,0,0,0,0,493,70,71,72,493,81,82,82,82,82,83,493,70,71,72,493,0,0,0,0,0,0,0,0,0,0,0,0,0,0,0,0,0,0,0,0,0,302,
302,0,0,0,0,0,0,0,0,0,0,0,350,351,352,0,0,0,0,350,351,352,493,78,79,80,493,81,82,82,82,82,83,493,78,79,80,493,0,0,0,0,0,0,0,0,0,0,0,0,0,0,0,0,0,0,0,0,0,302,
302,0,0,0,0,0,0,0,0,0,0,0,0,0,0,0,0,0,0,0,0,0,493,86,87,88,493,89,90,90,90,90,91,493,86,87,88,493,0,0,0,0,0,0,0,0,0,0,0,0,0,0,0,0,0,0,0,0,0,302,
302,0,0,1274,1275,1276,0,0,0,0,0,0,0,0,0,0,0,0,0,0,0,0,0,0,0,0,0,0,0,0,0,0,0,0,0,0,0,0,0,0,0,0,0,0,0,0,0,0,0,0,0,0,0,0,0,0,0,350,351,352,
302,0,0,0,0,0,0,0,0,0,0,0,0,0,0,0,0,0,0,0,0,0,0,0,0,0,0,0,0,0,0,0,0,0,0,0,0,0,0,0,0,0,0,0,0,0,0,0,0,0,0,0,0,0,0,0,0,0,0,302,
302,0,0,0,0,0,0,0,0,0,0,0,0,0,0,0,0,0,0,0,0,0,0,0,0,0,0,0,0,0,0,0,0,0,0,0,0,0,0,0,0,0,0,0,0,0,0,0,0,0,0,0,0,0,0,0,0,0,0,302,
302,350,351,352,302,302,302,302,302,302,302,302,302,302,302,302,302,302,302,302,302,302,302,302,302,302,302,302,302,302,302,302,302,302,302,302,302,302,302,302,302,302,302,302,302,302,302,302,302,302,1274,1275,1276,302,302,302,302,302,302,302
</data>
 </layer>
 <layer id="23" name="shadow_upper" width="60" height="60">
  <data encoding="csv">
0,0,0,0,0,0,0,0,0,0,0,0,0,0,0,0,0,0,0,0,0,0,0,0,0,0,0,0,64,64,64,64,0,0,0,0,0,0,0,0,0,0,0,0,0,0,0,0,0,0,0,0,0,0,0,0,0,0,0,0,
0,0,0,0,0,0,0,0,0,0,0,0,0,0,0,0,0,0,0,0,0,0,0,0,0,0,0,0,64,64,64,64,0,0,0,0,0,0,0,0,0,0,0,0,0,0,0,0,0,0,0,0,0,0,0,0,0,0,0,0,
0,0,0,0,0,0,0,0,0,0,0,0,0,0,0,0,0,0,0,0,0,0,0,0,0,0,0,0,64,64,64,64,0,0,0,0,0,0,0,0,0,0,0,0,0,0,0,0,0,0,0,0,0,0,0,0,0,0,0,0,
0,54,0,0,0,0,54,0,0,0,0,54,0,0,0,0,54,0,0,0,0,54,0,0,0,0,54,0,64,64,64,64,0,0,0,0,54,0,0,0,0,54,0,0,0,0,54,0,0,0,0,54,0,0,0,0,54,0,0,0,
0,62,0,0,0,0,62,0,0,0,0,62,0,0,0,0,62,0,0,0,0,62,0,0,0,0,62,0,0,0,0,62,0,0,0,0,62,0,0,0,0,62,0,0,0,0,62,0,0,0,0,62,0,0,0,0,62,0,0,0,
0,0,0,0,0,0,0,0,0,0,0,0,0,0,0,0,0,0,0,0,0,0,0,0,0,0,0,0,0,0,0,0,0,0,0,0,0,0,0,0,0,0,0,0,0,0,0,0,0,0,0,0,0,0,0,0,0,0,0,0,
0,0,0,0,0,0,0,0,0,0,0,0,0,0,0,0,0,0,0,0,0,0,0,0,0,0,0,0,0,0,0,0,0,0,0,0,0,0,0,0,0,0,0,0,0,0,0,0,0,0,0,0,0,0,0,0,0,0,0,0,
0,0,0,0,0,0,0,0,0,0,0,0,0,0,0,0,0,0,0,0,0,0,0,0,0,0,0,0,0,0,0,0,0,0,0,0,0,0,0,0,0,0,0,0,0,0,0,0,0,0,0,0,0,0,0,0,0,0,0,0,
0,0,0,0,0,0,0,0,0,0,0,0,0,0,0,0,0,0,0,0,0,0,0,0,0,0,0,0,0,0,0,0,0,0,0,0,0,0,0,0,0,0,0,0,0,0,0,0,0,0,0,0,0,0,0,0,0,0,0,0,
0,0,0,0,0,0,0,0,0,0,0,0,0,0,0,0,0,0,0,0,0,0,0,0,0,0,0,0,0,0,0,0,0,0,0,0,0,0,0,0,0,0,0,0,0,0,0,0,0,0,0,0,0,0,0,0,0,0,0,0,
0,0,0,0,0,0,0,0,0,0,0,0,0,0,0,0,0,0,0,0,0,0,0,0,0,0,0,0,0,0,0,0,0,0,0,0,0,0,0,0,0,0,0,0,0,0,0,0,0,0,0,0,0,0,0,0,0,0,0,0,
0,0,0,0,0,0,0,0,0,0,0,0,0,0,0,0,0,0,0,0,0,0,0,0,0,0,0,0,0,0,0,0,0,0,0,0,0,0,0,0,0,0,0,0,0,0,0,0,0,0,0,0,0,0,0,0,0,0,0,0,
0,0,0,0,0,0,0,0,0,0,0,0,0,0,0,0,0,0,0,0,0,0,0,0,0,0,0,0,0,0,0,0,0,0,0,0,0,0,0,0,0,0,0,0,0,0,0,0,0,0,0,0,0,0,0,0,0,0,0,0,
0,0,0,0,0,0,0,0,0,0,0,0,0,0,0,0,64,0,0,0,0,0,0,0,0,0,0,0,0,0,0,0,0,0,0,0,0,0,0,0,0,0,0,0,0,0,0,0,0,0,0,0,0,0,0,0,0,0,0,0,
0,0,0,0,0,0,0,0,0,0,0,0,0,0,0,0,64,0,0,0,0,0,0,0,64,0,0,0,0,0,0,0,0,0,0,0,0,0,0,0,0,0,0,0,0,0,0,0,0,0,0,0,0,0,0,0,0,0,0,0,
0,0,0,0,0,0,0,0,0,0,0,0,0,0,0,0,64,0,0,0,0,0,0,0,64,0,0,0,0,0,0,0,0,0,0,0,0,0,0,0,0,0,0,0,0,0,0,0,0,0,0,0,0,0,0,0,0,0,0,0,
0,0,0,0,0,0,0,0,0,0,0,0,0,0,0,0,63,0,0,0,0,0,0,0,64,0,0,0,0,0,0,0,0,0,0,0,0,0,0,0,0,0,0,0,0,0,0,0,0,0,0,0,0,0,0,0,0,0,0,0,
0,0,0,0,0,0,0,0,0,0,0,0,0,0,0,0,0,0,0,0,0,0,0,0,63,0,0,0,0,0,0,0,0,0,0,0,0,0,0,0,0,0,0,0,0,0,0,0,0,0,0,0,0,0,0,0,0,0,0,0,
0,0,0,0,0,0,0,0,0,0,0,0,0,0,0,0,0,0,0,0,0,0,0,0,0,0,0,0,0,0,0,0,0,0,0,0,0,0,0,0,0,0,0,0,0,0,0,0,0,0,0,0,0,0,0,0,0,0,0,0,
0,0,0,0,0,0,0,0,0,0,0,0,0,0,0,0,0,0,0,0,0,0,0,0,0,0,0,0,0,0,0,0,0,0,0,0,0,0,0,0,0,0,0,0,0,0,0,0,0,0,0,0,0,0,0,0,0,0,0,0,
0,0,0,0,0,0,0,0,0,0,0,0,0,0,0,0,0,0,0,0,0,0,0,0,0,0,0,0,0,0,0,0,0,0,0,0,0,0,0,0,0,0,0,0,0,0,0,0,0,0,0,0,0,0,0,0,0,0,0,0,
0,0,0,0,0,0,0,0,0,0,0,0,0,0,0,0,0,0,0,0,0,0,0,0,0,0,0,0,0,0,0,0,0,0,0,0,0,0,0,0,0,0,0,0,0,0,0,0,0,0,0,0,0,0,0,0,0,0,0,0,
0,0,0,0,0,0,0,0,0,0,0,0,0,0,0,0,0,0,0,0,0,0,0,0,0,0,0,0,0,0,0,0,0,0,0,0,0,0,0,0,0,0,0,0,0,0,0,0,0,0,0,0,0,0,0,0,0,0,0,0,
0,0,0,0,0,0,0,0,0,0,0,0,0,0,0,0,0,0,0,0,0,0,0,0,0,0,0,0,0,0,0,0,0,0,0,0,0,0,0,0,0,0,0,0,0,0,0,0,0,0,0,0,0,0,0,0,0,0,0,0,
0,0,0,0,0,0,0,0,0,0,0,0,0,0,0,0,0,0,0,0,0,0,0,0,0,0,0,0,0,0,0,0,0,0,0,0,0,0,0,0,0,0,0,0,0,0,0,0,0,0,0,0,0,0,0,0,0,0,0,0,
0,0,0,0,0,0,0,0,0,0,0,0,0,0,0,0,0,0,0,0,0,0,0,0,0,0,0,0,0,0,0,0,0,0,0,0,0,0,0,0,0,0,0,0,0,0,0,0,0,0,0,0,0,0,0,0,0,0,0,0,
0,0,0,0,0,0,0,0,0,0,0,0,0,0,0,0,0,0,0,0,0,0,0,0,0,0,0,0,0,0,0,0,0,0,0,0,0,0,0,0,0,0,0,0,0,0,0,0,0,0,0,0,0,0,0,0,0,0,0,0,
0,0,0,0,0,0,0,0,0,0,0,0,0,0,0,0,0,0,0,0,0,0,0,0,0,0,0,0,0,0,0,0,0,0,0,0,0,0,0,0,0,0,0,0,0,0,0,0,0,0,0,0,0,0,0,0,0,0,0,0,
0,0,0,0,0,0,0,0,0,0,0,0,0,0,0,0,0,0,0,0,0,0,0,0,0,0,0,0,0,0,0,0,0,0,0,0,0,0,0,0,0,0,0,0,0,0,0,0,0,0,0,0,0,0,0,0,0,0,0,0,
0,0,0,0,0,0,0,0,0,0,0,0,0,0,0,0,0,0,0,0,0,0,0,0,0,0,0,0,0,0,0,0,0,0,0,0,0,0,0,0,0,0,0,0,0,0,0,0,0,0,0,0,0,0,0,0,0,0,0,0,
0,0,0,0,0,0,0,0,0,0,0,0,0,0,0,0,0,0,0,0,0,0,0,0,0,0,0,0,0,0,0,0,0,0,0,0,0,0,0,0,0,0,0,0,0,0,0,0,0,0,0,0,0,0,0,0,0,0,0,0,
0,0,0,0,0,0,0,0,0,0,0,0,0,0,0,0,0,0,0,0,0,0,0,0,0,0,0,0,0,0,0,0,0,0,0,0,0,0,0,0,0,0,0,0,0,0,0,0,0,0,0,0,0,0,0,0,0,0,0,0,
0,0,0,0,0,0,0,0,0,0,0,0,0,0,0,0,0,0,0,0,0,0,0,0,0,0,0,0,0,0,0,0,0,0,0,0,0,0,0,0,0,0,0,0,0,0,0,0,0,0,0,0,0,0,0,0,0,0,0,0,
0,0,0,0,0,0,0,0,0,0,0,0,0,0,0,0,0,0,0,0,0,0,0,0,0,0,0,0,0,0,0,0,0,0,0,0,0,0,0,0,0,0,0,0,0,0,0,0,0,0,0,0,0,0,0,0,0,0,0,0,
0,0,0,0,0,0,0,0,0,0,0,0,0,0,0,0,0,0,0,0,0,0,0,0,0,0,0,0,0,0,0,0,0,0,0,0,0,0,0,0,0,0,0,0,0,0,0,0,0,0,0,0,0,0,0,0,0,0,0,0,
0,0,0,0,0,0,0,0,0,0,0,0,0,0,0,0,0,0,0,0,0,0,0,0,0,0,0,0,0,0,0,0,0,0,0,0,0,0,0,0,0,0,0,0,0,0,0,0,0,0,0,0,0,0,0,0,0,0,0,0,
0,0,0,0,0,0,0,0,0,0,0,0,0,0,0,0,0,0,0,0,0,0,0,0,0,0,0,0,0,0,0,0,0,0,0,0,0,0,0,0,0,0,0,0,0,0,0,0,0,0,0,0,0,0,0,0,0,0,0,0,
0,0,0,0,0,0,0,0,0,0,0,0,0,0,0,0,0,0,0,0,0,0,0,0,0,0,0,0,0,0,0,0,0,0,0,0,0,0,0,0,0,0,0,0,0,0,0,0,0,0,0,0,0,0,0,0,0,0,0,0,
0,0,0,0,0,0,0,0,0,0,0,0,0,0,0,0,0,0,0,0,0,0,0,0,0,0,0,0,0,0,0,0,0,0,0,0,0,0,0,0,0,0,0,0,0,0,0,0,0,0,0,0,0,0,0,0,0,0,0,0,
0,0,0,0,0,0,0,0,0,0,0,0,0,0,0,0,0,0,0,0,0,0,0,0,0,0,0,0,0,0,0,0,0,0,0,0,0,0,0,0,0,0,0,0,0,0,0,0,0,0,0,0,0,0,0,0,0,0,0,0,
0,0,0,0,0,0,0,0,0,0,0,0,0,0,0,0,0,0,0,0,0,0,0,0,0,0,0,0,0,0,0,0,0,0,0,0,0,0,0,0,0,0,0,0,0,0,0,0,0,0,0,0,0,0,0,0,0,0,0,0,
0,0,0,0,0,0,0,0,0,0,0,0,0,0,0,0,0,0,0,0,0,0,0,0,0,0,0,0,0,0,0,0,0,0,0,0,0,0,0,0,0,0,0,0,0,0,0,0,0,0,0,0,0,0,0,0,0,0,0,0,
0,0,0,0,0,0,0,0,0,0,0,0,0,0,0,0,0,0,0,0,0,0,0,0,0,0,0,0,0,0,0,0,0,0,0,0,0,0,0,0,0,0,0,0,0,0,0,0,0,0,0,0,0,0,0,0,0,0,0,0,
0,0,0,0,0,0,0,0,0,0,0,0,0,0,0,0,0,0,0,0,0,0,0,0,0,0,0,0,0,0,0,0,0,0,0,0,0,0,0,0,0,0,0,0,0,0,0,0,0,0,0,0,0,0,0,0,0,0,0,0,
0,0,0,0,0,0,0,0,0,0,0,0,0,0,0,0,0,0,0,0,0,0,0,0,0,0,0,0,0,0,0,0,0,0,0,0,0,0,64,0,0,0,0,0,0,0,0,0,0,0,0,0,0,0,0,0,0,0,0,0,
0,0,0,0,0,0,0,0,0,0,0,0,0,0,0,0,0,0,0,0,0,0,0,0,0,0,0,0,0,0,0,0,0,0,0,0,0,0,64,0,0,0,0,0,0,0,0,0,0,0,0,0,0,0,0,0,0,0,0,0,
0,0,0,0,0,0,0,0,0,0,0,0,0,0,0,0,0,0,0,0,0,0,0,0,0,0,0,0,0,0,0,0,0,0,0,0,0,0,64,0,0,0,0,0,0,0,0,0,0,0,0,0,0,0,0,0,0,0,0,0,
0,0,0,0,0,0,0,0,0,0,0,0,0,0,0,0,0,0,0,0,0,0,0,0,0,0,0,0,0,0,0,0,0,0,0,0,0,0,64,0,0,0,0,0,0,0,0,0,0,0,0,0,0,0,0,0,0,0,0,0,
0,0,0,0,0,0,0,0,0,0,0,0,0,0,0,0,0,0,0,0,0,0,0,0,0,0,0,0,0,0,0,0,0,0,0,0,0,0,64,0,0,0,0,0,0,0,0,0,0,0,0,0,0,0,0,0,0,0,0,0,
0,0,0,0,0,0,0,0,0,0,0,0,0,0,0,0,0,0,0,0,0,0,0,0,0,0,0,0,0,0,0,0,0,0,0,0,0,0,64,0,0,0,0,0,0,0,0,0,0,0,0,0,0,0,0,0,0,0,0,0,
0,0,0,0,0,0,0,0,0,0,0,0,0,0,0,0,0,0,0,0,0,0,0,0,0,0,0,0,0,0,0,0,0,0,0,0,0,0,64,0,0,0,0,0,0,0,0,0,0,0,0,0,0,0,0,0,0,0,0,0,
0,0,0,0,0,0,0,0,0,0,0,0,0,0,0,0,0,0,0,0,0,0,0,0,0,0,0,0,0,0,0,0,0,0,0,0,0,0,64,0,0,0,0,0,0,0,0,0,0,0,0,0,0,0,0,0,0,0,0,0,
0,0,0,0,0,0,0,0,0,0,0,0,0,0,0,0,0,0,0,0,0,0,0,0,0,0,0,0,0,0,0,0,0,0,0,0,0,0,63,0,0,0,0,0,0,0,0,0,0,0,0,0,0,0,0,0,0,0,0,0,
0,0,0,0,0,0,0,0,0,0,0,0,0,0,0,0,0,0,0,0,0,0,0,0,0,0,0,0,0,0,0,0,0,64,0,0,0,0,0,0,0,0,0,0,0,0,0,0,0,0,0,0,0,0,0,0,0,0,0,0,
0,0,0,0,0,0,0,0,0,0,0,0,0,0,0,0,0,0,0,0,0,0,0,0,0,0,0,0,0,0,0,0,0,64,0,0,0,0,0,0,0,0,0,0,0,0,0,0,0,0,0,0,0,0,0,0,0,0,0,0,
0,0,0,0,0,0,0,0,0,0,0,0,0,0,0,0,0,0,0,0,0,0,0,0,0,0,0,0,0,0,0,0,0,63,0,0,0,0,0,0,0,0,0,0,0,0,0,0,0,0,0,0,0,0,0,0,0,0,0,0,
0,0,0,0,0,0,0,0,0,0,0,0,0,0,0,0,0,0,0,0,0,0,0,0,0,0,0,0,0,0,0,0,0,0,0,0,0,0,0,0,0,0,0,0,0,0,0,0,0,0,0,0,0,0,0,0,0,0,0,0,
0,0,0,0,0,0,0,0,0,0,0,0,0,0,0,0,0,0,0,0,0,0,0,0,0,0,0,0,0,0,0,0,0,0,0,0,0,0,0,0,0,0,0,0,0,0,0,0,0,0,0,0,0,0,0,0,0,0,0,0,
0,0,0,0,0,0,0,0,0,0,0,0,0,0,0,0,0,0,0,0,0,0,0,0,0,0,0,0,0,0,0,0,0,0,0,0,0,0,0,0,0,0,0,0,0,0,0,0,0,0,0,0,0,0,0,0,0,0,0,0,
0,0,0,0,0,0,0,0,0,0,0,0,0,0,0,0,0,0,0,0,0,0,0,0,0,0,0,0,0,0,0,0,0,0,0,0,0,0,0,0,0,0,0,0,0,0,0,0,0,0,0,0,0,0,0,0,0,0,0,0
</data>
 </layer>
 <layer id="24" name="object_upper" width="60" height="60">
  <data encoding="csv">
0,0,0,0,0,0,0,0,0,0,0,0,0,0,0,0,0,0,0,0,0,0,0,0,0,0,0,0,0,0,0,0,0,0,0,0,0,0,0,0,0,0,0,0,0,0,0,0,0,0,0,0,0,0,0,0,0,0,0,0,
0,0,0,0,0,0,0,0,0,0,0,0,0,0,0,0,0,0,0,0,0,0,0,0,0,0,0,0,0,0,0,0,0,0,0,0,0,0,0,0,0,0,0,0,0,0,0,0,0,0,0,0,0,0,0,0,0,0,0,0,
0,0,0,0,0,0,0,0,0,0,0,0,0,0,0,0,0,0,0,0,0,0,0,0,0,0,0,0,0,0,0,0,0,0,0,0,0,0,0,0,0,0,0,0,0,0,0,0,0,0,0,0,0,0,0,0,0,0,0,0,
0,0,0,0,0,0,0,0,0,0,0,0,0,0,0,0,0,0,0,0,0,0,0,0,0,0,0,0,0,0,0,0,0,0,0,0,0,0,0,0,0,0,0,0,0,0,0,0,0,0,0,0,0,0,0,0,0,0,0,0,
0,0,0,0,0,0,0,0,0,0,0,0,0,0,0,0,0,0,0,0,0,0,0,0,0,0,0,0,0,0,0,0,0,0,0,0,0,0,0,0,0,0,0,0,0,0,0,0,0,0,0,0,0,0,0,0,0,0,0,0,
0,0,0,0,0,0,0,0,0,0,0,0,0,0,0,0,0,0,0,0,0,0,0,0,0,0,0,0,0,0,0,0,0,0,0,0,0,0,0,0,0,0,0,0,0,0,0,0,0,0,0,0,0,0,0,0,0,0,0,0,
0,0,0,0,0,0,0,0,0,0,1192,0,0,0,0,0,0,0,0,0,0,0,0,0,0,0,0,0,0,0,0,0,0,0,0,0,1192,0,0,0,0,0,0,0,0,0,0,0,0,0,0,0,0,0,0,0,0,0,0,0,
326,327,328,0,0,0,0,0,0,0,0,0,0,0,0,0,0,0,0,0,0,0,0,0,0,0,340,341,0,0,0,0,0,340,341,0,0,0,0,0,0,0,0,0,0,0,0,0,0,0,0,0,0,0,0,0,0,326,327,328,
334,335,336,0,0,0,0,0,0,0,0,0,0,0,0,0,0,0,0,0,0,0,0,0,0,0,348,349,0,0,0,0,0,348,349,0,0,0,0,0,0,0,0,0,0,0,0,0,0,0,0,0,0,0,0,0,0,334,335,336,
342,343,344,0,0,0,0,0,0,0,0,0,0,0,0,0,0,1277,1278,1279,0,0,0,0,0,0,0,0,0,0,0,0,0,0,0,0,0,0,0,0,0,0,0,0,0,0,0,0,0,0,0,0,0,0,0,0,0,342,343,344,
0,0,0,0,0,0,0,0,0,0,0,0,0,0,0,0,0,1280,1281,1282,0,0,0,0,0,0,0,0,0,0,0,0,0,0,0,0,0,0,0,0,0,0,0,0,0,0,0,0,0,0,0,0,0,0,0,0,0,0,0,0,
0,0,0,0,0,0,0,0,0,1157,0,0,0,0,0,0,0,1283,1284,1285,0,0,0,0,0,0,0,0,0,0,0,0,0,0,0,0,0,0,0,0,0,0,0,0,0,0,0,0,0,0,0,0,0,0,0,0,0,0,0,0,
0,0,0,0,0,0,0,0,0,0,0,0,0,0,0,0,0,0,0,0,0,0,0,0,0,0,0,0,0,0,0,0,0,0,0,0,0,0,0,0,0,0,0,0,0,0,0,0,0,0,1192,0,0,0,0,0,0,0,0,0,
0,0,1265,1266,1267,0,0,0,0,0,0,0,0,0,0,0,0,0,0,0,0,0,0,0,0,0,0,0,0,0,0,0,0,0,0,0,0,0,0,0,0,0,0,0,0,0,0,0,0,0,0,0,0,0,0,0,0,0,0,0,
0,0,1268,1269,1270,0,0,0,0,0,0,0,0,0,0,0,0,0,0,0,0,0,0,0,0,0,0,0,0,0,0,0,0,0,0,0,0,0,0,0,0,0,0,0,0,0,0,0,0,0,0,0,0,0,0,0,0,0,0,0,
0,0,1271,1272,1273,0,0,0,0,0,0,0,0,0,0,0,0,0,0,0,0,0,0,0,0,0,0,0,0,0,0,0,0,0,0,0,0,0,0,0,0,0,0,0,0,0,0,0,0,0,0,0,0,0,0,0,0,0,0,0,
0,0,0,0,0,1157,0,0,0,0,0,0,0,0,0,0,0,0,0,0,0,0,0,0,0,0,0,0,0,0,0,0,0,0,0,0,0,0,0,0,0,0,0,0,0,0,0,0,0,0,0,0,0,0,0,0,0,0,0,0,
0,0,0,0,0,0,0,0,0,0,0,0,0,0,0,0,0,0,0,0,0,0,0,0,0,0,0,0,0,0,0,0,0,0,0,0,0,0,0,0,0,0,0,0,0,0,0,0,0,0,0,0,0,0,0,0,0,0,0,0,
0,0,0,0,0,0,0,0,0,0,0,0,0,0,0,0,0,0,0,0,0,0,0,0,0,0,0,0,0,0,0,0,0,0,0,0,0,0,0,0,0,0,0,0,0,0,0,0,0,0,0,0,0,0,0,0,0,0,0,0,
0,0,0,0,0,0,0,0,0,0,0,0,0,0,0,0,0,0,0,0,0,0,0,0,0,0,0,0,0,0,0,0,0,0,0,0,0,0,0,0,0,0,0,0,0,0,0,0,0,0,0,0,0,0,0,0,0,0,0,0,
0,0,0,0,0,0,0,0,0,0,0,0,0,0,0,0,0,0,0,0,0,0,0,0,0,0,0,0,0,0,0,0,0,0,0,0,0,0,0,0,0,0,0,0,0,0,0,0,0,0,0,0,0,0,0,0,0,0,0,0,
0,0,0,0,0,0,0,0,0,0,0,0,0,0,0,0,0,0,0,0,0,0,0,0,0,0,0,0,0,0,0,0,0,0,0,0,0,0,0,0,0,0,0,0,0,0,0,0,0,0,0,0,0,0,0,0,0,0,0,0,
0,0,0,0,0,0,0,0,0,0,0,0,0,0,0,0,0,0,0,0,0,0,0,0,0,0,0,0,0,0,0,0,0,0,0,0,0,0,0,0,0,0,0,0,0,0,0,0,0,0,0,0,0,0,0,0,0,0,0,0,
0,0,0,0,0,0,0,0,0,0,0,0,0,0,0,0,0,0,0,0,0,0,0,0,0,0,0,0,0,0,0,0,0,0,0,0,0,0,0,0,0,0,0,0,0,0,0,0,0,0,0,0,0,0,0,0,1265,1266,1267,0,
0,0,0,0,0,0,0,0,0,0,0,0,0,0,0,0,0,0,0,0,0,0,0,0,0,0,0,0,0,0,0,0,0,0,0,0,0,0,0,0,0,0,0,0,0,0,0,0,0,0,0,0,0,0,0,0,1268,1269,1270,0,
0,0,0,0,0,0,0,0,0,1157,0,0,0,0,0,0,0,0,0,0,0,0,0,0,0,0,0,0,0,0,0,0,0,0,0,0,0,0,0,0,0,0,0,0,0,0,0,0,0,0,0,0,0,0,0,0,1271,1272,1273,0,
0,0,0,0,0,0,0,0,0,0,0,0,0,0,0,0,0,0,0,0,0,0,0,0,0,0,0,0,0,0,0,0,0,0,0,0,0,0,0,0,0,0,0,401,402,403,0,0,0,0,0,0,0,0,0,0,0,0,0,0,
326,327,328,0,0,0,0,0,0,0,0,0,0,0,0,0,0,0,0,0,0,0,0,0,0,0,0,0,0,0,0,0,0,0,0,0,0,0,0,0,0,0,0,0,410,0,0,0,0,0,0,0,0,0,0,0,0,0,0,0,
334,335,336,0,0,0,0,0,0,0,0,0,0,0,0,0,0,0,0,0,0,0,0,0,0,0,0,0,0,0,0,1253,1254,0,0,0,0,0,0,0,0,0,0,0,0,0,0,0,0,0,0,0,0,0,0,0,0,0,0,0,
342,343,344,0,0,1157,0,0,0,0,0,0,0,0,0,0,0,0,0,0,0,0,0,0,0,0,0,0,0,0,0,0,0,0,0,0,0,0,0,0,0,0,0,0,0,0,0,0,0,0,0,0,0,0,0,0,0,0,0,0,
0,0,0,0,0,0,0,0,0,0,0,0,0,0,0,0,0,0,0,0,0,0,0,0,0,0,0,0,0,0,0,0,0,0,0,0,0,0,0,0,0,0,0,0,0,0,0,0,0,0,0,0,0,0,0,0,0,0,0,0,
0,0,1265,1266,1267,0,0,0,0,0,0,0,0,0,0,0,0,0,0,0,0,0,0,0,0,0,0,0,0,0,0,0,0,0,0,0,0,0,0,0,0,0,0,0,0,0,0,0,0,0,0,0,0,0,0,0,0,0,0,0,
0,0,1268,1269,1270,0,0,0,0,0,0,0,0,0,0,0,0,0,0,0,0,0,0,0,0,340,341,1,0,0,0,0,0,0,0,1,0,340,341,0,0,0,0,0,0,0,0,0,0,0,0,0,0,0,0,0,0,0,0,0,
0,0,1271,1272,1273,0,0,0,0,1157,0,0,0,0,0,0,0,0,0,0,0,0,0,0,0,348,349,0,0,0,0,0,0,0,0,0,0,348,349,0,0,0,0,0,0,0,0,0,0,0,0,0,0,0,0,0,0,0,0,0,
0,0,0,0,0,0,0,0,0,0,0,0,0,0,0,0,0,0,0,0,0,0,0,0,0,0,0,0,0,0,0,0,0,0,0,0,0,0,0,0,0,0,0,0,0,0,0,0,0,0,0,0,0,0,0,0,0,0,0,0,
0,0,0,0,0,0,0,0,0,0,0,0,0,0,0,0,0,0,0,0,0,0,0,0,0,0,0,0,0,0,0,0,0,0,0,0,0,0,0,0,0,0,0,0,0,0,0,0,0,0,0,0,0,0,0,0,0,0,0,0,
0,0,0,0,0,0,0,0,0,0,0,0,0,0,0,0,0,0,0,0,0,0,0,0,0,0,0,0,0,0,0,0,0,0,0,0,0,0,0,0,0,0,0,401,402,403,0,0,0,0,0,0,0,0,0,0,0,0,0,0,
0,0,0,0,0,0,0,0,0,0,0,0,0,0,0,0,0,0,0,0,0,0,0,0,0,0,0,0,0,0,0,0,0,0,0,0,0,0,0,0,0,0,0,0,410,0,0,0,0,0,0,0,0,0,0,0,0,0,0,0,
0,0,0,0,0,0,0,0,0,0,0,0,0,0,0,0,0,0,0,0,0,0,0,0,1,0,0,1,0,0,0,0,0,1,0,0,1,0,0,0,0,0,0,0,0,0,0,0,0,0,0,0,0,0,0,0,0,0,0,0,
0,0,0,0,0,0,0,0,0,0,0,0,326,327,328,0,0,0,0,326,327,328,0,0,0,0,0,0,0,0,0,0,0,0,0,0,0,0,0,0,0,0,0,0,0,0,0,0,0,0,0,0,0,0,0,0,0,326,327,328,
0,0,0,0,0,0,0,0,0,0,0,0,334,335,336,0,0,0,0,334,335,336,0,0,0,0,0,0,0,0,0,0,0,0,0,0,0,0,0,0,0,0,0,0,0,0,0,0,0,0,0,0,0,0,0,0,0,334,335,336,
0,0,0,0,0,0,0,0,0,0,0,0,342,343,344,0,0,0,0,342,343,344,0,0,0,0,0,0,0,0,0,0,0,0,0,0,0,0,0,0,0,0,0,0,0,0,0,0,0,0,0,0,0,0,0,0,0,342,343,344,
0,0,0,0,0,0,0,0,0,0,0,0,0,0,0,0,0,0,0,0,0,0,0,0,0,0,0,0,0,0,0,0,0,0,0,0,0,0,0,0,0,0,0,0,0,0,0,0,0,0,0,0,0,0,0,0,0,0,0,0,
0,0,0,0,0,0,0,0,0,0,0,0,0,0,0,0,0,0,0,0,0,0,0,0,0,0,0,0,0,0,0,0,0,0,0,0,0,0,0,0,0,0,0,0,0,0,0,0,0,0,0,0,0,0,0,0,0,0,0,0,
0,0,0,0,0,0,0,0,0,0,0,0,0,0,0,0,0,0,0,0,0,0,0,0,0,0,0,0,0,0,0,0,0,0,0,0,0,0,0,0,0,0,0,0,0,0,0,0,0,0,0,0,0,0,0,0,0,0,0,0,
0,0,0,0,0,0,0,0,0,0,0,0,326,327,328,0,0,0,0,326,327,328,0,0,0,0,0,0,0,0,0,0,0,0,0,0,0,0,0,0,0,0,0,0,0,0,0,0,0,0,0,0,0,0,0,0,0,0,0,0,
0,0,0,0,0,0,0,0,0,0,0,0,334,335,336,0,0,0,0,334,335,336,0,0,0,0,0,0,0,0,0,0,0,0,0,0,0,0,0,0,0,0,0,0,0,0,0,0,0,0,0,0,0,0,0,0,0,0,0,0,
0,0,0,0,0,0,0,0,0,0,0,0,342,343,344,0,0,0,0,342,343,344,0,0,0,0,0,0,0,0,0,0,0,0,0,0,0,0,0,0,0,0,0,0,0,0,0,0,0,0,0,0,0,0,0,0,0,0,0,0,
0,0,0,0,0,0,0,0,0,0,0,0,0,0,0,0,0,0,0,0,0,0,0,0,0,0,0,0,0,0,0,0,0,0,0,0,0,0,0,0,0,0,1153,1154,0,1176,1177,0,0,0,0,0,0,0,0,0,0,0,0,0,
326,327,328,0,0,0,0,0,0,0,0,0,0,0,0,0,0,0,0,0,0,0,0,0,0,0,0,0,0,0,0,0,0,0,0,0,0,0,0,0,0,0,0,0,0,0,0,0,1168,1169,0,0,0,0,0,1265,1266,1267,0,0,
334,335,336,0,0,0,0,0,0,0,0,0,0,0,0,0,0,0,0,0,0,0,0,0,0,0,0,0,0,0,0,0,0,0,0,0,0,0,0,0,0,0,0,0,0,0,0,0,0,0,0,0,0,0,0,1268,1269,1270,0,0,
342,343,344,0,0,0,0,0,0,0,0,0,326,327,328,0,0,0,0,326,327,328,0,0,0,0,0,0,0,0,0,0,0,0,0,0,0,0,0,0,0,0,0,0,0,1172,1173,0,0,0,0,0,0,0,0,1271,1272,1273,0,0,
0,0,0,0,0,0,0,0,0,0,0,0,334,335,336,0,0,0,0,334,335,336,0,0,0,0,0,0,0,0,0,0,0,0,0,0,0,0,0,0,0,0,0,0,0,0,0,0,0,0,0,0,0,0,0,0,0,0,0,0,
0,0,0,1265,1266,1267,0,0,0,0,0,0,342,343,344,0,0,0,0,342,343,344,0,0,0,0,0,0,0,0,0,0,0,0,0,0,0,0,0,0,0,0,0,0,0,0,0,0,0,0,0,0,0,0,0,0,0,326,327,328,
0,0,0,1268,1269,1270,0,0,0,0,0,0,0,0,0,0,0,0,0,0,0,0,0,0,0,0,0,0,0,0,0,0,0,0,0,0,0,0,0,0,0,0,0,0,0,0,0,0,0,0,0,0,0,0,0,0,0,334,335,336,
0,0,0,1271,1272,1273,0,0,0,0,0,0,0,0,0,0,0,0,0,0,0,0,0,0,0,0,0,0,0,0,0,0,0,0,0,0,0,0,0,0,0,0,0,0,0,0,0,0,0,0,0,0,0,0,0,0,0,342,343,344,
0,326,327,328,0,0,0,0,0,0,0,0,0,0,0,0,0,0,0,0,0,0,0,0,0,0,0,0,0,0,0,0,0,0,0,0,0,0,0,0,0,0,0,0,0,0,0,0,0,0,1265,1266,1267,0,0,0,0,0,0,0,
0,334,335,336,0,0,0,0,0,0,0,0,0,0,0,0,0,0,0,0,0,0,0,0,0,0,0,0,0,0,0,0,0,0,0,0,0,0,0,0,0,0,0,0,0,0,0,0,0,0,1268,1269,1270,0,0,0,0,0,0,0,
0,342,343,344,0,0,0,0,0,0,0,0,0,0,0,0,0,0,0,0,0,0,0,0,0,0,0,0,0,0,0,0,0,0,0,0,0,0,0,0,0,0,0,0,0,0,0,0,0,0,1271,1272,1273,0,0,0,0,0,0,0,
0,0,0,0,0,0,0,0,0,0,0,0,0,0,0,0,0,0,0,0,0,0,0,0,0,0,0,0,0,0,0,0,0,0,0,0,0,0,0,0,0,0,0,0,0,0,0,0,0,0,0,0,0,0,0,0,0,0,0,0
</data>
 </layer>
 <layer id="25" name="deco" width="60" height="60">
  <data encoding="csv">
0,0,0,0,0,0,0,0,0,0,0,0,0,0,0,0,0,0,0,0,0,0,0,0,0,0,0,0,0,0,0,0,0,0,0,0,0,0,0,0,0,0,0,0,0,0,0,0,0,0,0,0,0,0,0,0,0,0,0,0,
0,0,0,0,0,0,0,0,0,0,0,0,0,0,0,0,0,0,0,0,0,0,0,0,0,0,0,0,0,0,0,0,0,0,0,0,0,0,0,0,0,0,0,0,0,0,0,0,0,0,0,0,0,0,0,0,0,0,0,0,
0,0,0,0,0,0,0,0,0,0,0,0,0,0,0,0,0,0,0,0,0,0,0,0,0,0,0,0,0,0,0,0,0,0,0,0,0,0,0,0,0,0,0,0,0,0,0,0,0,0,0,0,0,0,0,0,0,0,0,0,
0,0,0,0,0,0,0,0,0,0,0,0,0,0,0,0,0,0,0,0,0,0,0,0,0,0,0,0,0,0,0,0,0,0,0,0,0,0,0,0,0,0,0,0,0,0,0,0,0,0,0,0,0,0,0,0,0,0,0,0,
0,0,0,0,0,0,0,0,0,0,0,0,0,0,0,0,0,0,0,0,0,0,0,0,0,0,0,0,0,0,0,0,0,0,0,0,0,0,0,0,0,0,0,0,0,0,0,0,0,0,0,0,0,0,0,0,0,0,0,0,
0,0,0,0,0,0,0,0,0,0,0,0,0,0,0,0,0,0,0,0,0,0,0,0,0,0,0,0,0,0,0,0,0,0,0,0,0,0,0,0,0,0,0,0,0,0,0,0,0,0,0,0,0,0,0,0,0,0,0,0,
0,0,0,0,0,0,0,0,0,0,0,0,0,0,0,0,0,0,0,0,0,0,0,0,0,0,0,0,0,0,0,0,0,0,0,0,0,0,0,0,0,0,0,0,0,0,0,0,0,0,0,0,0,0,0,0,0,0,0,0,
0,0,0,0,0,0,0,0,0,0,0,0,0,0,0,0,0,0,0,0,0,0,0,0,0,0,0,0,0,0,0,0,0,0,0,0,0,0,0,0,0,0,0,0,0,0,0,0,0,0,0,0,0,0,0,0,0,0,0,0,
0,0,0,0,0,0,0,0,0,0,0,0,0,0,0,0,0,0,0,0,0,0,0,0,0,0,0,0,0,0,0,0,0,0,0,0,0,0,0,0,0,0,0,0,0,0,0,0,0,0,0,0,0,0,0,0,0,0,0,0,
0,0,0,0,0,0,0,0,0,0,0,0,0,0,0,0,0,0,0,0,0,0,0,0,0,0,0,0,0,0,0,0,0,0,0,0,0,0,0,0,0,0,0,0,0,0,0,0,0,0,0,0,0,0,0,0,0,0,0,0,
0,0,0,0,0,0,0,0,0,0,0,0,0,0,0,0,0,0,0,0,0,0,0,0,0,0,0,0,0,0,0,0,0,0,0,0,0,0,0,0,0,0,0,0,0,0,0,0,0,0,0,0,0,0,0,0,0,0,0,0,
0,0,0,0,0,0,0,0,0,0,0,0,0,0,0,0,0,0,0,0,0,0,0,0,0,0,0,0,0,0,0,0,0,0,0,0,0,0,0,0,0,0,0,0,0,0,0,0,0,0,0,0,0,0,0,0,0,0,0,0,
0,0,0,0,0,0,0,0,0,0,0,0,0,0,0,0,0,0,0,0,0,0,0,0,0,0,0,0,0,0,0,0,0,0,0,0,0,0,0,0,0,0,0,0,0,0,0,0,0,0,0,0,0,0,0,0,0,0,0,0,
0,0,0,0,0,0,0,0,0,0,0,0,0,5,0,0,0,0,0,0,0,0,0,0,0,0,0,0,0,0,0,0,0,0,0,0,0,0,0,0,0,0,0,0,0,0,0,0,0,0,0,0,0,0,0,0,0,0,0,0,
0,0,0,0,0,0,0,0,0,0,0,0,0,29,0,0,0,0,0,0,0,5,0,0,0,0,0,0,0,0,0,0,0,0,0,0,0,0,0,0,0,0,0,0,0,0,0,0,0,0,0,0,0,0,0,0,0,0,0,0,
0,0,0,0,0,0,0,0,0,0,0,0,0,6,7,8,0,0,0,0,0,29,0,0,0,0,0,0,0,0,0,0,0,0,0,0,0,0,0,0,0,0,0,0,0,0,0,0,0,0,0,0,0,0,0,0,0,0,0,0,
0,0,0,0,0,0,0,0,0,0,0,0,0,14,15,16,0,0,0,0,0,6,7,8,0,0,0,0,0,0,0,0,0,0,0,0,0,0,0,0,0,0,0,0,0,0,0,0,0,0,0,0,0,0,0,0,0,0,0,0,
0,0,0,0,0,0,0,0,0,0,0,0,0,0,0,0,0,0,0,0,0,14,15,16,0,0,0,0,0,0,0,0,0,0,0,0,0,0,0,0,0,0,0,0,0,0,0,0,0,0,0,0,0,0,0,0,0,0,0,0,
0,0,0,0,0,0,0,0,0,0,0,0,0,0,0,0,0,0,0,0,0,0,0,0,0,0,0,0,0,0,0,0,0,0,0,0,0,0,0,0,0,0,0,0,0,0,0,0,0,0,0,0,0,0,0,0,0,0,0,0,
0,0,0,0,0,0,0,0,0,0,0,0,0,0,0,0,0,0,0,0,0,0,0,0,0,0,0,0,0,0,0,0,0,0,0,0,0,0,0,0,0,0,0,0,0,0,0,0,0,0,0,0,0,0,0,0,0,0,0,0,
0,0,0,0,0,0,0,0,0,0,0,0,0,0,0,0,0,0,0,0,0,0,0,0,0,0,0,0,0,0,0,0,0,0,0,0,0,0,0,0,0,0,0,0,0,0,0,0,0,0,0,0,0,0,0,0,0,0,0,0,
0,0,0,0,0,0,0,0,0,0,0,0,0,0,0,0,0,0,0,0,0,0,0,0,0,0,0,0,0,0,0,0,0,0,0,0,0,0,0,0,0,0,0,0,0,0,0,0,0,0,0,0,0,0,0,0,0,0,0,0,
0,0,0,0,0,0,0,0,0,0,0,0,0,0,0,0,0,0,0,0,0,0,0,0,0,0,0,0,0,0,0,0,0,0,0,0,0,0,0,0,0,0,0,0,0,0,0,0,0,0,0,0,0,0,0,0,0,0,0,0,
0,0,0,0,0,0,0,0,0,0,0,0,0,0,0,0,0,0,0,0,0,0,0,0,0,0,0,0,0,0,0,0,0,0,0,0,0,0,0,0,0,0,0,0,0,0,0,0,0,0,0,0,0,0,0,0,0,0,0,0,
0,0,0,0,0,0,0,0,0,0,0,0,0,0,0,0,0,0,0,0,0,0,0,0,0,0,0,0,0,0,0,0,0,0,0,0,0,0,0,0,0,0,0,0,0,0,0,0,0,0,0,0,0,0,0,0,0,0,0,0,
0,0,0,0,0,0,0,0,0,0,0,0,0,0,0,0,0,0,0,0,0,0,0,0,0,0,0,0,0,0,0,0,0,0,0,0,0,0,0,0,0,0,0,0,0,0,0,0,0,0,0,0,0,0,0,0,0,0,0,0,
0,0,0,0,0,0,0,0,0,0,0,0,0,0,0,0,0,0,0,0,0,0,0,0,0,0,0,0,0,0,0,0,0,0,0,0,0,0,0,0,0,0,0,0,0,0,0,0,0,0,0,0,0,0,0,0,0,0,0,0,
0,0,0,0,0,0,0,0,0,0,0,0,0,0,0,0,0,0,0,0,0,0,0,0,0,0,0,0,0,0,0,0,0,0,0,0,0,0,0,0,0,0,0,0,0,0,0,0,0,0,0,0,0,0,0,0,0,0,0,0,
0,0,0,0,0,0,0,0,0,0,0,0,0,0,0,0,0,0,0,0,0,0,0,0,0,0,0,0,0,0,0,0,0,0,0,0,0,0,0,0,0,0,0,0,0,0,0,0,0,0,0,0,0,0,0,0,0,0,0,0,
0,0,0,0,0,0,0,0,0,0,0,0,0,0,0,0,0,0,0,0,0,0,0,0,0,0,0,0,0,0,0,0,0,0,0,0,0,0,0,0,0,0,0,0,0,0,0,0,0,0,0,0,0,0,0,0,0,0,0,0,
0,0,0,0,0,0,0,0,0,0,0,0,0,0,0,0,0,0,0,0,0,0,0,0,0,0,0,0,0,0,0,0,0,0,0,0,0,0,0,0,0,0,0,0,0,0,0,0,0,0,0,0,0,0,0,0,0,0,0,0,
0,0,0,0,0,0,0,0,0,0,0,0,0,0,0,0,0,0,0,0,0,0,0,0,0,0,0,0,0,0,0,0,0,0,0,0,0,0,0,0,0,0,0,0,0,0,0,0,0,0,0,0,0,0,0,0,0,0,0,0,
0,0,0,0,0,0,0,0,0,0,0,0,0,0,0,0,0,0,0,0,0,0,0,0,0,0,0,0,0,0,0,0,0,0,0,0,0,0,0,0,0,0,0,0,0,0,0,0,0,0,0,0,0,0,0,0,0,0,0,0,
0,0,0,0,0,0,0,0,0,0,0,0,0,0,0,0,0,0,0,0,0,0,0,0,0,0,0,0,0,0,0,0,0,0,0,0,0,0,0,0,0,0,0,0,0,0,0,0,0,0,0,0,0,0,0,0,0,0,0,0,
0,0,0,0,0,0,0,0,0,0,0,0,0,0,0,0,0,0,0,0,0,0,0,0,0,0,0,0,0,0,0,0,0,0,0,0,0,0,0,0,0,0,0,0,0,0,0,0,0,0,0,0,0,0,0,0,0,0,0,0,
0,0,0,0,0,0,0,0,0,0,0,0,0,0,0,0,0,0,0,0,0,0,0,0,0,0,0,0,0,0,0,0,0,0,0,0,0,0,0,0,0,0,0,0,0,0,0,0,0,0,0,0,0,0,0,0,0,0,0,0,
0,0,0,0,0,0,0,0,0,0,0,0,0,0,0,0,0,0,0,0,0,0,0,0,0,0,0,0,0,0,0,0,0,0,0,0,0,0,0,0,0,0,0,0,0,0,0,0,0,0,0,0,0,0,0,0,0,0,0,0,
0,0,0,0,0,0,0,0,0,0,0,0,0,0,0,0,0,0,0,0,0,0,0,0,0,0,0,0,0,0,0,0,0,0,0,0,0,0,0,0,0,0,0,0,0,0,0,0,0,0,0,0,0,0,0,0,0,0,0,0,
0,0,0,0,0,0,0,0,0,0,0,0,0,0,0,0,0,0,0,0,0,0,0,0,0,0,0,0,0,0,0,0,0,0,0,0,0,0,0,0,0,0,0,0,0,0,0,0,0,0,0,0,0,0,0,0,0,0,0,0,
0,0,0,0,0,0,0,0,0,0,0,0,0,0,0,0,0,0,0,0,0,0,0,0,0,0,0,0,0,0,0,0,0,0,0,0,0,0,0,0,0,0,0,0,0,0,0,0,0,0,0,0,0,0,0,0,0,0,0,0,
0,0,0,0,0,0,0,0,0,0,0,0,0,0,0,0,0,0,0,0,0,0,0,0,0,0,0,0,0,0,0,0,0,0,0,0,0,0,0,0,0,0,0,0,0,0,0,0,0,0,0,0,0,0,0,0,0,0,0,0,
0,0,0,0,0,0,0,0,0,0,0,0,0,0,0,0,0,0,0,0,0,0,0,0,0,0,0,0,0,0,0,0,0,0,0,0,0,0,0,0,0,0,0,0,0,0,0,0,0,0,0,0,0,0,0,0,0,0,0,0,
0,0,0,0,0,0,0,0,0,0,0,0,0,0,0,0,0,0,0,0,0,0,0,0,0,0,0,0,0,0,0,0,0,0,0,0,0,0,0,0,0,0,0,0,0,0,0,0,0,0,0,0,0,0,0,0,0,0,0,0,
0,0,0,0,0,0,0,0,0,0,0,0,0,0,0,0,0,0,0,0,0,0,0,0,0,0,0,0,0,0,0,0,0,0,0,0,0,0,0,0,0,0,0,0,0,0,0,0,0,0,0,0,0,0,0,0,0,0,0,0,
0,0,0,0,0,0,0,0,0,0,0,0,0,0,0,0,0,0,0,0,0,0,0,0,0,0,0,0,0,0,0,0,0,0,0,0,0,0,0,0,0,0,0,0,0,0,0,0,0,0,0,0,0,0,0,0,0,0,0,0,
0,0,0,0,0,0,0,0,0,0,0,0,0,0,0,0,0,0,0,0,0,0,0,0,0,0,0,0,0,0,0,0,0,0,0,0,0,0,0,0,0,0,0,0,0,0,0,0,0,0,0,0,0,0,0,0,0,0,0,0,
0,0,0,0,0,0,0,0,0,0,0,0,0,0,0,0,0,0,0,0,0,0,0,0,0,0,0,0,0,0,0,0,0,0,0,0,0,0,0,0,0,0,0,0,0,0,0,0,0,0,0,0,0,0,0,0,0,0,0,0,
0,0,0,0,0,0,0,0,0,0,0,0,0,0,0,0,0,0,0,0,0,0,0,1289,0,1289,0,0,0,0,0,0,0,0,1289,0,1289,0,0,0,0,0,0,0,0,0,0,0,0,0,0,0,0,0,0,0,0,0,0,0,
0,0,0,0,0,0,0,0,0,0,0,0,0,0,0,0,0,0,0,0,0,0,0,1291,0,1291,0,0,0,0,0,0,0,0,1291,0,1291,0,0,0,0,0,0,0,0,0,0,0,0,0,0,0,0,0,0,0,0,0,0,0,
0,0,0,0,0,0,0,0,0,0,0,0,0,0,0,0,0,0,0,0,0,0,0,1289,0,1289,0,0,1293,0,0,1293,0,0,1289,0,1289,0,0,0,0,0,0,0,0,0,0,0,0,0,0,0,0,0,0,0,0,0,0,0,
0,0,0,0,0,0,0,0,0,0,0,0,0,0,0,0,0,0,0,0,0,0,0,1291,0,1291,0,0,1294,0,0,1294,0,0,1291,0,1291,0,0,0,0,0,0,0,0,0,0,0,0,0,0,0,0,0,0,0,0,0,0,0,
0,0,0,0,0,0,0,0,0,0,0,0,0,0,0,0,0,0,0,0,0,0,0,0,0,0,0,0,0,0,0,0,0,0,0,0,0,0,0,0,0,0,0,0,0,0,0,0,0,0,0,0,0,0,0,0,0,0,0,0,
0,0,0,0,0,0,0,0,0,0,0,0,0,0,0,0,0,0,0,0,0,0,0,0,0,0,0,0,0,0,0,0,0,0,0,0,0,0,0,0,0,0,0,0,0,0,0,0,0,0,0,0,0,0,0,0,0,0,0,0,
0,0,0,0,0,0,0,0,0,0,0,0,0,0,0,0,0,0,0,0,0,0,0,0,0,0,0,0,0,0,0,0,0,0,0,0,0,0,0,0,0,0,0,0,0,0,0,0,0,0,0,0,0,0,0,0,0,0,0,0,
0,0,0,0,0,0,0,0,0,0,0,0,0,0,0,0,0,0,0,0,0,0,0,0,0,0,0,0,6,7,8,0,0,0,0,0,0,0,0,0,0,0,0,0,0,0,0,0,0,0,0,0,0,0,0,0,0,0,0,0,
0,0,0,0,0,0,0,0,0,0,0,0,0,0,0,0,0,0,0,0,0,0,0,0,0,0,0,0,14,15,16,0,0,0,0,0,0,0,0,0,0,0,0,0,0,0,0,0,0,0,0,0,0,0,0,0,0,0,0,0,
0,0,0,0,0,0,0,0,0,0,0,0,0,0,0,0,0,0,0,0,0,0,0,0,0,0,0,0,0,0,0,0,0,0,0,0,0,0,0,0,0,0,0,0,0,0,0,0,0,0,0,0,0,0,0,0,0,0,0,0,
0,0,0,0,0,0,0,0,0,0,0,0,0,0,0,0,0,0,0,0,0,0,0,0,0,0,0,0,0,0,0,0,0,0,0,0,0,0,0,0,0,0,0,0,0,0,0,0,0,0,0,0,0,0,0,0,0,0,0,0,
0,0,0,0,0,0,0,0,0,0,0,0,0,0,0,0,0,0,0,0,0,0,0,0,0,0,0,0,0,0,0,0,0,0,0,0,0,0,0,0,0,0,0,0,0,0,0,0,0,0,0,0,0,0,0,0,0,0,0,0,
0,0,0,0,0,0,0,0,0,0,0,0,0,0,0,0,0,0,0,0,0,0,0,0,0,0,0,0,0,0,0,0,0,0,0,0,0,0,0,0,0,0,0,0,0,0,0,0,0,0,0,0,0,0,0,0,0,0,0,0
</data>
 </layer>
 <layer id="26" name="roof" width="60" height="60">
  <data encoding="csv">
0,0,0,0,0,0,0,0,0,0,0,0,0,0,0,0,0,0,0,0,0,0,0,0,0,0,0,0,0,0,0,0,0,0,0,0,0,0,0,0,0,0,0,0,0,0,0,0,0,0,0,0,0,0,0,0,0,0,0,0,
0,0,0,0,0,0,0,0,0,0,0,0,0,0,0,0,0,0,0,0,0,0,0,0,0,0,0,0,0,0,0,0,0,0,0,0,0,0,0,0,0,0,0,0,0,0,0,0,0,0,0,0,0,0,0,0,0,0,0,0,
0,0,0,0,0,0,0,0,0,0,0,0,0,0,0,0,0,0,0,0,0,0,0,0,0,0,0,0,0,0,0,0,0,0,0,0,0,0,0,0,0,0,0,0,0,0,0,0,0,0,0,0,0,0,0,0,0,0,0,0,
0,0,0,0,0,0,0,0,0,0,0,0,0,0,0,0,0,0,0,0,0,0,0,0,0,0,0,0,0,0,0,0,0,0,0,0,0,0,0,0,0,0,0,0,0,0,0,0,0,0,0,0,0,0,0,0,0,0,0,0,
0,0,0,0,0,0,0,0,0,0,0,0,0,0,0,0,0,0,0,0,0,0,0,0,0,0,0,0,0,0,0,0,0,0,0,0,0,0,0,0,0,0,0,0,0,0,0,0,0,0,0,0,0,0,0,0,0,0,0,0,
0,0,0,0,0,0,0,0,0,0,0,0,0,0,0,0,0,0,0,0,0,0,0,0,0,0,0,0,0,0,0,0,0,0,0,0,0,0,0,0,0,0,0,0,0,0,0,0,0,0,0,0,0,0,0,0,0,0,0,0,
0,0,0,0,0,0,0,0,0,0,0,0,0,0,0,0,0,0,0,0,0,0,0,0,0,0,0,0,0,0,0,0,0,0,0,0,0,0,0,0,0,0,0,0,0,0,0,0,0,0,0,0,0,0,0,0,0,0,0,0,
0,0,0,0,0,0,0,0,0,0,0,0,0,0,0,0,0,0,0,0,0,0,0,0,0,0,0,0,0,0,0,0,0,0,0,0,0,0,0,0,0,0,0,0,0,0,0,0,0,0,0,0,0,0,0,0,0,0,0,0,
0,0,0,0,0,0,0,0,0,0,0,0,0,0,0,0,0,0,0,0,0,0,0,0,0,0,0,0,0,0,0,0,0,0,0,0,0,0,0,0,0,0,0,0,0,0,0,0,0,0,0,0,0,0,0,0,0,0,0,0,
0,0,0,0,0,0,0,0,0,0,0,0,173,174,175,176,0,0,0,0,0,0,0,0,0,0,0,0,0,0,0,0,0,0,0,0,0,0,0,0,0,0,0,0,0,0,0,0,0,0,0,0,0,0,0,0,0,0,0,0,
0,0,0,0,0,0,0,0,0,0,0,0,181,182,183,184,0,0,0,0,173,174,175,176,0,0,0,0,0,0,0,0,0,0,0,0,0,0,0,0,0,0,0,0,0,0,0,0,0,0,0,0,0,0,0,0,0,0,0,0,
0,0,0,0,0,0,0,0,0,0,0,0,189,190,191,192,0,0,0,0,181,182,183,184,0,0,0,0,0,0,0,0,0,0,0,0,0,0,0,0,0,0,0,0,0,0,0,0,0,0,0,0,0,0,0,0,0,0,0,0,
0,0,0,0,0,0,0,0,0,0,0,0,197,198,199,200,0,0,0,0,189,190,191,192,0,0,0,0,0,0,0,0,0,0,0,0,0,0,0,0,0,0,0,0,0,0,0,0,0,0,0,0,0,0,0,0,0,0,0,0,
0,0,0,0,0,0,0,0,0,0,0,0,205,206,207,208,0,0,0,0,197,198,199,200,0,0,0,0,0,0,0,0,0,0,0,0,0,0,0,0,0,0,0,0,0,0,0,0,0,0,0,0,0,0,0,0,0,0,0,0,
0,0,0,0,0,0,0,0,0,0,0,0,0,0,0,0,0,0,0,0,205,206,207,208,0,0,0,0,0,0,0,0,0,0,0,0,0,0,0,0,0,0,0,0,0,0,0,0,0,0,0,0,0,0,0,0,0,0,0,0,
0,0,0,0,0,0,0,0,0,0,0,0,0,0,0,0,0,0,0,0,0,0,0,0,0,0,0,0,0,0,0,0,0,0,0,0,0,0,0,0,0,0,0,0,0,0,0,0,0,0,0,0,0,0,0,0,0,0,0,0,
0,0,0,0,0,0,0,0,0,0,0,0,0,0,0,0,0,0,0,0,0,0,0,0,0,0,0,0,0,0,0,0,0,0,0,0,0,0,0,0,0,0,0,0,0,0,0,0,0,0,0,0,0,0,0,0,0,0,0,0,
0,0,0,0,0,0,0,0,0,0,0,0,0,0,0,0,0,0,0,0,0,0,0,0,0,0,0,0,0,0,0,0,0,0,0,0,0,0,0,0,0,0,0,0,0,0,0,0,0,0,0,0,0,0,0,0,0,0,0,0,
0,0,0,0,0,0,0,0,0,0,0,0,0,0,0,0,0,0,0,0,0,0,0,0,0,0,0,0,0,0,0,0,0,0,0,391,392,391,392,391,392,0,0,0,0,0,0,0,0,0,0,0,0,0,0,0,0,0,0,0,
0,0,0,0,0,0,0,0,0,0,0,0,0,0,0,0,0,0,0,0,0,0,0,0,0,0,0,0,0,0,0,0,0,0,0,0,0,0,0,0,0,0,0,0,0,0,0,0,0,0,0,0,0,0,0,0,0,0,0,0,
0,0,0,0,0,0,0,0,0,0,0,0,0,0,0,0,0,0,0,0,0,0,0,0,0,0,0,0,0,0,0,0,0,0,0,0,0,0,0,0,0,0,0,0,0,0,0,0,0,0,0,0,0,0,0,0,0,0,0,0,
0,0,0,0,0,0,0,0,0,0,0,0,0,0,0,0,0,0,0,0,0,0,0,0,0,0,0,0,0,0,0,0,0,0,0,0,0,0,0,0,0,0,0,0,0,0,0,0,0,0,0,0,0,0,0,0,0,0,0,0,
0,0,0,0,0,0,0,0,0,0,0,0,0,0,0,0,0,0,0,0,0,0,0,0,0,0,0,0,0,0,0,0,0,0,0,0,0,0,0,0,0,0,0,0,0,0,0,0,0,0,0,0,0,0,0,0,0,0,0,0,
0,0,0,0,0,0,0,0,0,0,0,0,0,0,0,0,0,0,0,0,0,0,0,0,0,0,0,0,0,0,0,0,0,0,0,0,0,0,0,0,0,0,0,0,0,0,0,0,0,0,0,0,0,0,0,0,0,0,0,0,
0,0,0,0,0,0,0,0,0,0,0,0,0,0,0,0,0,0,0,0,0,0,0,0,0,0,0,0,0,0,0,0,0,0,0,0,0,0,0,0,0,0,0,0,0,0,0,0,0,0,0,0,0,0,0,0,0,0,0,0,
0,0,0,0,0,0,0,0,0,0,0,0,0,0,0,0,0,0,0,0,0,0,0,0,0,0,0,0,0,0,0,0,0,0,0,0,0,0,0,0,0,0,0,0,0,0,0,0,0,0,0,0,0,0,0,0,0,0,0,0,
0,0,0,0,0,0,0,0,0,0,0,0,0,0,0,0,0,0,0,0,0,0,0,0,0,0,0,0,0,0,0,0,0,0,0,0,0,0,0,0,0,0,0,0,0,0,0,0,0,0,0,0,0,0,0,0,0,0,0,0,
0,0,0,0,0,0,0,0,0,0,0,0,0,0,0,0,0,0,0,0,0,0,0,0,0,0,0,0,0,0,0,0,0,0,0,0,0,0,0,0,0,0,0,0,0,0,0,0,0,0,0,0,0,0,0,0,0,0,0,0,
0,0,0,0,0,0,0,0,0,0,0,0,0,0,0,0,0,0,0,0,0,0,0,0,0,0,0,0,0,0,0,0,0,0,0,0,0,0,0,0,0,0,0,0,0,0,0,0,0,0,0,0,0,0,0,0,0,0,0,0,
0,0,0,0,0,0,0,0,0,0,0,0,0,0,0,0,0,0,0,0,0,0,0,0,0,0,0,0,0,0,0,0,0,0,0,0,0,0,0,0,0,0,0,0,0,0,0,0,0,0,0,0,0,0,0,0,0,0,0,0,
0,0,0,0,0,0,0,0,0,0,0,0,0,0,0,0,0,0,0,0,0,0,0,0,0,0,0,0,0,0,0,0,0,0,0,0,0,0,0,0,0,0,0,0,0,0,0,0,0,0,0,0,0,0,0,0,0,0,0,0,
0,0,0,0,0,0,0,0,0,0,0,0,0,0,0,0,0,0,0,0,0,0,0,0,0,0,0,0,0,0,0,0,0,0,0,0,0,0,0,0,0,0,0,0,0,0,0,0,0,0,0,0,0,0,0,0,0,0,0,0,
0,0,0,0,0,0,0,0,0,0,0,0,0,0,0,0,0,0,0,0,0,0,0,0,0,0,0,0,0,0,0,0,0,0,0,0,0,0,0,0,0,0,0,0,0,0,0,0,0,0,0,0,0,0,0,0,0,0,0,0,
0,0,0,0,0,0,0,0,0,0,0,0,0,0,0,0,0,0,0,0,0,0,0,0,0,0,0,0,0,0,0,0,0,0,0,0,0,0,0,0,0,0,0,0,0,0,0,0,0,0,0,0,0,0,0,0,0,0,0,0,
0,0,0,0,0,0,0,0,0,0,0,0,0,0,0,0,0,0,0,0,0,0,0,0,0,0,0,0,0,0,0,0,0,0,0,0,0,0,0,0,0,0,0,0,0,0,0,0,0,0,0,0,0,0,0,0,0,0,0,0,
0,0,0,0,0,0,0,0,0,0,0,0,0,0,0,0,0,0,0,0,0,0,0,0,0,0,0,0,0,0,0,0,0,0,0,0,0,0,0,0,0,0,0,0,0,0,0,0,0,0,0,0,0,0,0,0,0,0,0,0,
0,0,0,0,0,0,0,0,0,0,0,0,0,0,0,0,0,0,0,0,0,0,0,0,0,0,0,0,0,0,0,0,0,0,0,0,0,0,0,0,0,0,0,0,0,0,0,0,0,0,0,0,0,0,0,0,0,0,0,0,
0,0,0,0,0,0,0,0,0,0,0,0,0,0,0,0,0,0,0,0,0,0,0,0,0,0,0,0,0,0,0,0,0,0,0,0,0,0,0,0,0,0,0,0,0,0,0,0,0,0,0,0,0,0,0,0,0,0,0,0,
0,0,0,0,0,0,0,0,0,0,0,0,0,0,0,0,0,0,0,0,0,0,0,0,0,0,0,0,0,0,0,0,0,0,0,0,0,0,0,0,0,0,0,0,0,0,0,0,0,0,0,0,0,0,0,0,0,0,0,0,
0,0,0,0,0,0,0,0,0,0,0,0,0,0,0,0,0,0,0,0,0,0,0,0,0,0,0,0,0,0,0,0,0,0,0,0,0,0,0,0,0,0,0,0,0,0,0,0,0,0,0,0,0,0,0,0,0,0,0,0,
0,0,0,0,0,0,0,0,0,0,0,0,0,0,0,0,0,0,0,0,0,0,0,0,0,0,0,0,0,0,0,0,0,0,0,0,0,0,0,0,0,0,0,0,0,0,0,0,0,0,0,0,0,0,0,0,0,0,0,0,
0,0,0,0,0,0,0,0,0,0,0,0,0,0,0,0,0,0,0,0,0,0,0,1325,1295,1295,1295,1295,1296,1297,1298,1299,1300,1295,1295,1295,1326,172,0,0,0,0,0,0,0,0,0,0,0,0,0,0,0,0,0,0,0,0,0,0,
0,0,0,0,0,0,0,0,0,0,0,0,0,0,0,0,0,0,0,0,0,0,1327,1328,1301,1301,1301,1301,1302,1303,1304,1305,1306,1301,1301,1301,1329,1330,0,0,0,0,0,0,0,0,0,0,0,0,0,0,0,0,0,0,0,0,0,0,
0,0,0,0,0,0,0,0,0,0,0,0,0,0,0,0,0,0,0,0,0,0,1331,1332,1307,1307,1307,1307,1308,1309,1310,1311,1312,1307,1307,1307,1333,1334,0,0,0,0,0,0,0,0,0,0,0,0,0,0,0,0,0,0,0,0,0,0,
0,0,0,0,0,0,0,0,0,0,0,0,0,0,0,0,0,0,0,0,0,0,1331,1332,1301,1301,1301,1313,1314,1315,1316,1317,1318,1307,1307,1307,1333,1334,0,0,0,0,0,0,0,0,0,0,0,0,0,0,0,0,0,0,0,0,0,0,
0,0,0,0,0,0,0,0,0,0,0,0,0,0,0,0,0,0,0,0,0,0,1331,1332,1307,1307,1307,1319,1320,1321,1322,1323,1324,1307,1307,1307,1333,1334,0,0,0,0,0,0,0,0,0,0,0,0,0,0,0,0,0,0,0,0,0,0,
0,0,0,0,0,0,0,0,0,0,0,0,0,0,0,0,0,0,0,0,0,0,1335,1336,0,0,0,1320,1341,1342,1343,1344,1323,0,0,0,1337,1338,0,0,0,0,0,0,0,0,0,0,0,0,0,0,0,0,0,0,0,0,0,0,
0,0,0,0,0,0,0,0,0,0,0,0,0,0,0,0,0,0,0,0,0,0,1339,0,0,0,0,1345,1346,0,0,1347,1348,0,0,0,203,1340,0,0,0,0,0,0,0,0,0,0,0,0,0,0,0,0,0,0,0,0,0,0,
0,0,0,0,0,0,0,0,0,0,0,0,0,0,0,0,0,0,0,0,0,0,0,0,0,0,0,1349,284,0,0,287,1350,0,0,0,0,0,0,0,0,0,0,0,0,0,0,0,0,0,0,0,0,0,0,0,0,0,0,0,
0,0,0,0,0,0,0,0,0,0,0,0,0,0,0,0,0,0,0,0,0,0,0,0,0,0,0,0,0,0,0,0,0,0,0,0,0,0,0,0,0,0,0,0,0,0,0,0,0,0,0,0,0,0,0,0,0,0,0,0,
0,0,0,0,0,0,0,0,0,0,0,0,0,0,0,0,0,0,0,0,0,0,0,0,0,0,0,0,0,0,0,0,0,0,0,0,0,0,0,0,0,0,0,0,0,0,0,0,0,0,0,0,0,0,0,0,0,0,0,0,
0,0,0,0,0,0,0,0,0,0,0,0,0,0,0,0,0,0,0,0,0,0,0,0,0,0,0,0,0,0,0,0,0,0,0,0,0,0,0,0,0,0,0,0,0,0,0,0,0,0,0,0,0,0,0,0,0,0,0,0,
0,0,0,0,0,0,0,0,0,0,0,0,0,0,0,0,0,0,0,0,0,0,0,0,0,0,0,0,0,0,0,0,0,0,0,0,0,0,0,0,0,0,0,0,0,0,0,0,0,0,0,0,0,0,0,0,0,0,0,0,
0,0,0,0,0,0,0,0,0,0,0,0,0,0,0,0,0,0,0,0,0,0,0,0,0,0,0,0,0,0,0,0,0,0,0,0,0,0,0,0,0,0,0,0,0,0,0,0,0,0,0,0,0,0,0,0,0,0,0,0,
0,0,0,0,0,0,0,0,0,0,0,0,0,0,0,0,0,0,0,0,0,0,0,0,0,0,0,0,0,0,0,0,0,0,0,0,0,0,0,0,0,0,0,0,0,0,0,0,0,0,0,0,0,0,0,0,0,0,0,0,
0,0,0,0,0,0,0,0,0,0,0,0,0,0,0,0,0,0,0,0,0,0,0,0,0,0,0,0,0,0,0,0,0,0,0,0,0,0,0,0,0,0,0,0,0,0,0,0,0,0,0,0,0,0,0,0,0,0,0,0,
0,0,0,0,0,0,0,0,0,0,0,0,0,0,0,0,0,0,0,0,0,0,0,0,0,0,0,0,0,0,0,0,0,0,0,0,0,0,0,0,0,0,0,0,0,0,0,0,0,0,0,0,0,0,0,0,0,0,0,0,
0,0,0,0,0,0,0,0,0,0,0,0,0,0,0,0,0,0,0,0,0,0,0,0,0,0,0,0,0,0,0,0,0,0,0,0,0,0,0,0,0,0,0,0,0,0,0,0,0,0,0,0,0,0,0,0,0,0,0,0,
0,0,0,0,0,0,0,0,0,0,0,0,0,0,0,0,0,0,0,0,0,0,0,0,0,0,0,0,0,0,0,0,0,0,0,0,0,0,0,0,0,0,0,0,0,0,0,0,0,0,0,0,0,0,0,0,0,0,0,0,
0,0,0,0,0,0,0,0,0,0,0,0,0,0,0,0,0,0,0,0,0,0,0,0,0,0,0,0,0,0,0,0,0,0,0,0,0,0,0,0,0,0,0,0,0,0,0,0,0,0,0,0,0,0,0,0,0,0,0,0
</data>
 </layer>
 <objectgroup id="2" name="characters">
  <object id="1" name="elder" type="character" x="1104" y="992" width="32" height="32">
   <properties>
    <property name="controller.dialogueLines" type="list">
     <item value="이 물이 어디서 오는지 아나? 느티골 수로 끝에서 우리 들녘까지 흘러온다네."/>
     <item value="물이 마르면 마을도 마르는 게야. 그래서 우물을 늘 지키고 있지."/>
    </property>
    <property name="controller.messageDurationSeconds" type="float" value="2.8"/>
    <property name="controller.scriptId" value="vn-dialogue"/>
    <property name="displayText" value="마리네 촌장"/>
    <property name="type" value="character_elder_gray_hair"/>
   </properties>
  </object>
  <object id="2" name="farmer" type="character" x="1552" y="448" width="32" height="32">
   <properties>
    <property name="controller.dialogueLines" type="list">
     <item value="올해 이삭이 유난히 굵어. 말캉이 숲 쪽 바람만 안 불면 풍년일세."/>
     <item value="밀은 정직해. 물 준 만큼, 딱 그만큼 자라거든."/>
    </property>
    <property name="controller.messageDurationSeconds" type="float" value="2.8"/>
    <property name="controller.scriptId" value="vn-dialogue"/>
    <property name="displayText" value="파딘"/>
    <property name="type" value="character_bearded_apron_man"/>
    <property name="quest.hiddenWhenCompleted" value="q011-field-pigs"/>
   </properties>
  </object>
  <object id="30" name="farmer" type="character" x="1552" y="448" width="32" height="32">
   <properties>
    <property name="controller.dialogueLines" type="list">
     <item value="꿀꿀이가 안 내려오니 밀이 쑥쑥 자라는구먼."/>
     <item value="올가을 첫 밀가루로 구운 빵은 자네 몫이야."/>
    </property>
    <property name="controller.messageDurationSeconds" type="float" value="2.8"/>
    <property name="controller.scriptId" value="vn-dialogue"/>
    <property name="displayText" value="파딘"/>
    <property name="type" value="character_bearded_apron_man"/>
    <property name="quest.requiresCompleted" value="q011-field-pigs"/>
   </properties>
  </object>
  <object id="3" name="rona" type="character" x="464" y="736" width="32" height="32">
   <properties>
    <property name="controller.dialogueLines" type="list">
     <item value="당근은 새벽에 뽑아야 달아요. 우리 집 양반은 그것도 모르고 한낮에 뽑는다니까요."/>
     <item value="텃밭 흙은 수로 물 덕에 늘 촉촉해요."/>
    </property>
    <property name="controller.messageDurationSeconds" type="float" value="2.8"/>
    <property name="controller.scriptId" value="vn-dialogue"/>
    <property name="displayText" value="로나"/>
    <property name="type" value="character_villager_flower_dress"/>
    <property name="quest.hiddenWhenCompleted" value="q012-sluice-keeper"/>
   </properties>
  </object>
  <object id="31" name="rona" type="character" x="464" y="736" width="32" height="32">
   <properties>
    <property name="controller.dialogueLines" type="list">
     <item value="이멜 아저씨가 다시 빨래터에 내려오셨어요. 수위표 얘기만 하시지만요."/>
     <item value="수로 물이 예전만 못하대요… 별일 아니겠죠?"/>
    </property>
    <property name="controller.messageDurationSeconds" type="float" value="2.8"/>
    <property name="controller.scriptId" value="vn-dialogue"/>
    <property name="displayText" value="로나"/>
    <property name="type" value="character_villager_flower_dress"/>
    <property name="quest.requiresCompleted" value="q012-sluice-keeper"/>
   </properties>
  </object>
  <object id="4" name="duran" type="character" x="1392" y="1632" width="32" height="32">
   <properties>
    <property name="controller.dialogueLines" type="list">
     <item value="오늘만 벌써 여섯 번째 왕복이야... 수레바퀴가 나보다 먼저 쓰러지겠어."/>
     <item value="건초 부스러기 흘린 거, 그거 다 내 발자국이라오."/>
    </property>
    <property name="controller.messageDurationSeconds" type="float" value="2.8"/>
    <property name="controller.scriptId" value="vn-dialogue"/>
    <property name="displayText" value="두란"/>
    <property name="type" value="character_villager_brown_tunic"/>
   </properties>
  </object>
  <object id="5" name="kian" type="character" x="560" y="1376" width="32" height="32">
   <properties>
    <property name="controller.dialogueLines" type="list">
     <item value="떨어진 사과는 주워 가도 좋아. 나무에 달린 건 방울 소리 나니까 손대지 말고."/>
     <item value="방죽못 벤치는 노을 명당이야. 오늘도 누가 앉아 있더군."/>
    </property>
    <property name="controller.messageDurationSeconds" type="float" value="2.8"/>
    <property name="controller.scriptId" value="vn-dialogue"/>
    <property name="displayText" value="키안"/>
    <property name="type" value="character_commoner_tan_tunic"/>
   </properties>
  </object>
  <object id="6" name="gatekeeper" type="character" x="1008" y="288" width="32" height="32">
   <properties>
    <property name="controller.dialogueLines" type="list">
     <item value="느티골에서 내려오셨소? 계단이 미끄러우니 조심하시오."/>
     <item value="물보라가 사철 마르질 않아서 아치 밑은 늘 서늘하오."/>
    </property>
    <property name="controller.messageDurationSeconds" type="float" value="2.8"/>
    <property name="controller.scriptId" value="vn-dialogue"/>
    <property name="displayText" value="헤나 경"/>
    <property name="type" value="character_knight_open_helmet"/>
   </properties>
  </object>
  <object id="7" name="broker" type="character" x="1168" y="832" width="32" height="32">
   <properties>
    <property name="controller.dialogueLines" type="list">
     <item value="물건은 좋은데 가게 낼 허가는 죄다 윗마을 차지라니까."/>
     <item value="그래도 맛은 우리 밭이 최고요! 밀 냄새 맡아보시오."/>
    </property>
    <property name="controller.messageDurationSeconds" type="float" value="2.8"/>
    <property name="controller.scriptId" value="vn-dialogue"/>
    <property name="displayText" value="브란"/>
    <property name="type" value="character_bearded_apron_man"/>
   </properties>
  </object>
  <object id="8" name="mage" type="character" x="368" y="288" width="32" height="32">
   <properties>
    <property name="controller.dialogueLines" type="list">
     <item value="수위 정상, 유속 양호... 이 폭포 소리를 들으면 계산이 잘 돼."/>
     <item value="분필 자국은 지우지 말게. 백 년치 수위 기록이니."/>
    </property>
    <property name="controller.messageDurationSeconds" type="float" value="2.8"/>
    <property name="controller.scriptId" value="vn-dialogue"/>
    <property name="displayText" value="이멜"/>
    <property name="type" value="character_wizard_purple"/>
   </properties>
  </object>
  <object id="9" name="teo" type="character" x="336" y="1408" width="32" height="32">
   <properties>
    <property name="controller.dialogueLines" type="list">
     <item value="수정 광산에서 곡괭이질 하다 왔어요. 여기 못가 벤치가 세상에서 제일 편하다니까요."/>
     <item value="광산 가려면 곡괭이부터 사요. 대장간에서 팔아요."/>
    </property>
    <property name="controller.messageDurationSeconds" type="float" value="2.8"/>
    <property name="controller.scriptId" value="vn-dialogue"/>
    <property name="displayText" value="테오"/>
    <property name="type" value="character_adventurer_brown_hair"/>
    <property name="quest.hiddenWhenCompleted" value="q014-weapon-path"/>
   </properties>
  </object>
  <object id="33" name="teo" type="character" x="336" y="1408" width="32" height="32">
   <properties>
    <property name="controller.dialogueLines" type="list">
     <item value="광산의 불이 꺼졌대요! 이제 마음 놓고 캐러 갈 수 있겠어요."/>
     <item value="그래도 못가 벤치 자리는 양보 못 해요. 여기가 제일 편하거든요."/>
    </property>
    <property name="controller.messageDurationSeconds" type="float" value="2.8"/>
    <property name="controller.scriptId" value="vn-dialogue"/>
    <property name="displayText" value="테오"/>
    <property name="type" value="character_adventurer_brown_hair"/>
    <property name="quest.requiresCompleted" value="q014-weapon-path"/>
   </properties>
  </object>
  <object id="10" name="lady" type="character" x="976" y="1248" width="32" height="32">
   <properties>
    <property name="controller.dialogueLines" type="list">
     <item value="울타리 틈으로 다니지들 말라고 그렇게 일렀건만..."/>
     <item value="기사님들이 제일 말을 안 들어요. 풀이 다 누웠잖아요."/>
    </property>
    <property name="controller.messageDurationSeconds" type="float" value="2.8"/>
    <property name="controller.scriptId" value="vn-dialogue"/>
    <property name="displayText" value="세라핀 부인"/>
    <property name="type" value="character_villager_flower_dress"/>
    <property name="quest.hiddenWhenCompleted" value="q013-manor-spores"/>
   </properties>
  </object>
  <object id="32" name="lady" type="character" x="976" y="1248" width="32" height="32">
   <properties>
    <property name="controller.dialogueLines" type="list">
     <item value="장미가 다시 피었어요. 향기 맡아 보시겠어요?"/>
     <item value="울타리 틈으로 다니는 기사님들만 없으면 완벽할 텐데요."/>
    </property>
    <property name="controller.messageDurationSeconds" type="float" value="2.8"/>
    <property name="controller.scriptId" value="vn-dialogue"/>
    <property name="displayText" value="세라핀 부인"/>
    <property name="type" value="character_villager_flower_dress"/>
    <property name="quest.requiresCompleted" value="q013-manor-spores"/>
   </properties>
  </object>
  <object id="11" name="patrol" type="character" x="912" y="1056" width="32" height="32">
   <properties>
    <property name="controller.radiusInTiles" type="float" value="4"/>
    <property name="controller.scriptId" value="wander-near-home"/>
    <property name="displayText" value="갈렌 경"/>
    <property name="type" value="character_knight_gray_helmet"/>
    <property name="controller.interactionLine" value="순찰 중이오. …울타리 틈으로 지름길을 다닌 건 세라핀 부인께 비밀로 해 주시오."/>
   </properties>
  </object>
  <object id="12" name="ranger" type="character" x="624" y="1184" width="32" height="32">
   <properties>
    <property name="controller.dialogueLines" type="list">
     <item value="왼쪽은 과수원, 곧장 가면 방죽못. 숲 쪽으론 요즘 슬라임이 극성이니 초보는 낮에만 다니게."/>
     <item value="느티골로 돌아가려면 북쪽 아치 밑 계단이오."/>
    </property>
    <property name="controller.messageDurationSeconds" type="float" value="2.8"/>
    <property name="controller.scriptId" value="vn-dialogue"/>
    <property name="displayText" value="마욘"/>
    <property name="type" value="character_ranger_green"/>
   </properties>
  </object>
  <object id="13" name="rine" type="character" x="368" y="640" width="32" height="32">
   <properties>
    <property name="controller.dialogueLines" type="list">
     <item value="빨래는 여기 물이 제일 잘 빠져요. 수로 물이 차고 깨끗하거든요."/>
     <item value="로나네 양반 흉은... 아니에요, 아무것도."/>
    </property>
    <property name="controller.messageDurationSeconds" type="float" value="2.8"/>
    <property name="controller.scriptId" value="vn-dialogue"/>
    <property name="displayText" value="리네"/>
    <property name="type" value="character_villager_brown_tunic"/>
   </properties>
  </object>
  <object id="28" name="waystone_harvest-village" type="character" x="560" y="224" width="32" height="32">
   <properties>
    <property name="blocksMovement" type="bool" value="true"/>
    <property name="displayText" value="귀환 표지석"/>
    <property name="type" value="cave_prop_obelisk_r1c0"/>
   </properties>
  </object>
  <object id="29" name="waystone_harvest-village_top" type="character" x="560" y="192" width="32" height="32">
   <properties>
    <property name="blocksMovement" type="bool" value="false"/>
    <property name="type" value="cave_prop_obelisk_r0c0"/>
   </properties>
  </object>
 </objectgroup>
 <objectgroup id="3" name="portals">
  <object id="14" name="north_arch_gate" type="portal" x="896" y="64" width="128" height="64">
   <properties>
    <property name="appearanceType" value="stairs_stone_step_base_00"/>
    <property name="targetFacing" value="up"/>
    <property name="targetSceneId" value="town"/>
    <property name="targetSpawnTileX" type="int" value="27"/>
    <property name="targetSpawnTileY" type="int" value="41"/>
   </properties>
  </object>
  <!-- 2장 입구: 수문 위 수도교 아치 → 윗물길. q014(무기의 길) 완료 후에만 열린다(q016 사라지는 물). -->
  <object id="25" name="upstream_gate" type="portal" x="352" y="128" width="96" height="32">
   <properties>
    <property name="appearanceType" value="stairs_stone_step_base_00"/>
    <property name="quest.requiresCompleted" value="q014-weapon-path"/>
    <property name="targetFacing" value="up"/>
    <property name="targetSceneId" value="upstream-waterway"/>
    <property name="targetSpawnTileX" type="int" value="5"/>
    <property name="targetSpawnTileY" type="int" value="21"/>
   </properties>
  </object>
 </objectgroup>
 <objectgroup id="10" name="buildings">
  <object id="15" name="manor" type="building" x="704" y="1280" width="544" height="544">
   <properties>
    <property name="displayText" value="촌장 농원 저택"/>
   </properties>
  </object>
  <object id="17" name="produce_market" type="building" x="1088" y="544" width="256" height="256">
   <properties>
    <property name="displayText" value="장터 천막"/>
   </properties>
  </object>
  <object id="18" name="cottage_west" type="building" x="352" y="288" width="224" height="320">
   <properties>
    <property name="displayText" value="서쪽 오두막"/>
   </properties>
  </object>
  <object id="19" name="cottage_east" type="building" x="608" y="320" width="224" height="320">
   <properties>
    <property name="displayText" value="동쪽 오두막"/>
   </properties>
  </object>
  <object id="20" name="stall_north" type="building" x="1344" y="768" width="160" height="160">
   <properties>
    <property name="displayText" value="좌판(북)"/>
   </properties>
  </object>
  <object id="21" name="stall_south" type="building" x="1344" y="1088" width="160" height="160">
   <properties>
    <property name="displayText" value="좌판(남)"/>
   </properties>
  </object>
 </objectgroup>
 <objectgroup id="11" name="decorations">
  <object id="22" name="village_well" type="fountain" x="992" y="896" width="64" height="64">
   <properties>
    <property name="displayText" value="마을 우물"/>
   </properties>
  </object>
  <object id="23" name="millpond" type="fountain" x="64" y="1280" width="256" height="256">
   <properties>
    <property name="displayText" value="방죽못"/>
   </properties>
  </object>
  <object id="24" name="orchard" type="fountain" x="384" y="1056" width="384" height="640">
   <properties>
    <property name="displayText" value="과수원"/>
   </properties>
  </object>
 </objectgroup>
</map>
