<?xml version="1.0" encoding="UTF-8"?>
<map version="1.10" tiledversion="1.12.1" orientation="orthogonal" renderorder="right-down" width="50" height="50" tilewidth="32" tileheight="32" infinite="0" nextlayerid="17" nextobjectid="33">
<!-- scripts/generate-hunting-ground.py 가 생성한다. 손으로 고치지 말고 스크립트를 고친 뒤 다시 돌릴 것. -->
 <tileset firstgid="1" source="../tilesets/town-32.tsx"/>
 <layer id="10" name="ground" width="50" height="50">
  <data encoding="csv">
457,517,517,517,457,457,457,457,517,517,517,517,517,517,517,517,517,457,457,457,457,457,457,457,457,457,457,517,517,517,517,517,517,517,517,517,517,517,517,517,517,517,517,517,517,517,517,517,517,517,
517,517,517,517,457,457,457,457,517,517,517,517,517,517,517,517,517,517,457,457,457,457,457,457,457,457,517,517,517,517,517,517,517,517,517,517,517,517,517,517,517,517,517,517,517,517,517,517,517,517,
517,517,517,457,457,457,457,517,517,517,517,517,517,517,517,517,517,517,517,457,457,457,517,517,517,517,517,517,517,517,517,517,517,517,517,517,517,517,517,517,517,517,517,517,517,517,517,517,517,517,
517,517,517,457,457,457,457,517,517,517,517,517,517,517,517,517,517,517,517,517,517,517,517,517,517,517,517,517,517,517,517,517,517,517,517,517,517,517,457,457,457,457,517,517,517,517,517,517,517,517,
517,517,457,457,457,457,457,517,517,517,517,517,517,517,517,517,517,517,517,517,517,517,517,517,517,517,517,517,517,517,517,517,517,517,457,457,457,457,457,457,457,457,457,517,517,517,517,517,517,517,
457,457,457,457,457,457,457,517,517,517,517,517,517,517,517,517,517,517,517,517,517,517,517,517,517,517,517,517,517,517,517,517,517,517,457,457,457,457,457,457,457,457,457,517,517,517,517,517,517,517,
517,517,457,457,457,457,457,517,517,517,517,517,517,517,517,517,517,517,517,517,517,517,517,517,517,517,517,517,517,517,517,517,517,517,457,457,457,457,457,457,457,457,457,517,517,517,517,517,517,517,
517,517,517,517,457,457,517,517,517,517,517,517,517,517,517,517,517,517,517,517,517,517,517,517,517,517,517,517,517,517,517,517,517,517,517,517,517,457,457,457,457,457,457,457,517,517,517,517,517,517,
517,517,517,517,517,517,517,517,517,517,517,517,517,517,517,517,517,517,517,517,569,561,563,517,517,517,517,517,569,561,561,563,517,517,517,517,517,517,457,457,457,457,457,457,457,457,457,517,517,517,
561,561,561,561,561,563,517,517,517,517,517,517,517,517,517,517,517,517,517,457,568,507,562,457,457,457,457,517,568,507,507,562,517,517,517,517,517,517,457,457,457,457,457,457,457,457,457,457,517,517,
507,507,507,507,507,577,561,561,561,561,563,517,517,517,517,517,517,517,457,457,568,507,577,561,563,457,457,517,572,564,579,577,563,517,517,517,517,517,457,457,588,580,580,580,580,580,580,580,580,580,
564,564,564,564,564,579,507,507,507,507,577,561,563,517,517,517,517,517,457,569,576,564,564,564,566,457,457,517,517,517,572,564,566,517,517,517,517,517,457,588,595,515,515,515,515,515,515,515,515,515,
517,517,517,517,517,572,564,564,564,564,564,579,577,563,517,517,517,517,457,572,566,457,457,457,457,457,457,457,517,517,517,517,517,517,517,517,517,517,588,595,515,515,515,515,515,515,515,515,515,515,
517,517,517,517,457,457,457,457,517,517,517,572,579,577,563,457,457,457,457,457,457,457,457,457,457,457,457,569,561,563,517,517,517,517,517,517,517,517,587,515,515,515,515,515,515,597,583,583,583,583,
517,517,517,457,457,457,457,457,457,457,457,457,572,579,577,563,457,457,457,457,517,457,457,457,457,457,457,568,507,562,457,517,517,517,517,517,569,561,595,583,583,583,583,583,583,585,457,457,517,517,
517,517,517,457,457,457,457,457,457,457,457,457,457,568,507,562,457,457,457,517,517,517,457,457,457,457,457,568,507,562,457,457,457,517,517,517,568,507,562,517,517,517,517,457,457,457,457,457,517,517,
517,517,517,457,457,457,457,457,457,457,457,457,457,572,579,562,457,457,457,517,517,517,457,457,457,457,457,572,579,562,457,457,517,517,517,517,568,578,566,517,517,517,517,457,457,457,457,457,517,517,
517,517,517,517,457,457,457,457,457,457,457,457,457,457,568,577,563,517,517,517,517,517,517,457,457,457,457,457,568,562,457,517,517,517,517,569,576,562,517,517,517,517,517,457,457,457,457,457,517,517,
517,517,517,517,517,517,517,457,457,457,457,457,457,517,568,507,562,517,517,517,517,517,517,517,457,457,457,457,568,562,517,517,517,517,517,568,507,562,517,517,457,457,457,457,457,457,457,517,517,517,
517,517,517,517,517,517,517,517,457,457,457,457,457,517,572,579,577,563,517,517,517,517,517,517,517,457,457,457,568,562,517,517,517,517,517,568,578,566,517,457,457,457,457,457,457,457,457,517,517,517,
517,517,517,517,517,517,517,517,457,457,457,457,517,517,517,568,507,577,561,561,561,563,517,517,517,457,457,517,568,562,517,517,517,517,569,576,562,517,457,457,457,457,457,457,457,457,457,517,517,517,
517,517,517,517,517,517,517,517,457,457,457,457,517,517,517,572,579,507,507,507,507,577,561,561,561,561,561,561,576,562,517,517,517,569,576,578,566,517,517,457,457,457,457,457,457,457,457,517,517,517,
517,517,517,517,517,517,517,517,517,457,457,457,517,517,517,517,572,564,579,507,507,507,507,507,507,507,507,507,507,577,561,561,561,576,578,566,517,517,517,457,457,457,457,457,457,457,517,517,517,517,
517,517,517,517,517,517,517,517,517,517,517,517,517,517,517,517,517,517,572,564,579,507,507,507,507,507,507,507,507,507,507,507,578,564,566,517,517,517,517,517,517,517,517,517,517,517,517,517,517,517,
457,457,517,517,517,517,517,517,517,517,517,517,517,517,517,517,517,517,517,517,572,579,507,507,507,507,507,507,507,578,564,564,562,517,517,517,517,517,517,517,517,517,517,517,517,517,517,517,457,457,
457,457,517,517,517,517,517,517,517,517,517,517,517,517,517,457,517,517,517,517,517,572,579,507,507,507,507,507,507,562,517,517,587,580,582,517,517,517,517,517,517,517,517,517,517,517,517,517,457,457,
457,457,517,517,517,517,517,517,517,517,517,517,517,517,517,457,517,517,517,517,517,517,572,579,507,507,507,578,564,566,517,588,595,515,596,582,517,517,517,517,517,517,517,517,517,517,517,517,457,457,
457,457,517,517,517,517,517,517,517,517,517,517,517,517,517,517,517,517,517,517,517,517,517,572,579,578,564,566,517,517,517,587,515,515,515,581,517,517,517,517,517,517,517,517,517,517,517,517,517,517,
457,457,517,517,517,517,517,517,517,517,517,517,517,517,517,517,517,517,517,517,517,517,517,517,568,562,517,517,517,517,517,591,598,515,597,585,457,457,457,517,517,517,517,517,517,517,517,517,517,517,
457,457,517,517,517,517,517,517,517,457,457,457,457,517,517,517,517,517,517,517,517,517,517,517,568,562,457,517,517,517,517,517,591,583,585,457,457,457,457,457,457,457,517,517,517,517,517,517,517,517,
457,457,517,517,517,517,517,517,517,457,457,457,457,457,517,517,517,517,517,517,517,517,517,569,576,566,457,517,517,517,517,517,517,457,457,457,457,457,457,457,457,457,517,517,517,517,517,517,517,517,
457,457,517,517,517,517,517,517,517,457,457,457,457,517,517,517,517,517,517,517,517,517,569,576,566,457,457,517,517,517,517,517,517,457,457,457,457,457,457,457,457,457,517,517,517,517,517,517,517,517,
517,517,517,517,517,517,517,517,517,517,517,517,517,517,517,517,517,517,517,517,569,561,576,566,457,457,457,457,517,517,517,517,517,457,457,457,457,457,457,457,517,517,517,517,517,517,517,517,517,517,
517,517,517,517,517,517,517,517,517,517,517,517,517,517,517,517,517,517,569,561,564,564,566,517,457,457,457,457,517,517,517,517,517,457,457,457,457,457,457,517,517,517,517,517,517,517,517,517,517,517,
517,517,517,517,457,457,457,517,517,517,517,517,517,517,517,517,517,569,576,566,517,517,517,517,457,457,457,457,457,457,457,457,457,457,457,457,457,517,517,517,517,517,517,517,517,517,517,517,517,517,
517,517,517,457,457,457,457,517,517,517,517,517,517,517,517,517,517,568,562,517,517,517,517,517,457,457,457,457,457,457,457,457,457,457,517,517,517,517,588,580,580,580,580,580,582,517,517,517,517,517,
517,517,517,457,457,457,457,517,517,517,517,517,517,517,517,517,569,576,566,517,517,517,517,457,457,457,457,457,457,457,457,457,457,457,457,457,517,588,595,515,515,515,515,515,581,457,517,517,517,517,
517,517,517,517,457,457,457,457,517,517,517,517,517,517,517,517,568,562,517,517,517,517,517,457,457,457,457,457,517,517,517,517,517,517,457,457,588,595,515,515,515,515,515,515,596,582,457,517,517,517,
517,517,517,517,457,457,457,457,457,457,517,517,517,517,517,517,568,562,517,517,517,517,517,457,457,457,457,457,517,517,517,517,517,517,457,588,595,515,515,515,515,515,515,515,515,581,457,457,457,457,
517,517,517,517,457,457,457,457,457,457,457,457,457,457,457,457,568,562,457,517,517,517,457,457,457,457,457,517,517,517,517,517,517,517,457,591,598,515,515,515,515,515,515,515,597,585,457,457,457,457,
517,517,517,517,457,457,457,457,457,457,457,457,457,457,457,457,572,577,563,457,517,457,457,457,457,457,457,517,517,517,517,517,517,569,563,457,591,583,598,515,515,515,597,583,585,457,457,457,457,457,
517,517,517,517,457,457,457,457,457,457,457,457,457,457,457,457,457,568,577,563,517,457,457,457,457,457,457,517,517,517,517,569,561,576,566,457,457,457,591,583,583,583,585,457,457,457,457,457,457,457,
517,517,517,517,517,457,457,457,457,457,457,457,457,457,517,517,517,572,564,577,563,457,457,457,457,457,457,517,517,517,569,576,564,566,517,517,517,517,517,517,517,517,517,517,517,517,517,457,457,457,
517,517,517,517,517,517,517,457,457,457,457,457,457,517,517,517,517,517,517,572,564,561,561,563,457,457,457,569,561,561,576,566,517,517,517,517,517,517,517,517,517,517,517,517,517,517,517,517,457,457,
517,517,517,517,517,517,517,457,457,457,457,457,457,517,517,517,517,517,517,517,457,572,564,577,561,561,561,576,578,564,566,517,517,517,517,517,517,517,517,517,517,517,517,517,517,517,517,517,517,457,
517,517,517,517,517,517,517,457,457,457,457,457,457,517,517,517,517,517,517,517,457,457,457,572,564,564,564,564,566,517,517,517,517,517,517,517,517,517,517,517,517,517,517,517,517,517,517,517,517,457,
517,517,517,517,517,517,517,457,457,457,457,457,457,517,517,517,517,517,517,517,457,457,457,457,457,457,517,517,517,517,517,517,517,517,517,517,517,517,517,517,517,517,517,517,517,517,517,517,517,517,
517,517,517,517,517,517,517,457,457,457,457,457,457,517,517,517,517,517,517,457,457,457,457,457,457,457,457,517,517,517,517,517,517,517,517,517,517,517,517,517,517,517,517,517,517,517,517,517,517,517,
517,517,517,517,517,517,517,517,457,457,457,457,457,517,517,517,517,517,517,457,457,457,457,457,457,457,457,517,517,517,517,517,517,517,517,517,517,517,517,517,517,517,517,517,517,517,517,517,517,517,
457,457,457,517,517,517,517,517,457,457,457,457,457,517,517,517,517,517,457,457,457,457,457,457,457,457,457,517,517,517,517,517,517,517,517,457,457,457,457,457,457,457,517,517,517,517,517,517,517,517
</data>
 </layer>
 <layer id="11" name="shadow_lower" width="50" height="50">
  <data encoding="csv">
0,0,0,460,0,0,0,0,0,0,0,0,460,0,459,0,0,0,0,0,0,0,0,0,0,0,0,0,0,0,0,459,0,0,458,0,458,461,0,0,0,0,0,0,462,0,0,461,0,0,
0,0,0,0,0,0,0,0,0,0,0,0,0,0,0,0,459,462,0,0,0,0,0,0,0,0,0,0,0,461,0,0,0,462,1165,0,0,1166,0,0,0,458,0,0,0,0,0,0,0,0,
0,0,0,0,0,0,0,0,0,461,0,0,0,0,0,0,458,0,0,0,0,0,0,0,0,0,0,0,0,0,0,0,0,0,461,0,0,1164,0,0,0,0,0,0,0,0,0,0,0,460,
0,0,0,0,0,460,0,459,462,0,1165,461,0,0,0,0,0,0,0,0,0,0,0,0,0,0,0,0,460,0,0,0,0,0,460,0,0,1164,0,0,0,461,0,0,0,0,0,460,0,460,
0,0,0,0,0,0,0,0,0,458,0,0,0,0,461,0,0,0,0,0,0,461,0,0,0,0,0,0,0,0,0,0,0,0,0,462,0,0,0,0,458,0,0,0,0,0,0,0,0,0,
0,0,0,461,0,0,0,0,0,0,0,0,0,0,0,0,0,0,0,0,460,0,0,0,0,0,0,0,0,0,0,0,0,0,0,0,0,0,0,0,0,0,0,0,0,0,0,0,0,0,
0,0,0,0,0,0,0,0,0,0,0,0,462,458,0,0,0,0,0,0,0,0,0,0,0,0,0,0,0,0,0,0,0,0,0,0,0,0,459,0,0,0,0,0,0,0,0,0,0,0,
0,0,0,462,0,462,0,0,0,0,0,0,0,0,0,0,0,0,0,0,0,0,0,0,0,0,0,0,0,0,0,0,460,0,0,458,0,0,0,0,0,0,0,0,0,0,0,0,0,0,
0,461,0,0,459,0,0,0,0,0,0,0,0,0,0,0,0,0,0,0,0,0,0,0,0,0,0,0,0,0,0,0,460,0,0,0,458,0,0,0,0,0,0,0,0,0,0,0,0,0,
0,460,0,0,0,0,0,0,0,0,0,0,0,0,0,0,0,0,0,0,0,0,0,0,0,0,0,0,0,0,0,0,0,0,0,0,0,0,0,0,0,0,0,0,0,0,0,0,0,0,
0,0,0,0,0,0,0,461,0,0,459,0,0,0,0,460,0,0,0,0,0,0,0,0,459,0,0,0,0,0,0,0,0,0,0,0,0,0,0,0,0,1122,0,0,0,0,0,1122,0,0,
0,0,0,461,0,0,0,0,0,0,0,0,0,0,0,0,0,0,0,0,0,0,461,0,0,0,0,462,0,0,0,0,0,0,0,0,0,0,0,0,0,0,0,0,0,0,0,0,0,0,
0,0,0,0,0,0,0,0,459,0,461,0,0,0,0,0,0,0,0,0,459,0,0,0,0,0,0,0,0,0,0,0,0,0,0,0,0,0,0,0,1120,0,0,1122,0,0,1120,0,0,0,
0,0,0,458,0,0,0,0,0,0,0,0,0,0,0,0,0,0,0,0,0,0,0,460,0,0,0,0,0,458,0,0,0,0,0,0,0,0,0,0,0,0,0,0,0,0,0,0,0,0,
458,0,0,0,459,0,0,0,0,0,0,0,461,0,0,0,0,0,0,0,0,0,0,0,0,0,0,0,0,0,0,0,0,0,0,0,0,0,0,0,0,0,0,0,0,0,0,0,462,0,
0,0,0,0,462,0,0,0,0,0,0,1165,0,0,0,0,0,0,0,0,0,0,459,0,0,0,0,0,0,458,0,0,0,0,0,0,0,0,461,0,0,0,0,0,0,0,0,0,0,0,
460,0,0,0,0,0,461,0,0,0,0,0,1167,458,0,0,0,0,0,0,0,0,0,0,0,0,0,460,0,0,458,0,0,0,0,0,0,0,0,461,462,0,0,0,0,0,458,0,458,0,
0,0,459,0,0,458,0,0,0,0,0,0,0,1165,0,0,0,0,0,0,462,0,460,0,461,0,0,0,0,460,0,0,0,462,0,0,0,0,0,0,460,0,458,0,0,0,0,462,0,0,
0,0,0,461,0,0,459,0,0,0,0,0,0,0,0,0,0,0,0,0,0,0,0,0,0,0,0,0,0,0,0,0,0,0,0,0,0,0,0,0,0,0,0,0,0,0,0,0,0,462,
0,0,0,461,0,0,0,0,0,0,0,0,0,0,0,0,0,0,459,0,0,0,0,0,0,0,0,0,0,0,0,0,0,0,0,0,0,462,0,0,0,0,0,0,0,460,459,0,0,0,
0,0,0,0,0,0,0,0,0,0,0,0,0,0,0,459,0,0,0,460,0,0,0,0,460,0,0,0,0,0,0,0,0,0,0,0,0,0,0,0,0,0,462,0,0,0,0,0,459,458,
458,0,0,0,0,0,0,0,0,0,0,0,0,0,0,458,0,0,0,0,0,0,462,461,0,0,0,0,0,0,0,0,0,458,0,0,0,0,0,0,0,0,0,0,0,0,0,0,0,0,
458,0,0,0,0,0,0,0,0,0,0,0,0,0,0,0,0,0,0,0,0,0,0,0,0,0,0,0,0,0,0,0,458,0,0,0,0,0,0,458,0,0,0,0,0,0,0,0,0,0,
0,0,0,0,0,0,458,0,0,0,0,1167,0,0,0,0,0,0,0,0,0,0,0,0,1120,0,1120,0,0,0,0,0,0,0,0,0,0,461,0,0,0,0,0,462,0,0,0,0,0,0,
0,0,0,458,0,459,0,0,0,0,1166,0,0,1164,0,0,0,0,0,0,459,0,0,0,0,0,0,0,0,0,0,460,0,0,0,0,0,461,0,0,0,0,0,0,0,0,0,0,0,0,
0,0,0,462,0,0,0,0,0,0,1166,0,1164,0,0,0,0,0,0,0,0,460,0,0,0,0,0,0,0,0,460,0,0,0,0,458,0,0,0,0,0,0,0,0,460,0,0,0,0,0,
0,0,0,460,0,0,0,0,0,0,0,0,0,0,0,0,0,0,0,0,0,0,0,0,0,0,0,0,0,459,0,0,0,0,0,0,0,0,0,0,0,460,0,0,0,462,0,0,459,0,
0,0,0,0,0,0,0,462,462,0,0,0,0,0,0,0,0,0,458,0,458,0,0,0,0,0,0,458,0,0,0,0,0,0,0,0,0,0,0,0,458,0,460,0,0,0,0,0,0,0,
0,0,461,0,0,0,0,0,0,0,0,0,0,0,0,0,0,0,0,0,458,0,0,1166,0,0,0,0,0,0,0,0,0,0,0,0,0,0,0,0,0,0,460,0,458,460,0,0,0,0,
0,0,0,0,0,0,0,0,0,459,0,0,0,458,462,458,0,0,0,0,0,460,1164,1165,0,462,0,0,0,0,0,0,0,0,0,0,0,0,462,0,0,0,0,0,0,0,0,0,0,0,
0,0,0,0,0,0,458,0,0,0,0,0,0,0,462,0,0,0,0,0,0,1166,0,0,0,0,0,0,0,0,0,0,0,1164,0,1166,1165,460,0,0,0,0,0,0,0,0,0,0,0,0,
0,0,0,0,0,0,0,0,0,0,459,0,0,0,0,0,462,0,0,0,0,462,0,0,0,0,0,0,0,0,458,0,0,0,0,0,0,0,0,0,459,0,0,0,0,0,0,0,0,0,
0,0,0,0,0,461,0,0,0,0,459,0,0,0,0,0,0,0,0,0,459,0,0,0,0,0,0,0,0,0,460,0,0,0,0,0,0,0,0,0,0,0,0,0,0,0,0,459,0,458,
0,0,0,0,0,0,461,0,0,0,0,0,0,0,0,0,0,0,0,0,459,0,0,0,0,0,0,461,0,0,0,0,0,0,0,0,0,0,0,0,0,0,0,0,0,0,0,0,0,0,
0,0,0,0,0,459,462,0,459,0,0,459,0,460,0,0,0,0,0,0,0,0,0,0,0,0,0,460,0,0,0,0,0,0,0,0,0,0,0,0,0,0,0,0,0,0,0,0,0,0,
0,460,0,0,0,460,461,0,461,0,0,0,459,0,0,459,461,0,459,0,0,0,0,0,0,0,0,0,0,0,0,0,0,460,0,0,0,0,1122,0,0,1120,0,0,0,0,460,0,0,0,
0,0,0,0,0,0,0,0,0,0,0,0,461,0,0,0,0,0,0,0,462,0,0,0,0,458,0,0,0,0,460,0,0,0,0,0,0,0,0,1122,1120,1122,0,0,0,0,0,0,0,462,
0,0,0,458,0,0,0,0,0,0,0,0,0,0,0,0,0,0,460,458,0,0,459,458,0,0,0,0,0,460,0,0,0,462,0,0,0,0,0,0,0,0,0,0,0,0,0,0,0,0,
0,0,0,0,0,0,0,0,0,0,0,0,459,0,461,0,0,0,0,459,0,0,0,0,0,0,0,0,0,0,0,0,0,462,0,0,0,0,0,0,0,0,0,0,0,0,0,0,0,0,
0,0,0,0,0,0,0,0,0,0,0,0,0,458,459,0,0,0,0,0,459,0,459,0,459,0,0,0,0,0,0,0,0,459,0,0,0,0,0,0,0,0,0,0,0,0,0,0,0,0,
0,0,458,462,460,0,0,0,0,0,0,0,0,0,0,0,462,0,0,460,459,0,0,0,0,0,460,0,0,0,0,0,0,0,0,0,0,0,0,0,0,0,0,0,0,0,0,0,0,0,
0,0,0,0,0,0,0,0,462,0,1167,460,0,0,458,0,0,0,0,0,0,0,458,0,0,0,0,0,0,0,0,0,0,0,462,0,0,0,0,0,0,0,0,0,0,461,0,0,0,0,
0,0,0,460,458,0,0,462,1166,460,461,0,0,0,0,0,0,0,0,0,0,0,0,0,0,0,0,0,0,0,0,0,0,0,0,0,0,0,458,0,0,0,0,0,0,0,0,458,462,0,
0,0,0,0,0,0,0,0,0,0,0,0,0,0,460,0,0,0,0,458,0,0,0,0,0,0,0,462,0,0,0,0,461,0,0,0,462,0,0,0,0,0,0,0,0,0,0,0,0,0,
0,0,0,0,0,460,0,0,0,0,0,0,0,0,0,0,0,0,0,0,0,0,0,0,0,0,0,0,0,0,0,0,462,0,0,0,0,0,0,0,0,461,0,0,0,0,0,0,0,0,
0,0,0,0,0,0,459,0,0,462,0,0,0,459,0,0,0,0,0,0,0,0,0,0,458,0,0,0,0,0,462,0,0,0,0,0,0,0,0,460,0,0,0,458,0,0,0,458,462,0,
461,0,0,0,0,0,0,0,0,0,0,0,0,0,0,0,0,461,0,0,0,0,460,0,461,0,460,0,0,0,0,0,0,0,0,459,0,0,0,0,462,0,0,0,0,0,0,0,0,0,
0,0,0,0,0,0,0,0,0,458,0,0,0,0,460,0,0,0,0,0,0,0,0,0,0,0,0,0,0,0,0,0,462,0,0,460,0,0,0,0,0,0,0,0,0,0,0,0,0,0,
0,0,0,0,0,0,0,0,0,0,0,461,461,462,0,0,0,0,462,0,0,0,0,0,0,0,462,0,0,0,0,0,0,0,0,0,0,0,0,0,0,0,0,0,0,0,0,0,0,0,
0,0,0,0,0,0,461,0,0,0,0,0,0,0,0,458,0,0,0,0,0,0,0,459,460,0,0,0,0,0,0,0,0,0,0,458,0,0,460,0,0,0,0,0,0,0,0,0,0,0
</data>
 </layer>
 <layer id="12" name="object" width="50" height="50">
  <data encoding="csv">
0,0,0,0,0,0,0,0,0,0,0,0,0,0,0,0,0,0,0,0,0,0,0,0,0,0,0,0,0,0,0,0,0,0,0,0,0,0,0,0,0,0,0,0,0,0,0,0,0,0,
0,0,0,0,0,0,0,0,0,0,0,0,0,0,0,0,0,0,0,0,0,0,0,0,0,0,0,0,0,0,0,0,0,0,0,0,0,0,0,0,0,0,0,0,0,0,0,0,0,0,
0,0,1274,1275,1276,0,1274,1275,1276,0,350,351,352,0,1153,1154,0,350,351,352,0,0,0,1274,1275,1276,0,0,350,351,352,350,351,352,0,0,0,0,0,0,1274,1275,1276,350,351,352,1274,1275,1276,0,
350,351,352,0,0,0,0,0,0,0,0,0,0,0,1155,1156,1190,1152,1150,527,0,1274,1275,1276,1150,350,351,352,0,0,0,0,0,0,0,0,0,0,0,0,0,0,0,0,1152,0,0,0,0,0,
0,0,0,0,0,0,0,0,0,0,0,0,463,0,0,0,0,1161,1161,1161,0,0,1161,1161,1163,1161,1161,1161,1161,1161,1161,0,1161,1161,0,0,0,0,0,0,0,350,351,352,0,0,350,351,352,0,
0,0,0,0,0,0,0,0,0,0,0,0,0,0,0,0,0,1258,0,0,0,0,0,473,0,1258,0,1189,0,0,0,1168,1169,1258,0,0,0,0,0,0,0,0,0,0,0,0,0,0,0,0,
1274,1275,1276,0,0,0,0,0,0,0,0,0,0,0,0,0,0,1163,1193,0,0,0,0,0,0,1258,0,0,0,0,0,0,0,0,0,0,0,0,0,0,0,527,0,0,1091,0,0,0,528,0,
0,0,0,0,0,0,0,0,0,0,0,0,0,0,0,0,0,1258,0,0,0,0,0,0,0,1258,0,0,0,0,0,0,0,0,0,0,0,0,0,532,533,533,533,533,533,533,533,533,533,534,
0,0,0,0,0,0,0,0,0,0,0,0,0,0,0,0,0,1258,0,0,0,0,0,0,0,0,0,0,0,0,0,0,0,1258,0,0,0,0,528,540,541,541,541,541,541,541,541,541,541,542,
0,0,0,0,0,0,0,0,0,0,0,0,0,0,0,0,0,1258,0,0,0,0,0,0,0,0,0,0,0,0,0,0,0,1258,350,351,352,527,1091,548,549,549,549,549,549,549,549,549,549,550,
0,0,0,0,0,0,0,0,0,0,0,0,0,0,0,0,0,0,0,0,0,0,0,0,0,1258,0,0,0,0,0,0,0,1163,0,0,0,0,0,0,0,0,0,0,0,0,0,0,0,0,
0,0,0,0,0,0,0,0,0,0,0,0,0,0,0,0,0,0,0,0,0,0,0,0,0,1258,0,0,0,0,0,0,0,1258,0,0,0,0,0,0,0,0,0,0,0,0,0,0,0,0,
0,0,0,0,0,0,0,0,0,0,0,0,0,0,0,0,0,1258,0,0,0,0,0,0,0,1163,1178,1179,0,0,0,0,0,0,0,0,1091,0,0,0,0,0,0,0,0,0,0,0,0,0,
0,0,0,0,0,0,0,0,0,0,0,0,0,0,0,0,0,1258,1178,1179,0,0,0,0,473,1258,0,0,0,0,0,1168,1169,1258,0,0,0,0,0,0,0,0,0,0,0,0,0,527,1091,528,
0,350,351,352,0,0,0,0,0,0,463,0,0,0,0,0,0,1161,1161,1163,1161,0,1161,1161,1161,1161,1161,0,0,0,1161,1161,1161,1161,0,0,0,0,0,0,0,0,527,0,0,528,0,1091,1152,1091,
0,0,0,0,0,0,0,0,0,0,0,0,0,0,0,0,0,0,0,0,0,0,0,0,0,0,0,0,0,0,0,0,0,0,0,0,0,0,0,0,0,0,0,0,0,0,0,0,527,0,
0,350,351,352,0,0,0,0,0,0,0,0,0,0,0,0,0,0,0,0,0,0,0,0,0,0,0,0,0,0,0,0,0,0,0,0,0,0,0,0,0,0,0,0,0,0,0,0,0,0,
0,0,0,0,0,0,0,0,0,527,0,0,0,0,0,0,0,0,0,0,0,0,0,0,0,0,0,0,0,0,0,463,0,0,0,0,0,0,0,0,0,0,0,0,0,0,0,0,0,0,
0,0,0,0,0,0,0,0,0,0,0,0,0,0,0,0,0,0,0,0,350,351,352,0,0,0,0,0,0,0,0,0,0,0,0,0,0,0,0,1274,1275,1276,0,0,350,351,352,0,0,0,
1274,1275,1276,0,0,0,0,0,0,0,0,0,0,0,0,0,0,0,0,393,394,395,433,0,0,0,0,0,0,0,0,0,0,0,0,0,0,0,0,0,0,0,1274,1275,1276,1151,1152,1274,1275,1276,
0,0,0,0,1150,0,0,0,0,0,0,0,0,0,0,0,0,0,0,0,0,0,0,0,0,0,0,0,0,0,0,0,0,0,0,0,0,1152,0,1274,1275,1276,0,0,0,1274,1275,1276,0,0,
0,1274,1275,1276,0,0,0,0,0,0,0,0,0,0,0,0,0,0,1095,409,0,411,0,0,0,1189,0,0,1190,1095,0,0,528,0,0,0,0,0,0,0,0,0,0,0,0,0,0,0,0,0,
0,0,0,0,0,0,0,0,0,0,0,0,0,0,0,0,0,0,0,0,0,0,0,0,0,0,0,0,0,0,0,0,0,0,0,0,0,0,0,0,0,0,1274,1275,1276,0,0,0,0,0,
0,0,0,0,0,0,0,0,0,0,0,0,0,0,0,527,0,0,0,0,0,0,0,1189,0,1092,0,1189,0,0,0,0,0,0,0,0,0,0,1274,1275,1276,0,0,0,0,0,0,1274,1275,1276,
350,351,352,0,0,0,0,0,0,0,0,0,0,0,0,0,0,0,0,0,0,0,0,0,0,0,0,0,0,0,0,0,0,0,350,351,352,0,0,0,0,0,350,351,352,350,351,352,0,0,
0,0,0,0,0,0,0,0,0,0,0,0,0,0,0,0,0,0,0,0,0,0,0,0,0,0,0,0,0,1095,0,0,0,0,0,0,0,0,0,0,0,0,0,0,0,0,0,0,0,0,
350,351,352,0,0,0,0,0,0,0,0,0,0,0,0,0,0,0,0,0,0,0,0,0,0,0,0,0,433,0,0,0,0,0,0,0,1274,1275,1276,0,0,0,0,0,0,0,0,0,0,0,
0,0,0,0,0,0,0,0,0,0,0,0,0,0,0,0,0,0,0,0,0,0,0,0,0,0,0,0,0,0,0,0,0,1115,0,0,0,0,0,0,0,0,0,1274,1275,1276,350,351,352,0,
0,0,0,0,0,0,0,1274,1275,1276,0,0,0,0,0,0,0,1274,1275,1276,0,0,0,0,0,0,0,0,0,0,0,0,0,0,0,0,0,0,0,350,351,352,0,0,0,0,1151,0,0,1151,
1274,1275,1276,0,0,0,0,0,0,0,0,0,0,0,0,0,0,0,0,0,0,0,0,0,0,0,0,0,0,0,0,0,0,0,0,0,0,0,0,0,0,0,0,0,0,0,0,0,0,0,
0,0,0,0,0,0,0,0,0,350,351,352,0,0,0,0,0,350,351,352,527,0,0,0,0,0,0,0,0,0,0,0,0,0,0,0,0,0,0,0,0,0,0,0,0,1152,0,0,0,0,
350,351,352,350,351,352,350,351,352,0,0,0,0,0,0,0,0,0,0,0,0,0,0,0,0,0,0,0,0,0,0,0,0,0,0,527,0,0,0,1150,0,0,0,528,0,0,0,0,0,0,
0,0,0,0,0,0,0,0,0,0,0,0,0,1274,1275,1276,0,0,0,0,0,0,0,0,0,0,0,0,0,0,0,0,0,0,532,533,533,533,533,533,533,533,533,533,533,534,0,0,0,0,
0,0,0,350,351,352,0,350,351,352,0,1274,1275,1276,1152,1274,1275,1276,0,0,0,0,0,0,0,0,0,0,0,0,350,351,352,0,540,541,541,541,541,541,544,541,541,541,541,542,0,0,0,0,
1274,1275,1276,0,0,0,0,0,0,0,0,0,0,0,1152,0,0,0,0,0,0,0,350,351,352,0,0,0,0,0,0,0,0,0,548,549,549,549,549,549,552,549,549,549,549,550,0,350,351,352,
0,0,0,0,0,0,0,0,0,0,0,0,0,0,0,0,0,0,0,0,350,351,352,0,0,0,350,351,352,0,350,351,352,0,0,0,1098,1097,0,527,0,0,0,1097,1099,0,0,0,0,0,
1274,1275,1276,350,351,352,1274,1275,1276,350,351,352,0,0,0,0,0,0,0,0,0,0,0,0,0,0,0,0,0,0,0,0,0,0,0,0,0,0,0,0,0,0,0,0,0,0,1274,1275,1276,0,
0,0,0,0,0,0,0,0,0,0,0,350,351,352,0,0,0,0,0,0,0,0,0,0,0,0,1274,1275,1276,0,0,0,0,0,0,0,0,0,0,0,0,0,0,0,0,1098,0,0,0,0,
0,0,0,350,351,352,350,351,352,0,0,0,0,0,0,0,0,0,0,0,1274,1275,1276,1274,1275,1276,0,0,0,0,350,351,352,0,0,0,0,0,0,0,0,0,0,0,0,0,0,0,0,0,
350,351,352,0,0,0,0,0,0,0,0,0,0,0,0,0,0,0,0,0,0,0,0,0,0,0,0,0,0,1151,0,0,0,0,0,0,0,0,0,0,0,0,0,0,1153,1154,350,351,352,0,
0,0,0,0,0,0,0,0,0,433,0,0,0,0,0,0,0,0,0,0,0,1274,1275,1276,0,0,0,0,0,0,1274,1275,1276,0,0,0,0,0,0,0,0,0,1099,0,1155,1156,0,0,0,0,
350,351,352,0,350,351,352,0,0,0,0,0,0,0,0,0,0,0,0,0,1150,0,0,0,350,351,352,0,0,0,0,0,0,0,0,0,0,0,0,0,0,528,0,0,0,0,350,351,352,0,
0,0,0,0,0,0,0,0,0,0,0,0,1274,1275,1276,0,0,0,0,0,0,0,0,0,0,0,0,0,0,0,0,0,0,0,0,0,0,0,0,0,0,0,0,0,0,0,0,0,0,0,
0,0,0,0,0,1274,1275,1276,0,0,1274,1275,1276,1152,1150,1274,1275,1276,0,0,0,0,0,0,0,0,0,0,0,0,0,0,0,1274,1275,1276,0,0,0,0,0,0,0,0,0,0,0,0,0,0,
1274,1275,1276,0,0,0,0,0,0,0,0,0,0,350,351,352,0,0,0,0,0,0,0,0,0,0,0,0,0,0,0,0,0,0,0,0,0,350,351,352,0,0,0,0,350,351,352,1274,1275,1276,
0,0,1274,1275,1276,0,0,0,0,0,0,0,0,0,0,0,350,351,352,0,1274,1275,1276,0,0,0,0,0,0,0,0,0,350,351,352,350,351,352,0,0,0,0,0,0,0,0,0,0,0,0,
0,0,0,0,0,0,1274,1275,1276,350,351,352,0,0,0,0,0,0,0,0,0,0,0,0,0,0,0,0,0,0,0,0,0,0,0,0,0,0,0,0,0,0,350,351,352,350,351,352,0,0,
0,0,0,0,0,0,0,0,0,0,0,1274,1275,1276,0,0,0,0,0,0,1274,1275,1276,350,351,352,0,0,0,0,0,0,0,0,0,0,0,0,0,1274,1275,1276,0,0,0,0,0,0,0,0,
0,0,350,351,352,0,1274,1275,1276,0,1152,0,0,0,0,350,351,352,0,0,0,0,0,0,0,0,0,0,0,350,351,352,350,351,352,1274,1275,1276,0,0,0,0,0,0,0,0,0,0,0,0,
1274,1275,1276,0,0,0,0,0,0,0,0,0,0,0,0,0,0,350,351,352,0,0,0,0,0,350,351,352,0,0,0,0,0,0,0,0,0,1151,0,350,351,352,0,0,0,0,350,351,352,0
</data>
 </layer>
 <layer id="13" name="shadow_upper" width="50" height="50">
  <data encoding="csv">
0,0,0,0,0,0,0,0,0,0,0,0,0,0,0,0,0,0,0,0,0,0,0,0,0,0,0,0,0,0,0,0,0,0,0,0,0,0,0,0,0,0,0,0,0,0,0,0,0,0,
0,0,0,0,0,0,0,0,0,0,0,0,0,0,0,0,0,0,0,0,0,0,0,0,0,0,0,0,0,0,0,0,0,0,0,0,0,0,0,0,0,0,0,0,0,0,0,0,0,0,
0,0,0,0,0,0,0,0,0,0,0,0,0,0,0,0,0,0,0,0,0,0,0,0,0,0,0,0,0,0,0,0,0,0,0,0,0,0,0,0,0,0,0,0,0,0,0,0,0,0,
0,0,0,0,0,0,0,0,0,0,0,0,0,0,0,0,0,0,0,0,0,0,0,0,0,0,0,0,0,0,0,0,0,0,0,0,0,0,0,0,0,0,0,0,0,0,0,0,0,0,
0,0,0,0,0,0,0,0,0,0,0,0,0,0,0,0,0,0,0,0,0,0,0,0,0,0,0,0,0,0,0,0,0,0,0,0,0,0,0,0,0,0,0,0,0,0,0,0,0,0,
0,0,0,0,0,0,0,0,0,0,0,0,0,0,0,0,0,0,0,0,0,0,0,0,0,0,0,0,0,0,0,0,0,0,0,0,0,0,0,0,0,0,0,0,0,0,0,0,0,0,
0,0,0,0,0,0,0,0,0,0,0,0,0,0,0,0,0,0,0,0,0,0,0,0,0,0,0,0,0,0,0,0,0,0,0,0,0,0,0,0,0,0,0,0,0,0,0,0,0,0,
0,0,0,0,0,0,0,0,0,0,0,0,0,0,0,0,0,0,0,0,0,0,0,0,0,0,0,0,0,0,0,0,0,0,0,0,0,0,0,0,0,0,0,0,0,0,0,0,0,0,
0,0,0,0,0,0,0,0,0,0,0,0,0,0,0,0,0,0,0,0,0,0,0,0,0,0,0,0,0,0,0,0,0,0,0,0,0,0,0,0,0,0,0,0,0,0,0,0,0,0,
0,0,0,0,0,0,0,0,0,0,0,0,0,0,0,0,0,0,0,0,0,0,0,0,0,0,0,0,0,0,0,0,0,0,0,0,0,0,0,0,0,0,0,0,0,0,0,0,0,0,
0,0,0,0,0,0,0,0,0,0,0,0,0,0,0,0,0,0,0,0,0,0,0,0,0,0,0,0,0,0,0,0,0,0,0,0,0,0,0,0,0,0,0,0,0,0,0,0,0,0,
0,0,0,0,0,0,0,0,0,0,0,0,0,0,0,0,0,0,0,0,0,0,0,0,0,0,0,0,0,0,0,0,0,0,0,0,0,0,0,0,0,0,0,0,0,0,0,0,0,0,
0,0,0,0,0,0,0,0,0,0,0,0,0,0,0,0,0,0,0,0,0,0,0,0,0,0,0,0,0,0,0,0,0,0,0,0,0,0,0,0,0,0,0,0,0,0,0,0,0,0,
0,0,0,0,0,0,0,0,0,0,0,0,0,0,0,0,0,0,0,0,0,0,0,0,0,0,0,0,0,0,0,0,0,0,0,0,0,0,0,0,0,0,0,0,0,0,0,0,0,0,
0,0,0,0,0,0,0,0,0,0,0,0,0,0,0,0,0,0,0,0,0,0,0,0,0,0,0,0,0,0,0,0,0,0,0,0,0,0,0,0,0,0,0,0,0,0,0,0,0,0,
0,0,0,0,0,0,0,0,0,0,0,0,0,0,0,0,0,0,0,0,0,0,0,0,0,0,0,0,0,0,0,0,0,0,0,0,0,0,0,0,0,0,0,0,0,0,0,0,0,0,
0,0,0,0,0,0,0,0,0,0,0,0,0,0,0,0,0,0,0,0,0,0,0,0,0,0,0,0,0,0,0,0,0,0,0,0,0,0,0,0,0,0,0,0,0,0,0,0,0,0,
0,0,0,0,0,0,0,0,0,0,0,0,0,0,0,0,0,0,0,0,0,0,0,0,0,0,0,0,0,0,0,0,0,0,0,0,0,0,0,0,0,0,0,0,0,0,0,0,0,0,
0,0,0,0,0,0,0,0,0,0,0,0,0,0,0,0,0,0,0,0,0,0,0,0,0,0,0,0,0,0,0,0,0,0,0,0,0,0,0,0,0,0,0,0,0,0,0,0,0,0,
0,0,0,0,0,0,0,0,0,0,0,0,0,0,0,0,0,0,0,0,0,0,0,0,0,0,0,0,0,0,0,0,0,0,0,0,0,0,0,0,0,0,0,0,0,0,0,0,0,0,
0,0,0,0,0,0,0,0,0,0,0,0,0,0,0,0,0,0,0,0,0,0,0,0,0,0,0,0,0,0,0,0,0,0,0,0,0,0,0,0,0,0,0,0,0,0,0,0,0,0,
0,0,0,0,0,0,0,0,0,0,0,0,0,0,0,0,0,0,0,0,0,0,0,0,0,0,0,0,0,0,0,0,0,0,0,0,0,0,0,0,0,0,0,0,0,0,0,0,0,0,
0,0,0,0,0,0,0,0,0,0,0,0,0,0,0,0,0,0,0,0,0,0,0,0,0,0,0,0,0,0,0,0,0,0,0,0,0,0,0,0,0,0,0,0,0,0,0,0,0,0,
0,0,0,0,0,0,0,0,0,0,0,0,0,0,0,0,0,0,0,0,0,0,0,0,0,0,0,0,0,0,0,0,0,0,0,0,0,0,0,0,0,0,0,0,0,0,0,0,0,0,
0,0,0,0,0,0,0,0,0,0,0,0,0,0,0,0,0,0,0,0,0,0,0,0,0,0,0,0,0,0,0,0,0,0,0,0,0,0,0,0,0,0,0,0,0,0,0,0,0,0,
0,0,0,0,0,0,0,0,0,0,0,0,0,0,0,0,0,0,0,0,0,0,0,0,0,0,0,0,0,0,0,0,0,0,0,0,0,0,0,0,0,0,0,0,0,0,0,0,0,0,
0,0,0,0,0,0,0,0,0,0,0,0,0,0,0,0,0,0,0,0,0,0,0,0,0,0,0,0,0,0,0,0,0,0,0,0,0,0,0,0,0,0,0,0,0,0,0,0,0,0,
0,0,0,0,0,0,0,0,0,0,0,0,0,0,0,0,0,0,0,0,0,0,0,0,0,0,0,0,0,0,0,0,0,0,0,0,0,0,0,0,0,0,0,0,0,0,0,0,0,0,
0,0,0,0,0,0,0,0,0,0,0,0,0,0,0,0,0,0,0,0,0,0,0,0,0,0,0,0,0,0,0,0,0,0,0,0,0,0,0,0,0,0,0,0,0,0,0,0,0,0,
0,0,0,0,0,0,0,0,0,0,0,0,0,0,0,0,0,0,0,0,0,0,0,0,0,0,0,0,0,0,0,0,0,0,0,0,0,0,0,0,0,0,0,0,0,0,0,0,0,0,
0,0,0,0,0,0,0,0,0,0,0,0,0,0,0,0,0,0,0,0,0,0,0,0,0,0,0,0,0,0,0,0,0,0,0,0,0,0,0,0,0,0,0,0,0,0,0,0,0,0,
0,0,0,0,0,0,0,0,0,0,0,0,0,0,0,0,0,0,0,0,0,0,0,0,0,0,0,0,0,0,0,0,0,0,0,0,0,0,0,0,0,0,0,0,0,0,0,0,0,0,
0,0,0,0,0,0,0,0,0,0,0,0,0,0,0,0,0,0,0,0,0,0,0,0,0,0,0,0,0,0,0,0,0,0,0,0,0,0,0,0,0,0,0,0,0,0,0,0,0,0,
0,0,0,0,0,0,0,0,0,0,0,0,0,0,0,0,0,0,0,0,0,0,0,0,0,0,0,0,0,0,0,0,0,0,0,0,0,0,0,0,0,0,0,0,0,0,0,0,0,0,
0,0,0,0,0,0,0,0,0,0,0,0,0,0,0,0,0,0,0,0,0,0,0,0,0,0,0,0,0,0,0,0,0,0,0,0,0,0,0,0,0,0,0,0,0,0,0,0,0,0,
0,0,0,0,0,0,0,0,0,0,0,0,0,0,0,0,0,0,0,0,0,0,0,0,0,0,0,0,0,0,0,0,0,0,0,0,0,0,0,0,0,0,0,0,0,0,0,0,0,0,
0,0,0,0,0,0,0,0,0,0,0,0,0,0,0,0,0,0,0,0,0,0,0,0,0,0,0,0,0,0,0,0,0,0,0,0,0,0,0,0,0,0,0,0,0,0,0,0,0,0,
0,0,0,0,0,0,0,0,0,0,0,0,0,0,0,0,0,0,0,0,0,0,0,0,0,0,0,0,0,0,0,0,0,0,0,0,0,0,0,0,0,0,0,0,0,0,0,0,0,0,
0,0,0,0,0,0,0,0,0,0,0,0,0,0,0,0,0,0,0,0,0,0,0,0,0,0,0,0,0,0,0,0,0,0,0,0,0,0,0,0,0,0,0,0,0,0,0,0,0,0,
0,0,0,0,0,0,0,0,0,0,0,0,0,0,0,0,0,0,0,0,0,0,0,0,0,0,0,0,0,0,0,0,0,0,0,0,0,0,0,0,0,0,0,0,0,0,0,0,0,0,
0,0,0,0,0,0,0,0,0,0,0,0,0,0,0,0,0,0,0,0,0,0,0,0,0,0,0,0,0,0,0,0,0,0,0,0,0,0,0,0,0,0,0,0,0,0,0,0,0,0,
0,0,0,0,0,0,0,0,0,0,0,0,0,0,0,0,0,0,0,0,0,0,0,0,0,0,0,0,0,0,0,0,0,0,0,0,0,0,0,0,0,0,0,0,0,0,0,0,0,0,
0,0,0,0,0,0,0,0,0,0,0,0,0,0,0,0,0,0,0,0,0,0,0,0,0,0,0,0,0,0,0,0,0,0,0,0,0,0,0,0,0,0,0,0,0,0,0,0,0,0,
0,0,0,0,0,0,0,0,0,0,0,0,0,0,0,0,0,0,0,0,0,0,0,0,0,0,0,0,0,0,0,0,0,0,0,0,0,0,0,0,0,0,0,0,0,0,0,0,0,0,
0,0,0,0,0,0,0,0,0,0,0,0,0,0,0,0,0,0,0,0,0,0,0,0,0,0,0,0,0,0,0,0,0,0,0,0,0,0,0,0,0,0,0,0,0,0,0,0,0,0,
0,0,0,0,0,0,0,0,0,0,0,0,0,0,0,0,0,0,0,0,0,0,0,0,0,0,0,0,0,0,0,0,0,0,0,0,0,0,0,0,0,0,0,0,0,0,0,0,0,0,
0,0,0,0,0,0,0,0,0,0,0,0,0,0,0,0,0,0,0,0,0,0,0,0,0,0,0,0,0,0,0,0,0,0,0,0,0,0,0,0,0,0,0,0,0,0,0,0,0,0,
0,0,0,0,0,0,0,0,0,0,0,0,0,0,0,0,0,0,0,0,0,0,0,0,0,0,0,0,0,0,0,0,0,0,0,0,0,0,0,0,0,0,0,0,0,0,0,0,0,0,
0,0,0,0,0,0,0,0,0,0,0,0,0,0,0,0,0,0,0,0,0,0,0,0,0,0,0,0,0,0,0,0,0,0,0,0,0,0,0,0,0,0,0,0,0,0,0,0,0,0,
0,0,0,0,0,0,0,0,0,0,0,0,0,0,0,0,0,0,0,0,0,0,0,0,0,0,0,0,0,0,0,0,0,0,0,0,0,0,0,0,0,0,0,0,0,0,0,0,0,0
</data>
 </layer>
 <layer id="14" name="object_upper" width="50" height="50">
  <data encoding="csv">
0,0,1268,1269,1270,0,1268,1269,1270,0,334,335,336,0,0,0,0,334,335,336,0,0,0,1268,1269,1270,0,0,334,335,336,334,335,336,0,0,0,0,0,0,1268,1269,1270,334,335,336,1268,1269,1270,0,
0,0,1271,1272,1273,0,1271,1272,1273,0,342,343,344,0,0,0,0,342,343,344,0,0,0,1271,1272,1273,0,0,342,343,344,342,343,344,0,0,0,0,0,0,1271,1272,1273,342,343,344,1271,1272,1273,0,
0,0,0,0,0,0,0,0,0,0,0,0,0,0,0,0,0,0,0,0,0,0,0,0,0,0,0,0,0,0,0,0,0,0,0,0,0,0,0,0,0,0,0,0,0,0,0,0,0,0,
1265,1266,1267,0,0,0,0,0,0,0,0,0,0,0,0,0,0,0,0,0,0,0,0,0,0,0,0,0,0,0,0,0,0,0,0,0,0,0,0,0,0,0,0,0,0,0,0,0,0,0,
1268,1269,1270,0,0,0,0,0,0,0,0,0,0,0,0,0,0,0,0,0,0,0,0,0,0,0,0,0,0,0,0,0,0,0,0,0,0,0,0,0,0,0,0,0,0,0,0,0,0,0,
1271,1272,1273,0,0,0,0,0,0,0,0,0,0,0,0,0,0,0,1192,0,0,0,0,0,0,0,0,0,0,0,0,0,0,0,0,0,0,0,0,0,0,0,0,0,0,0,0,0,0,0,
0,0,0,0,0,0,0,0,0,0,0,0,0,0,0,0,0,0,0,0,0,0,0,0,0,0,0,0,0,0,0,0,0,0,326,327,328,0,0,0,0,0,0,0,0,0,0,0,0,0,
0,0,0,0,0,0,0,0,0,0,0,0,0,0,0,0,0,0,0,0,0,0,0,0,0,0,0,0,0,0,0,0,0,0,334,335,336,0,0,0,0,0,0,0,0,0,0,0,0,0,
0,0,0,0,0,0,0,0,0,0,0,0,0,0,0,0,0,0,0,0,0,0,0,0,0,0,0,0,0,0,0,0,0,0,342,343,344,0,0,0,0,0,0,0,0,0,0,0,0,0,
0,0,0,0,0,0,0,0,0,0,0,0,0,0,0,0,0,0,0,0,0,0,0,0,0,0,0,0,0,0,0,0,0,0,0,0,0,0,0,0,0,0,0,0,0,0,0,0,0,0,
0,0,0,0,0,0,0,0,0,0,0,0,0,0,0,0,0,0,0,0,0,0,0,0,0,0,0,0,0,0,0,0,0,0,0,0,0,0,0,0,0,0,0,0,0,0,0,0,0,0,
0,326,327,328,0,0,0,0,0,0,0,0,0,0,0,0,0,0,0,0,0,0,0,0,0,0,1176,1177,0,0,0,0,0,0,0,0,0,0,0,0,0,0,0,0,0,0,0,0,0,0,
0,334,335,336,0,0,0,0,0,0,0,0,0,0,0,0,0,0,1176,1177,0,0,0,0,0,0,0,0,0,0,0,0,0,0,0,0,0,0,0,0,0,0,0,0,0,0,0,0,0,0,
0,342,343,344,0,0,0,0,0,0,0,0,0,0,0,0,0,0,0,0,0,0,0,0,0,0,0,0,0,0,0,0,0,0,0,0,0,0,0,0,0,0,0,0,0,0,0,0,0,0,
0,0,0,0,0,0,0,0,0,0,0,0,0,0,0,0,0,0,0,0,0,0,0,0,0,0,0,0,0,0,0,0,0,0,0,0,0,0,0,0,0,0,0,0,0,0,0,0,0,0,
0,0,0,0,0,0,0,0,0,0,0,0,0,0,0,0,0,0,0,0,326,327,328,0,0,0,0,0,0,0,0,0,0,0,0,0,0,0,0,1265,1266,1267,0,0,326,327,328,0,0,0,
1265,1266,1267,0,0,0,0,0,0,0,0,0,0,0,0,0,0,0,0,0,334,335,336,0,0,0,0,0,0,0,0,0,0,0,0,0,0,0,0,1268,1269,1270,0,0,334,335,336,1265,1266,1267,
1268,1269,1270,0,0,0,0,0,0,0,0,0,0,0,0,0,0,0,0,0,342,343,344,0,0,0,0,0,0,0,0,0,0,0,0,0,0,0,0,1271,1272,1273,0,0,342,343,344,1268,1269,1270,
1271,1272,1273,0,0,0,0,0,0,0,0,0,0,0,0,0,0,0,0,0,0,0,0,0,0,0,0,0,0,0,0,0,0,0,0,0,0,0,0,0,0,0,0,0,0,0,0,1271,1272,1273,
0,0,0,0,0,0,0,0,0,0,0,0,0,0,0,0,0,0,0,0,0,0,0,0,0,0,0,0,0,0,0,0,0,0,0,0,0,0,0,0,0,0,1265,1266,1267,0,0,0,0,0,
0,0,0,0,0,0,0,0,0,0,0,0,0,0,0,0,0,0,0,401,402,403,0,0,0,0,0,0,0,0,0,0,0,0,0,0,0,0,1265,1266,1267,0,1268,1269,1270,0,0,1265,1266,1267,
326,327,328,0,0,0,0,0,0,0,0,0,0,0,0,0,0,0,0,0,0,0,0,0,0,0,0,0,0,0,0,0,0,0,326,327,328,0,1268,1269,1270,0,1271,1272,1273,0,0,1268,1269,1270,
334,335,336,0,0,0,0,0,0,0,0,0,0,0,0,0,0,0,0,0,0,0,0,0,0,0,0,0,0,0,0,0,0,0,334,335,336,0,1271,1272,1273,0,0,0,0,0,0,1271,1272,1273,
342,343,344,0,0,0,0,0,0,0,0,0,0,0,0,0,0,0,0,0,0,0,0,0,0,0,0,0,0,0,0,0,0,0,342,343,344,0,0,0,0,0,0,0,0,0,0,0,0,0,
0,0,0,0,0,0,0,0,0,0,0,0,0,0,0,0,0,0,0,0,0,0,0,0,0,0,0,0,0,0,0,0,0,0,0,0,0,0,0,0,0,0,0,1265,1266,1267,326,327,328,0,
0,0,0,0,0,0,0,1265,1266,1267,0,0,0,0,0,0,0,1265,1266,1267,0,0,0,0,0,0,0,0,0,0,0,0,0,0,0,0,0,0,0,326,327,328,0,1268,1269,1270,334,335,336,0,
1265,1266,1267,0,0,0,0,1268,1269,1270,0,0,0,0,0,0,0,1268,1269,1270,0,0,0,0,0,0,0,0,0,0,0,0,0,1114,0,0,0,0,0,334,335,336,0,1271,1272,1273,342,343,344,0,
1268,1269,1270,0,0,0,0,1271,1272,1273,0,0,0,0,0,0,0,1271,1272,1273,0,0,0,0,0,0,0,0,0,0,0,0,0,0,0,0,0,0,0,342,343,344,0,0,0,0,0,0,0,0,
1271,1272,1273,326,327,328,326,327,328,0,0,0,0,0,0,0,0,0,0,0,0,0,0,0,0,0,0,0,0,0,0,0,0,0,0,0,0,0,0,0,0,0,0,0,0,0,0,0,0,0,
0,0,0,334,335,336,334,335,336,0,0,0,0,1265,1266,1267,0,0,0,0,0,0,0,0,0,0,0,0,0,0,0,0,0,0,0,0,0,0,0,0,0,0,0,0,0,0,0,0,0,0,
0,0,0,342,343,344,342,343,344,0,0,0,0,1268,1269,1270,0,0,0,0,0,0,0,0,0,0,0,0,0,0,326,327,328,0,0,0,0,0,0,0,0,0,0,0,0,0,0,0,0,0,
1265,1266,1267,0,0,0,0,0,0,0,0,0,0,1271,1272,1273,0,0,0,0,0,0,326,327,328,0,0,0,0,0,334,335,336,0,0,0,0,0,0,0,0,0,0,0,0,0,0,326,327,328,
1268,1269,1270,0,0,0,0,0,0,0,0,0,0,0,0,0,0,0,0,0,0,0,334,335,336,0,326,327,328,0,342,343,344,0,0,0,0,0,0,0,0,0,0,0,0,0,0,334,335,336,
1271,1272,1273,326,327,328,1265,1266,1267,326,327,328,0,0,0,0,0,0,0,0,0,0,342,343,344,0,334,335,336,0,0,0,0,0,0,0,0,0,0,0,0,0,0,0,0,0,0,342,343,344,
0,0,0,334,335,336,1268,1269,1270,334,335,336,0,0,0,0,0,0,0,0,0,0,0,0,0,0,342,343,344,0,0,0,0,0,0,0,0,0,0,0,0,0,0,0,0,0,0,0,0,0,
0,0,0,342,343,344,1271,1272,1273,342,343,344,0,0,0,0,0,0,0,0,1265,1266,1267,1265,1266,1267,0,0,0,0,326,327,328,0,0,0,0,0,0,0,0,0,0,0,0,0,0,0,0,0,
326,327,328,0,0,0,0,0,0,0,0,0,0,0,0,0,0,0,0,0,1268,1269,1270,1268,1269,1270,0,0,0,0,334,335,336,0,0,0,0,0,0,0,0,0,0,0,0,0,326,327,328,0,
334,335,336,0,0,0,0,0,0,0,0,0,0,0,0,0,0,0,0,0,1271,1272,1273,1271,1272,1273,0,0,0,0,342,343,344,0,0,0,0,0,0,0,0,0,0,0,0,0,334,335,336,0,
342,343,344,0,326,327,328,0,0,0,0,0,0,0,0,0,0,0,0,0,0,0,0,0,326,327,328,0,0,0,0,0,0,0,0,0,0,0,0,0,0,0,0,0,0,0,342,343,344,0,
0,0,0,0,334,335,336,0,0,0,0,0,1265,1266,1267,0,0,0,0,0,0,0,0,0,334,335,336,0,0,0,0,0,0,0,0,0,0,0,0,0,0,0,0,0,0,0,0,0,0,0,
0,0,0,0,342,343,344,0,0,0,0,0,1268,1269,1270,1265,1266,1267,0,0,0,0,0,0,342,343,344,0,0,0,0,0,0,1265,1266,1267,0,0,0,0,0,0,0,0,0,0,0,0,0,0,
1265,1266,1267,0,0,0,0,0,0,0,0,0,1271,1272,1273,1268,1269,1270,0,0,0,0,0,0,0,0,0,0,0,0,0,0,0,1268,1269,1270,0,326,327,328,0,0,0,0,326,327,328,1265,1266,1267,
1268,1269,1270,0,0,0,0,0,0,0,0,0,0,0,0,1271,1272,1273,0,0,1265,1266,1267,0,0,0,0,0,0,0,0,0,0,1271,1272,1273,0,334,335,336,0,0,0,0,334,335,336,1268,1269,1270,
1271,1272,1273,0,0,0,1265,1266,1267,326,327,328,0,0,0,0,0,0,0,0,1268,1269,1270,0,0,0,0,0,0,0,0,0,0,0,0,0,0,342,343,344,0,0,0,0,342,343,344,1271,1272,1273,
0,0,0,0,0,0,1268,1269,1270,334,335,336,0,0,0,0,0,0,0,0,1271,1272,1273,326,327,328,0,0,0,0,0,0,0,0,0,0,0,0,0,1265,1266,1267,0,0,0,0,0,0,0,0,
0,0,326,327,328,0,1271,1272,1273,342,343,344,0,0,0,326,327,328,0,0,0,0,0,334,335,336,0,0,0,326,327,328,326,327,328,1265,1266,1267,0,1268,1269,1270,0,0,0,0,0,0,0,0,
0,0,334,335,336,0,0,0,0,0,0,0,0,0,0,334,335,336,0,0,0,0,0,342,343,344,0,0,0,334,335,336,334,335,336,1268,1269,1270,0,1271,1272,1273,0,0,0,0,326,327,328,0,
0,0,342,343,344,0,0,0,0,0,0,0,0,0,0,342,343,344,0,0,0,0,0,0,0,0,0,0,0,342,343,344,342,343,344,1271,1272,1273,0,0,0,0,0,0,0,0,334,335,336,0,
0,0,0,0,0,0,0,0,0,0,0,0,0,0,0,0,0,0,0,0,0,0,0,0,0,0,0,0,0,0,0,0,0,0,0,0,0,0,0,0,0,0,0,0,0,0,342,343,344,0,
0,0,0,0,0,0,0,0,0,0,0,0,0,0,0,0,0,0,0,0,0,0,0,0,0,0,0,0,0,0,0,0,0,0,0,0,0,0,0,0,0,0,0,0,0,0,0,0,0,0
</data>
 </layer>
 <layer id="15" name="deco" width="50" height="50">
  <data encoding="csv">
326,327,328,0,0,0,0,0,0,0,0,0,0,0,0,0,0,0,0,0,0,1265,1266,1267,0,326,327,328,0,0,0,0,0,0,0,0,0,0,0,0,0,0,0,0,0,0,0,0,0,0,
334,335,336,0,0,0,0,0,0,0,0,0,0,0,0,0,0,0,0,0,0,1268,1269,1270,0,334,335,336,0,0,0,0,0,0,0,0,0,0,0,0,0,326,327,328,0,0,326,327,328,0,
342,343,344,0,0,0,0,0,0,0,0,0,0,0,0,0,0,0,0,0,0,1271,1272,1273,0,342,343,344,0,0,0,0,0,0,0,0,0,0,0,0,0,334,335,336,0,0,334,335,336,0,
0,0,0,0,0,0,0,0,0,0,0,0,0,0,0,0,0,0,0,0,0,0,0,0,0,0,0,0,0,0,0,0,0,0,0,0,0,0,0,0,0,342,343,344,0,0,342,343,344,0,
0,0,0,0,0,0,0,0,0,0,0,0,0,0,0,0,0,0,0,0,0,0,0,0,0,0,0,0,0,0,0,0,0,0,0,0,0,0,0,0,0,0,0,0,0,0,0,0,0,0,
0,0,0,0,0,0,0,0,0,0,0,0,0,0,0,0,0,0,0,0,0,0,0,0,0,0,0,0,0,0,0,0,0,0,0,0,0,0,0,0,0,0,0,0,0,0,0,0,0,0,
0,0,0,0,0,0,0,0,0,0,0,0,0,0,0,0,0,0,0,0,0,0,0,0,0,0,0,0,0,0,0,0,0,0,0,0,0,0,0,0,0,0,0,0,0,0,0,0,0,0,
0,0,0,0,0,0,0,0,0,0,0,0,0,0,0,0,0,0,0,0,0,0,0,0,0,0,0,0,0,0,0,0,0,0,0,0,0,0,0,0,0,0,0,0,0,0,0,0,0,0,
0,0,0,0,0,0,0,0,0,0,0,0,0,0,0,0,0,0,0,0,0,0,0,0,0,0,0,0,0,0,0,0,0,0,0,0,0,0,0,0,0,0,0,0,0,0,0,0,0,0,
0,0,0,0,0,0,0,0,0,0,0,0,0,0,0,0,0,0,0,0,0,0,0,0,0,0,0,0,0,0,0,0,0,0,0,0,0,0,0,0,0,0,0,0,0,0,0,0,0,0,
0,0,0,0,0,0,0,0,0,0,0,0,0,0,0,0,0,0,0,0,0,0,0,0,0,0,0,0,0,0,0,0,0,0,0,0,0,0,0,0,0,0,0,0,0,0,0,0,0,0,
0,0,0,0,0,0,0,0,0,0,0,0,0,0,0,0,0,0,0,0,0,0,0,0,0,0,0,0,0,0,0,0,0,0,0,0,0,0,0,0,0,0,0,0,0,0,0,0,0,0,
0,0,0,0,0,0,0,0,0,0,0,0,0,0,0,0,0,0,0,0,0,0,0,0,0,0,0,0,0,0,0,0,0,0,0,0,0,0,0,0,0,0,0,0,0,0,0,0,0,0,
0,326,327,328,0,0,0,0,0,0,0,0,0,0,0,0,0,0,0,0,0,0,0,0,0,0,0,0,0,0,0,0,0,0,0,0,0,0,0,0,0,0,0,0,0,0,0,0,0,0,
0,334,335,336,0,0,0,0,0,0,0,0,0,0,0,0,0,0,0,0,0,0,0,0,0,0,0,0,0,0,0,0,0,0,0,0,0,0,0,0,0,0,0,0,0,0,0,0,0,0,
0,342,343,344,0,0,0,0,0,0,0,0,0,0,0,0,0,0,0,0,0,0,0,0,0,0,0,0,0,0,0,0,0,0,0,0,0,0,0,0,0,0,0,0,0,0,0,0,0,0,
0,0,0,0,0,0,0,0,0,0,0,0,0,0,0,0,0,0,0,0,0,0,0,0,0,0,0,0,0,0,0,0,0,0,0,0,0,0,0,0,0,0,1265,1266,1267,0,0,0,0,0,
0,0,0,0,0,0,0,0,0,0,0,0,0,0,0,0,0,0,0,0,0,0,0,0,0,0,0,0,0,0,0,0,0,0,0,0,0,0,0,1265,1266,1267,1268,1269,1270,1265,1266,1267,0,0,
0,1265,1266,1267,0,0,0,0,0,0,0,0,0,0,0,0,0,0,0,0,0,0,0,0,0,0,0,0,0,0,0,0,0,0,0,0,0,0,0,1268,1269,1270,1271,1272,1273,1268,1269,1270,0,0,
0,1268,1269,1270,0,0,0,0,0,0,0,0,0,0,0,0,0,0,0,0,0,0,0,0,0,0,0,0,0,0,0,0,0,0,0,0,0,0,0,1271,1272,1273,0,0,0,1271,1272,1273,0,0,
0,1271,1272,1273,0,0,0,0,0,0,0,0,0,0,0,0,0,0,0,0,0,0,0,0,0,0,0,0,0,0,0,0,0,0,0,0,0,0,0,0,0,0,0,0,0,0,0,0,0,0,
0,0,0,0,0,0,0,0,0,0,0,0,0,0,0,0,0,0,0,0,0,0,0,0,0,0,0,0,0,0,0,0,0,0,0,0,0,0,0,0,0,0,326,327,328,326,327,328,0,0,
0,0,0,0,0,0,0,0,0,0,0,0,0,0,0,0,0,0,0,0,0,0,0,0,0,0,0,0,0,0,0,0,0,0,0,0,0,0,0,0,0,0,334,335,336,334,335,336,0,0,
326,327,328,0,0,0,0,0,0,0,0,0,0,0,0,0,0,0,0,0,0,0,0,0,0,0,0,0,0,0,0,0,0,0,0,0,1265,1266,1267,0,0,0,342,343,344,342,343,344,0,0,
334,335,336,0,0,0,0,0,0,0,0,0,0,0,0,0,0,0,0,0,0,0,0,0,0,0,0,0,0,0,0,0,0,0,0,0,1268,1269,1270,0,0,0,0,0,0,0,0,0,0,0,
342,343,344,0,0,0,0,0,0,0,0,0,0,0,0,0,0,0,0,0,0,0,0,0,0,0,0,0,0,0,0,0,0,0,0,0,1271,1272,1273,0,0,0,0,0,0,0,0,0,0,0,
0,0,0,0,0,0,0,0,0,0,0,0,0,0,0,0,0,0,0,0,0,0,0,0,0,0,0,0,0,0,0,0,0,0,0,0,0,0,0,0,0,0,0,0,0,0,0,0,0,0,
0,0,0,0,0,0,0,0,0,326,327,328,0,0,0,0,0,326,327,328,0,0,0,0,0,0,0,0,0,0,0,0,0,0,0,0,0,0,0,0,0,0,0,0,0,0,0,0,0,0,
326,327,328,0,0,0,0,0,0,334,335,336,0,0,0,0,0,334,335,336,0,0,0,0,0,0,0,0,0,0,0,0,0,0,0,0,0,0,0,0,0,0,0,0,0,0,0,0,0,0,
334,335,336,0,0,0,0,0,0,342,343,344,0,0,0,0,0,342,343,344,0,0,0,0,0,0,0,0,0,0,0,0,0,0,0,0,0,0,0,0,0,0,0,0,0,0,0,0,0,0,
342,343,344,326,327,328,0,326,327,328,0,1265,1266,1267,0,1265,1266,1267,0,0,0,0,0,0,0,0,0,0,0,0,0,0,0,0,0,0,0,0,0,0,0,0,0,0,0,0,0,0,0,0,
0,0,0,334,335,336,0,334,335,336,0,1268,1269,1270,0,1268,1269,1270,0,0,0,0,0,0,0,0,0,0,0,0,0,0,0,0,0,0,0,0,0,0,0,0,0,0,0,0,0,0,0,0,
0,0,0,342,343,344,0,342,343,344,0,1271,1272,1273,0,1271,1272,1273,0,0,326,327,328,0,0,0,0,0,0,0,326,327,328,0,0,0,0,0,0,0,0,0,0,0,0,0,0,0,0,0,
1265,1266,1267,0,0,0,0,0,0,0,0,0,0,0,0,0,0,0,0,0,334,335,336,0,0,0,0,0,0,0,334,335,336,0,0,0,0,0,0,0,0,0,0,0,0,0,1265,1266,1267,0,
1268,1269,1270,0,0,0,0,0,0,0,0,326,327,328,0,0,0,0,0,0,342,343,344,0,0,0,1265,1266,1267,0,342,343,344,0,0,0,0,0,0,0,0,0,0,0,0,0,1268,1269,1270,0,
1271,1272,1273,326,327,328,326,327,328,0,0,334,335,336,0,0,0,0,0,0,0,0,0,0,0,0,1268,1269,1270,0,0,0,0,0,0,0,0,0,0,0,0,0,0,0,0,0,1271,1272,1273,0,
0,0,0,334,335,336,334,335,336,0,0,342,343,344,0,0,0,0,0,0,0,0,0,0,0,0,1271,1272,1273,0,0,0,0,0,0,0,0,0,0,0,0,0,0,0,0,0,0,0,0,0,
0,0,0,342,343,344,342,343,344,0,0,0,0,0,0,0,0,0,0,0,0,1265,1266,1267,0,0,0,0,0,0,1265,1266,1267,0,0,0,0,0,0,0,0,0,0,0,0,0,0,0,0,0,
326,327,328,0,0,0,0,0,0,0,0,0,0,0,0,0,0,0,0,0,0,1268,1269,1270,0,0,0,0,0,0,1268,1269,1270,0,0,0,0,0,0,0,0,0,0,0,0,0,326,327,328,0,
334,335,336,0,0,0,0,0,0,0,0,0,0,0,0,0,0,0,0,0,0,1271,1272,1273,0,0,0,0,0,0,1271,1272,1273,0,0,0,0,0,0,0,0,0,0,0,0,0,334,335,336,0,
342,343,344,0,0,1265,1266,1267,0,0,1265,1266,1267,0,0,0,0,0,0,0,0,0,0,0,0,0,0,0,0,0,0,0,0,0,0,0,0,0,0,0,0,0,0,0,0,0,342,343,344,0,
0,0,0,0,0,1268,1269,1270,0,0,1268,1269,1270,326,327,328,0,0,0,0,0,0,0,0,0,0,0,0,0,0,0,0,0,0,0,0,0,0,0,0,0,0,0,0,0,0,0,0,0,0,
0,0,1265,1266,1267,1271,1272,1273,0,0,1271,1272,1273,334,335,336,326,327,328,0,0,0,0,0,0,0,0,0,0,0,0,0,326,327,328,326,327,328,0,0,0,0,0,0,0,0,0,0,0,0,
0,0,1268,1269,1270,0,0,0,0,0,0,0,0,342,343,344,334,335,336,0,0,0,0,0,0,0,0,0,0,0,0,0,334,335,336,334,335,336,0,0,0,0,326,327,328,326,327,328,0,0,
0,0,1271,1272,1273,0,0,0,0,0,0,1265,1266,1267,0,0,342,343,344,0,1265,1266,1267,0,0,0,0,0,0,0,0,0,342,343,344,342,343,344,0,0,0,0,334,335,336,334,335,336,0,0,
0,0,0,0,0,0,1265,1266,1267,0,0,1268,1269,1270,0,0,0,0,0,0,1268,1269,1270,0,0,0,0,0,0,0,0,0,0,0,0,0,0,0,0,0,0,0,342,343,344,342,343,344,0,0,
1265,1266,1267,0,0,0,1268,1269,1270,0,0,1271,1272,1273,0,0,0,326,327,328,1271,1272,1273,0,0,326,327,328,0,0,0,0,0,0,0,0,0,0,0,326,327,328,0,0,0,0,0,0,0,0,
1268,1269,1270,0,0,0,1271,1272,1273,0,0,0,0,0,0,0,0,334,335,336,0,0,0,0,0,334,335,336,0,0,0,0,0,0,0,0,0,0,0,334,335,336,0,0,0,0,0,0,0,0,
1271,1272,1273,0,0,0,0,0,0,0,0,0,0,0,0,0,0,342,343,344,0,0,0,0,0,342,343,344,0,0,0,0,0,0,0,0,0,0,0,342,343,344,0,0,0,0,0,0,0,0,
0,0,0,0,0,0,0,0,0,0,0,0,0,0,0,0,0,0,0,0,0,0,0,0,0,0,0,0,0,0,0,0,0,0,0,0,0,0,0,0,0,0,0,0,0,0,0,0,0,0
</data>
 </layer>
 <layer id="16" name="roof" width="50" height="50">
  <data encoding="csv">
0,0,0,0,0,0,0,0,0,0,0,0,0,0,0,0,0,0,0,0,0,0,0,0,0,0,0,0,0,0,0,0,0,0,0,0,0,0,0,0,0,0,0,0,0,0,0,0,0,0,
0,0,0,0,0,0,0,0,0,0,0,0,0,0,0,0,0,0,0,0,0,0,0,0,0,0,0,0,0,0,0,0,0,0,0,0,0,0,0,0,0,0,0,0,0,0,0,0,0,0,
0,0,0,0,0,0,0,0,0,0,0,0,0,0,0,0,0,0,0,0,0,0,0,0,0,0,0,0,0,0,0,0,0,0,0,0,0,0,0,0,0,0,0,0,0,0,0,0,0,0,
0,0,0,0,0,0,0,0,0,0,0,0,0,0,0,0,0,0,0,0,0,0,0,0,0,0,0,0,0,0,0,0,0,0,0,0,0,0,0,0,0,0,0,0,0,0,0,0,0,0,
0,0,0,0,0,0,0,0,0,0,0,0,0,0,0,0,0,0,0,0,0,0,0,0,0,0,0,0,0,0,0,0,0,0,0,0,0,0,0,0,0,0,0,0,0,0,0,0,0,0,
0,0,0,0,0,0,0,0,0,0,0,0,0,0,0,0,0,0,0,0,0,0,0,0,0,0,0,0,0,0,0,0,0,0,0,0,0,0,0,0,0,0,0,0,0,0,0,0,0,0,
0,0,0,0,0,0,0,0,0,0,0,0,0,0,0,0,0,0,0,0,0,0,0,0,0,0,0,0,0,0,0,0,0,0,0,0,0,0,0,0,0,0,0,0,0,0,0,0,0,0,
0,0,0,0,0,0,0,0,0,0,0,0,0,0,0,0,0,0,0,0,0,0,0,0,0,0,0,0,0,0,0,0,0,0,0,0,0,0,0,0,0,0,0,0,0,0,0,0,0,0,
0,0,0,0,0,0,0,0,0,0,0,0,0,0,0,0,0,0,0,0,0,0,0,0,0,0,0,0,0,0,0,0,0,0,0,0,0,0,0,0,0,0,0,0,0,0,0,0,0,0,
0,0,0,0,0,0,0,0,0,0,0,0,0,0,0,0,0,0,0,0,0,0,0,0,0,0,0,0,0,0,0,0,0,0,0,0,0,0,0,0,0,0,0,0,0,0,0,0,0,0,
0,0,0,0,0,0,0,0,0,0,0,0,0,0,0,0,0,0,0,0,0,0,0,0,0,0,0,0,0,0,0,0,0,0,0,0,0,0,0,0,0,0,0,0,0,0,0,0,0,0,
0,0,0,0,0,0,0,0,0,0,0,0,0,0,0,0,0,0,0,0,0,0,0,0,0,0,0,0,0,0,0,0,0,0,0,0,0,0,0,0,0,0,0,0,0,0,0,0,0,0,
0,0,0,0,0,0,0,0,0,0,0,0,0,0,0,0,0,0,0,0,0,0,0,0,0,0,0,0,0,0,0,0,0,0,0,0,0,0,0,0,0,0,0,0,0,0,0,0,0,0,
0,0,0,0,0,0,0,0,0,0,0,0,0,0,0,0,0,0,0,0,0,0,0,0,0,0,0,0,0,0,0,0,0,0,0,0,0,0,0,0,0,0,0,0,0,0,0,0,0,0,
0,0,0,0,0,0,0,0,0,0,0,0,0,0,0,0,0,0,0,0,0,0,0,0,0,0,0,0,0,0,0,0,0,0,0,0,0,0,0,0,0,0,0,0,0,0,0,0,0,0,
0,0,0,0,0,0,0,0,0,0,0,0,0,0,0,0,0,0,0,0,0,0,0,0,0,0,0,0,0,0,0,0,0,0,0,0,0,0,0,0,0,0,0,0,0,0,0,0,0,0,
0,0,0,0,0,0,0,0,0,0,0,0,0,0,0,0,0,0,0,0,0,0,0,0,0,0,0,0,0,0,0,0,0,0,0,0,0,0,0,0,0,0,0,0,0,0,0,0,0,0,
0,0,0,0,0,0,0,0,0,0,0,0,0,0,0,0,0,0,0,0,0,0,0,0,0,0,0,0,0,0,0,0,0,0,0,0,0,0,0,0,0,0,0,0,0,0,0,0,0,0,
0,0,0,0,0,0,0,0,0,0,0,0,0,0,0,0,0,0,0,0,0,0,0,0,0,0,0,0,0,0,0,0,0,0,0,0,0,0,0,0,0,0,0,0,0,0,0,0,0,0,
0,0,0,0,0,0,0,0,0,0,0,0,0,0,0,0,0,0,0,0,0,0,0,0,0,0,0,0,0,0,0,0,0,0,0,0,0,0,0,0,0,0,0,0,0,0,0,0,0,0,
0,0,0,0,0,0,0,0,0,0,0,0,0,0,0,0,0,0,0,0,0,0,0,0,0,0,0,0,0,0,0,0,0,0,0,0,0,0,0,0,0,0,0,0,0,0,0,0,0,0,
0,0,0,0,0,0,0,0,0,0,0,0,0,0,0,0,0,0,0,0,0,0,0,0,0,0,0,0,0,0,0,0,0,0,0,0,0,0,0,0,0,0,0,0,0,0,0,0,0,0,
0,0,0,0,0,0,0,0,0,0,0,0,0,0,0,0,0,0,0,0,0,0,0,0,0,0,0,0,0,0,0,0,0,0,0,0,0,0,0,0,0,0,0,0,0,0,0,0,0,0,
0,0,0,0,0,0,0,0,0,0,0,0,0,0,0,0,0,0,0,0,0,0,0,0,0,0,0,0,0,0,0,0,0,0,0,0,0,0,0,0,0,0,0,0,0,0,0,0,0,0,
0,0,0,0,0,0,0,0,0,0,0,0,0,0,0,0,0,0,0,0,0,0,0,0,0,0,0,0,0,0,0,0,0,0,0,0,0,0,0,0,0,0,0,0,0,0,0,0,0,0,
0,0,0,0,0,0,0,0,0,0,0,0,0,0,0,0,0,0,0,0,0,0,0,0,0,0,0,0,0,0,0,0,0,0,0,0,0,0,0,0,0,0,0,0,0,0,0,0,0,0,
0,0,0,0,0,0,0,0,0,0,0,0,0,0,0,0,0,0,0,0,0,0,0,0,0,0,0,0,0,0,0,0,0,0,0,0,0,0,0,0,0,0,0,0,0,0,0,0,0,0,
0,0,0,0,0,0,0,0,0,0,0,0,0,0,0,0,0,0,0,0,0,0,0,0,0,0,0,0,0,0,0,0,0,0,0,0,0,0,0,0,0,0,0,0,0,0,0,0,0,0,
0,0,0,0,0,0,0,0,0,0,0,0,0,0,0,0,0,0,0,0,0,0,0,0,0,0,0,0,0,0,0,0,0,0,0,0,0,0,0,0,0,0,0,0,0,0,0,0,0,0,
0,0,0,0,0,0,0,0,0,0,0,0,0,0,0,0,0,0,0,0,0,0,0,0,0,0,0,0,0,0,0,0,0,0,0,0,0,0,0,0,0,0,0,0,0,0,0,0,0,0,
0,0,0,0,0,0,0,0,0,0,0,0,0,0,0,0,0,0,0,0,0,0,0,0,0,0,0,0,0,0,0,0,0,0,0,0,0,0,0,0,0,0,0,0,0,0,0,0,0,0,
0,0,0,0,0,0,0,0,0,0,0,0,0,0,0,0,0,0,0,0,0,0,0,0,0,0,0,0,0,0,0,0,0,0,0,0,0,0,0,0,0,0,0,0,0,0,0,0,0,0,
0,0,0,0,0,0,0,0,0,0,0,0,0,0,0,0,0,0,0,0,0,0,0,0,0,0,0,0,0,0,0,0,0,0,0,0,0,0,0,0,0,0,0,0,0,0,0,0,0,0,
0,0,0,0,0,0,0,0,0,0,0,0,0,0,0,0,0,0,0,0,0,0,0,0,0,0,0,0,0,0,0,0,0,0,0,0,0,0,0,0,0,0,0,0,0,0,0,0,0,0,
0,0,0,0,0,0,0,0,0,0,0,0,0,0,0,0,0,0,0,0,0,0,0,0,0,0,0,0,0,0,0,0,0,0,0,0,0,0,0,0,0,0,0,0,0,0,0,0,0,0,
0,0,0,0,0,0,0,0,0,0,0,0,0,0,0,0,0,0,0,0,0,0,0,0,0,0,0,0,0,0,0,0,0,0,0,0,0,0,0,0,0,0,0,0,0,0,0,0,0,0,
0,0,0,0,0,0,0,0,0,0,0,0,0,0,0,0,0,0,0,0,0,0,0,0,0,0,0,0,0,0,0,0,0,0,0,0,0,0,0,0,0,0,0,0,0,0,0,0,0,0,
0,0,0,0,0,0,0,0,0,0,0,0,0,0,0,0,0,0,0,0,0,0,0,0,0,0,0,0,0,0,0,0,0,0,0,0,0,0,0,0,0,0,0,0,0,0,0,0,0,0,
0,0,0,0,0,0,0,0,0,0,0,0,0,0,0,0,0,0,0,0,0,0,0,0,0,0,0,0,0,0,0,0,0,0,0,0,0,0,0,0,0,0,0,0,0,0,0,0,0,0,
0,0,0,0,0,0,0,0,0,0,0,0,0,0,0,0,0,0,0,0,0,0,0,0,0,0,0,0,0,0,0,0,0,0,0,0,0,0,0,0,0,0,0,0,0,0,0,0,0,0,
0,0,0,0,0,0,0,0,0,0,0,0,0,0,0,0,0,0,0,0,0,0,0,0,0,0,0,0,0,0,0,0,0,0,0,0,0,0,0,0,0,0,0,0,0,0,0,0,0,0,
0,0,0,0,0,0,0,0,0,0,0,0,0,0,0,0,0,0,0,0,0,0,0,0,0,0,0,0,0,0,0,0,0,0,0,0,0,0,0,0,0,0,0,0,0,0,0,0,0,0,
0,0,0,0,0,0,0,0,0,0,0,0,0,0,0,0,0,0,0,0,0,0,0,0,0,0,0,0,0,0,0,0,0,0,0,0,0,0,0,0,0,0,0,0,0,0,0,0,0,0,
0,0,0,0,0,0,0,0,0,0,0,0,0,0,0,0,0,0,0,0,0,0,0,0,0,0,0,0,0,0,0,0,0,0,0,0,0,0,0,0,0,0,0,0,0,0,0,0,0,0,
0,0,0,0,0,0,0,0,0,0,0,0,0,0,0,0,0,0,0,0,0,0,0,0,0,0,0,0,0,0,0,0,0,0,0,0,0,0,0,0,0,0,0,0,0,0,0,0,0,0,
0,0,0,0,0,0,0,0,0,0,0,0,0,0,0,0,0,0,0,0,0,0,0,0,0,0,0,0,0,0,0,0,0,0,0,0,0,0,0,0,0,0,0,0,0,0,0,0,0,0,
0,0,0,0,0,0,0,0,0,0,0,0,0,0,0,0,0,0,0,0,0,0,0,0,0,0,0,0,0,0,0,0,0,0,0,0,0,0,0,0,0,0,0,0,0,0,0,0,0,0,
0,0,0,0,0,0,0,0,0,0,0,0,0,0,0,0,0,0,0,0,0,0,0,0,0,0,0,0,0,0,0,0,0,0,0,0,0,0,0,0,0,0,0,0,0,0,0,0,0,0,
0,0,0,0,0,0,0,0,0,0,0,0,0,0,0,0,0,0,0,0,0,0,0,0,0,0,0,0,0,0,0,0,0,0,0,0,0,0,0,0,0,0,0,0,0,0,0,0,0,0,
0,0,0,0,0,0,0,0,0,0,0,0,0,0,0,0,0,0,0,0,0,0,0,0,0,0,0,0,0,0,0,0,0,0,0,0,0,0,0,0,0,0,0,0,0,0,0,0,0,0
</data>
 </layer>
 <objectgroup id="2" name="characters">
  <!-- 몬스터 15: 말캉이 6(서쪽 초원 Lv1~2, q001) / 꿀꿀이 5(북쪽 농장 Lv3~5, q003) / 버섯돌이 2(남쪽 숲길 Lv3~4) / 바위돌이 2(남동 광산 Lv5, 북동 동굴 앞 Lv6) -->
  <!-- 야영지 상인(camp_merchant, 물약 상점·q015), 숨은 상자(hidden_cache, q015), 갱도 낙석(gated_boulder, q009 완료 시 사라짐) -->
  <object id="5" name="꿀꿀이-1" type="character" x="640" y="256" width="32" height="32">
   <properties>
    <property name="blocksMovement" type="bool" value="true"/>
    <property name="monster.level" type="int" value="3"/>
    <property name="type" value="monster_pig"/>
   </properties>
  </object>
  <object id="6" name="말캉이-1" type="character" x="224" y="160" width="32" height="32">
   <properties>
    <property name="blocksMovement" type="bool" value="true"/>
    <property name="monster.level" type="int" value="1"/>
    <property name="type" value="monster_slime"/>
   </properties>
  </object>
  <object id="8" name="꿀꿀이-2" type="character" x="704" y="352" width="32" height="32">
   <properties>
    <property name="blocksMovement" type="bool" value="true"/>
    <property name="monster.level" type="int" value="3"/>
    <property name="type" value="monster_pig"/>
   </properties>
  </object>
  <object id="9" name="말캉이-2" type="character" x="448" y="224" width="32" height="32">
   <properties>
    <property name="blocksMovement" type="bool" value="true"/>
    <property name="monster.level" type="int" value="1"/>
    <property name="type" value="monster_slime"/>
   </properties>
  </object>
  <object id="11" name="cave_entrance_sign" type="character" x="1440" y="384" width="32" height="32">
   <properties>
    <property name="type" value="sign_inn"/>
    <property name="blocksMovement" type="bool" value="false"/>
    <property name="displayText" value="동굴입구"/>
   </properties>
  </object>
  <object id="12" name="말캉이-3" type="character" x="192" y="480" width="32" height="32">
   <properties>
    <property name="blocksMovement" type="bool" value="true"/>
    <property name="monster.level" type="int" value="1"/>
    <property name="type" value="monster_slime"/>
   </properties>
  </object>
  <object id="13" name="말캉이-4" type="character" x="320" y="640" width="32" height="32">
   <properties>
    <property name="blocksMovement" type="bool" value="true"/>
    <property name="monster.level" type="int" value="2"/>
    <property name="type" value="monster_slime"/>
   </properties>
  </object>
  <object id="14" name="말캉이-5" type="character" x="160" y="800" width="32" height="32">
   <properties>
    <property name="blocksMovement" type="bool" value="true"/>
    <property name="monster.level" type="int" value="2"/>
    <property name="type" value="monster_slime"/>
   </properties>
  </object>
  <object id="15" name="말캉이-6" type="character" x="416" y="864" width="32" height="32">
   <properties>
    <property name="blocksMovement" type="bool" value="true"/>
    <property name="monster.level" type="int" value="2"/>
    <property name="type" value="monster_slime"/>
   </properties>
  </object>
  <object id="16" name="꿀꿀이-3" type="character" x="928" y="256" width="32" height="32">
   <properties>
    <property name="blocksMovement" type="bool" value="true"/>
    <property name="monster.level" type="int" value="4"/>
    <property name="type" value="monster_pig"/>
   </properties>
  </object>
  <object id="17" name="꿀꿀이-4" type="character" x="992" y="352" width="32" height="32">
   <properties>
    <property name="blocksMovement" type="bool" value="true"/>
    <property name="monster.level" type="int" value="4"/>
    <property name="type" value="monster_pig"/>
   </properties>
  </object>
  <object id="18" name="꿀꿀이-5" type="character" x="1184" y="128" width="32" height="32">
   <properties>
    <property name="blocksMovement" type="bool" value="true"/>
    <property name="monster.level" type="int" value="5"/>
    <property name="type" value="monster_pig"/>
   </properties>
  </object>
  <object id="19" name="버섯돌이-1" type="character" x="544" y="1184" width="32" height="32">
   <properties>
    <property name="blocksMovement" type="bool" value="true"/>
    <property name="monster.level" type="int" value="3"/>
    <property name="type" value="monster_mushroom"/>
   </properties>
  </object>
  <object id="20" name="버섯돌이-2" type="character" x="864" y="1408" width="32" height="32">
   <properties>
    <property name="blocksMovement" type="bool" value="true"/>
    <property name="monster.level" type="int" value="4"/>
    <property name="type" value="monster_mushroom"/>
   </properties>
  </object>
  <object id="21" name="바위돌이-1" type="character" x="1216" y="1248" width="32" height="32">
   <properties>
    <property name="blocksMovement" type="bool" value="true"/>
    <property name="monster.level" type="int" value="5"/>
    <property name="type" value="monster_rock"/>
   </properties>
  </object>
  <object id="22" name="바위돌이-2" type="character" x="1248" y="416" width="32" height="32">
   <properties>
    <property name="blocksMovement" type="bool" value="true"/>
    <property name="monster.level" type="int" value="6"/>
    <property name="type" value="monster_rock"/>
   </properties>
  </object>
  <object id="23" name="camp_sign" type="character" x="544" y="768" width="32" height="32">
   <properties>
    <property name="type" value="sign_inn"/>
    <property name="blocksMovement" type="bool" value="false"/>
    <property name="displayText" value="사냥꾼 야영지"/>
   </properties>
  </object>
  <object id="24" name="farm_sign" type="character" x="832" y="512" width="32" height="32">
   <properties>
    <property name="type" value="sign_inn"/>
    <property name="blocksMovement" type="bool" value="false"/>
    <property name="displayText" value="버려진 돼지 농장"/>
   </properties>
  </object>
  <object id="25" name="mine_sign" type="character" x="1088" y="1184" width="32" height="32">
   <properties>
    <property name="type" value="sign_inn"/>
    <property name="blocksMovement" type="bool" value="false"/>
    <property name="displayText" value="무너진 광산"/>
   </properties>
  </object>
  <object id="26" name="camp_merchant" type="character" x="656" y="736" width="32" height="32">
   <properties>
    <property name="controller.dialogueLines" type="list">
     <item value="사냥터에서 물약 떨어지면 낭패지."/>
     <item value="마을까지 갈 것 없이 여기서 사 가."/>
    </property>
    <property name="controller.scriptId" value="vn-dialogue"/>
    <property name="blocksMovement" type="bool" value="true"/>
    <property name="displayText" value="떠돌이 상인 바렌"/>
    <property name="type" value="character_ranger_green"/>
   </properties>
  </object>
  <object id="27" name="hidden_cache" type="character" x="272" y="1312" width="32" height="32">
   <properties>
    <property name="controller.dialogueLines" type="list">
     <item value="낡은 보급 상자다. 녹슨 걸쇠가 달려 있다."/>
    </property>
    <property name="controller.scriptId" value="vn-dialogue"/>
    <property name="blocksMovement" type="bool" value="true"/>
    <property name="type" value="cave_prop_crate_bones"/>
   </properties>
  </object>
  <object id="28" name="gated_boulder" type="character" x="1296" y="1152" width="32" height="32">
   <properties>
    <property name="controller.dialogueLines" type="list">
     <item value="무너진 바위가 갱도를 막고 있다."/>
     <item value="수정 광산 쪽 일이 정리되면 길이 열릴지도 모른다."/>
    </property>
    <property name="controller.scriptId" value="vn-dialogue"/>
    <property name="blocksMovement" type="bool" value="true"/>
    <property name="quest.hiddenWhenCompleted" value="q009-mine-ore-rush"/>
    <property name="type" value="cave_prop_boulder"/>
   </properties>
  </object>
  <object id="29" name="camp_hunter_bram" type="character" x="720" y="768" width="32" height="32">
   <properties>
    <property name="controller.dialogueLines" type="list">
     <item value="꿀꿀이 떼한테 한꺼번에 덤비지 마. 하나씩 끌어내서 잡는 거야."/>
     <item value="바위돌이는 느려도 단단해. 칼이 안 들면 대장간부터 들르라고."/>
    </property>
    <property name="controller.scriptId" value="vn-dialogue"/>
    <property name="blocksMovement" type="bool" value="true"/>
    <property name="displayText" value="사냥꾼 브람"/>
    <property name="type" value="character_adventurer_brown_hair"/>
   </properties>
  </object>
  <object id="30" name="camp_hunter_lise" type="character" x="912" y="768" width="32" height="32">
   <properties>
    <property name="controller.dialogueLines" type="list">
     <item value="말캉이는 혼자 다닐 땐 순해. 떼로 몰려오면 얘기가 다르지만."/>
     <item value="남쪽 숲길 버섯돌이 근처에선 오래 서 있지 마. 포자가 독하거든."/>
    </property>
    <property name="controller.scriptId" value="vn-dialogue"/>
    <property name="blocksMovement" type="bool" value="true"/>
    <property name="displayText" value="사냥꾼 리세"/>
    <property name="type" value="character_villager_flower_dress"/>
   </properties>
  </object>
  <object id="31" name="return_stone_sign" type="character" x="1168" y="896" width="32" height="32">
   <properties>
    <property name="type" value="sign_inn"/>
    <property name="blocksMovement" type="bool" value="false"/>
    <property name="displayText" value="귀환석 · 마을 광장"/>
   </properties>
  </object>
 </objectgroup>
 <objectgroup id="3" name="portals">
  <!-- 이름·위치·목적지 고정: town.tmx/cave.tmx 가 도착 칸 (2, 10)/(43, 10) 을 들고 있다. 귀환 마법진(return_stone)은 마을 광장행, 광산 지름길(mine_shortcut)은 q009 완료 후에만 있다. -->
  <object id="4" name="return_gate" type="portal" x="0" y="320" width="32" height="64">
   <properties>
    <property name="appearanceType" value="stairs_stone_step_base_00"/>
    <property name="targetFacing" value="right"/>
    <property name="targetSceneId" value="town"/>
    <property name="targetSpawnTileX" type="int" value="46"/>
    <property name="targetSpawnTileY" type="int" value="17"/>
   </properties>
  </object>
  <object id="10" name="cave_entrance" type="portal" x="1568" y="320" width="32" height="64">
   <properties>
    <property name="appearanceType" value="cave_entrance"/>
    <property name="targetFacing" value="left"/>
    <property name="targetSceneId" value="cave"/>
    <property name="targetSpawnTileX" type="int" value="2"/>
    <property name="targetSpawnTileY" type="int" value="10"/>
   </properties>
  </object>
  <object id="101" name="return_stone" type="portal" x="1056" y="896" width="32" height="32">
   <properties>
    <property name="appearanceType" value="cave_prop_pentagram"/>
    <property name="targetFacing" value="down"/>
    <property name="targetSceneId" value="town"/>
    <property name="targetSpawnTileX" type="int" value="27"/>
    <property name="targetSpawnTileY" type="int" value="19"/>
   </properties>
  </object>
  <object id="102" name="mine_shortcut" type="portal" x="1280" y="1120" width="32" height="32">
   <properties>
    <property name="appearanceType" value="stairs_stone_step_base_00"/>
    <property name="quest.requiresCompleted" value="q009-mine-ore-rush"/>
    <property name="targetFacing" value="up"/>
    <property name="targetSceneId" value="crystal-mine"/>
    <property name="targetSpawnTileX" type="int" value="29"/>
    <property name="targetSpawnTileY" type="int" value="35"/>
   </properties>
  </object>
 </objectgroup>
 <objectgroup id="4" name="decorations">
  <object id="32" name="hunter_camp" type="reserved" x="736" y="672" width="160" height="128">
   <properties>
    <property name="displayText" value="사냥꾼 야영지 (모닥불)"/>
   </properties>
  </object>
 </objectgroup>
</map>
