<?xml version="1.0" encoding="UTF-8"?>
<map version="1.10" tiledversion="1.12.1" orientation="orthogonal" renderorder="right-down" width="40" height="40" tilewidth="32" tileheight="32" infinite="0" nextlayerid="17" nextobjectid="40">
<!-- scripts/generate-ice-cave.py 가 생성한다. 손으로 고치지 말고 스크립트를 고친 뒤 다시 돌릴 것. -->
 <tileset firstgid="1" source="../tilesets/town-32.tsx"/>
 <tileset firstgid="1801" source="../tilesets/biome-snow.tsx"/>
 <layer id="10" name="ground" width="40" height="40">
  <data encoding="csv">
2273,2270,2270,2272,2270,2270,2270,2270,2270,2270,2336,2332,2332,2332,2332,2332,2332,2332,2332,2332,2332,2332,2332,2332,2332,2332,2332,2332,2332,2332,2340,2273,2270,2270,2273,2272,2270,2270,2272,2270,
2270,2270,2273,2270,2270,2273,2270,2270,2272,2270,2334,2268,2269,2268,2266,2266,2268,2266,2266,2266,2266,2266,2266,2266,2266,2268,2266,2266,2269,2266,2339,2270,2270,2273,2273,2270,2273,2270,2270,2270,
2270,2270,2270,2270,2270,2270,2270,2270,2270,2270,2334,2266,2322,2318,2318,2318,2318,2318,2318,2318,2318,2318,2318,2318,2318,2318,2318,2318,2326,2266,2339,2270,2270,2272,2270,2270,2270,2272,2270,2272,
2273,2273,2270,2270,2270,2270,2270,2270,2270,2270,2334,2266,2320,2251,2251,2251,2254,2251,2254,2251,2253,2254,2251,2251,2251,2251,2253,2251,2325,2269,2339,2270,2270,2270,2270,2270,2270,2272,2270,2272,
2270,2270,2273,2270,2272,2272,2270,2272,2273,2270,2334,2266,2320,2251,2251,2251,2251,2254,2254,2251,2251,2254,2251,2251,2251,2251,2251,2251,2325,2266,2339,2270,2270,2270,2270,2270,2273,2270,2270,2270,
2270,2270,2270,2270,2270,2270,2270,2270,2270,2270,2334,2266,2320,2251,2253,2251,2251,2251,2251,2251,2251,2251,2251,2251,2251,2251,2251,2251,2325,2268,2339,2270,2272,2270,2270,2272,2270,2270,2270,2270,
2273,2270,2270,2270,2270,2270,2270,2270,2270,2272,2334,2266,2320,2254,2253,2251,2251,2251,2254,2251,2253,2253,2253,2251,2251,2251,2251,2251,2325,2266,2339,2270,2270,2270,2270,2270,2272,2270,2270,2270,
2272,2270,2270,2272,2270,2270,2270,2270,2273,2270,2334,2266,2328,2327,2327,2327,2327,2319,2251,2251,2251,2251,2251,2323,2327,2327,2327,2327,2329,2266,2339,2270,2270,2270,2270,2270,2272,2270,2272,2270,
2270,2273,2272,2270,2270,2270,2270,2270,2270,2270,2334,2266,2266,2266,2269,2268,2266,2328,2319,2251,2251,2253,2323,2329,2269,2266,2266,2266,2266,2266,2339,2270,2270,2270,2270,2270,2273,2272,2270,2270,
2270,2270,2270,2270,2270,2270,2270,2270,2272,2270,2334,2266,2266,2266,2266,2268,2266,2266,2320,2251,2251,2251,2325,2266,2266,2266,2266,2266,2266,2268,2331,2340,2270,2270,2270,2272,2270,2270,2270,2272,
2270,2270,2270,2270,2270,2270,2270,2270,2270,2270,2342,2333,2266,2266,2266,2268,2266,2269,2320,2251,2253,2251,2325,2266,2266,2266,2266,2266,2266,2268,2266,2331,2332,2332,2332,2332,2332,2332,2332,2340,
2270,2270,2270,2270,2270,2270,2270,2270,2270,2270,2336,2330,2266,2266,2269,2266,2266,2322,2316,2251,2251,2251,2317,2326,2268,2266,2266,2266,2268,2266,2266,2268,2268,2266,2266,2266,2268,2268,2266,2339,
2336,2332,2332,2332,2332,2332,2332,2332,2332,2332,2330,2266,2266,2322,2318,2318,2318,2316,2251,2251,2251,2251,2251,2317,2318,2318,2318,2318,2318,2318,2318,2318,2318,2318,2318,2318,2318,2318,2326,2339,
2334,2266,2266,2268,2266,2266,2266,2266,2266,2266,2266,2266,2269,2320,2251,2280,2276,2276,2284,2251,2251,2251,2280,2276,2276,2284,2253,2251,2251,2253,2251,2251,2254,2251,2251,2254,2251,2251,2325,2339,
2334,2266,2322,2318,2318,2318,2318,2318,2318,2318,2318,2326,2268,2320,2280,2274,2295,2291,2275,2284,2251,2280,2274,2295,2291,2275,2284,2253,2251,2251,2251,2251,2251,2254,2254,2251,2251,2251,2325,2339,
2334,2269,2320,2254,2251,2251,2251,2254,2254,2251,2251,2325,2266,2320,2278,2295,2301,2300,2291,2283,2251,2278,2295,2301,2300,2291,2283,2251,2251,2251,2251,2253,2251,2251,2251,2251,2251,2251,2325,2339,
2334,2266,2320,2251,2251,2251,2251,2251,2251,2254,2251,2325,2266,2320,2278,2297,2261,2029,2292,2283,2251,2278,2297,2029,2261,2292,2283,2251,2251,2251,2251,2251,2251,2251,2251,2251,2251,2251,2325,2339,
2334,2266,2320,2251,2254,2251,2251,2251,2253,2251,2251,2317,2318,2316,2278,2297,2029,2029,2292,2283,2251,2278,2297,2260,2029,2292,2283,2251,2251,2251,2251,2251,2251,2251,2251,2251,2254,2251,2325,2339,
2334,2266,2320,2251,2254,2251,2251,2254,2254,2251,2251,2251,2251,2254,2278,2297,2029,2029,2292,2283,2251,2278,2297,2260,2029,2292,2283,2251,2254,2251,2251,2251,2251,2251,2251,2253,2251,2251,2325,2339,
2334,2266,2320,2253,2251,2251,2251,2251,2251,2251,2251,2251,2251,2251,2278,2297,2260,2029,2292,2283,2251,2278,2297,2029,2029,2292,2283,2251,2251,2251,2251,2251,2251,2251,2251,2251,2251,2251,2325,2339,
2334,2269,2320,2254,2253,2251,2251,2251,2253,2251,2251,2251,2251,2251,2278,2297,2029,2029,2292,2283,2251,2278,2297,2029,2261,2292,2283,2254,2251,2251,2251,2253,2251,2251,2251,2251,2251,2251,2325,2339,
2334,2266,2320,2251,2251,2251,2251,2251,2254,2251,2251,2251,2254,2251,2278,2297,2029,2029,2292,2283,2251,2278,2297,2029,2029,2292,2283,2254,2254,2254,2251,2251,2251,2251,2251,2251,2251,2254,2325,2339,
2334,2268,2320,2251,2251,2251,2253,2251,2251,2251,2251,2323,2327,2319,2278,2297,2029,2260,2292,2283,2251,2278,2297,2029,2029,2292,2283,2251,2251,2251,2251,2251,2251,2251,2251,2251,2251,2251,2325,2339,
2334,2266,2320,2253,2251,2253,2251,2254,2253,2251,2251,2325,2266,2320,2278,2289,2298,2294,2288,2283,2251,2278,2289,2298,2294,2288,2283,2251,2251,2251,2251,2251,2251,2251,2251,2251,2251,2251,2325,2339,
2334,2266,2320,2254,2253,2251,2251,2251,2254,2251,2251,2325,2266,2320,2286,2277,2289,2288,2281,2287,2251,2286,2277,2289,2288,2281,2287,2251,2323,2327,2327,2327,2327,2327,2327,2327,2327,2327,2329,2339,
2334,2266,2320,2251,2251,2251,2251,2254,2251,2251,2251,2325,2266,2320,2251,2286,2285,2285,2287,2251,2251,2254,2286,2285,2285,2287,2251,2323,2329,2266,2266,2268,2266,2266,2266,2266,2266,2266,2266,2339,
2334,2266,2320,2251,2251,2254,2254,2251,2251,2251,2251,2325,2268,2328,2327,2327,2327,2319,2251,2251,2251,2251,2251,2323,2327,2327,2327,2329,2266,2266,2337,2341,2341,2341,2341,2341,2341,2341,2341,2343,
2334,2266,2320,2251,2251,2251,2251,2251,2251,2253,2254,2325,2266,2266,2266,2266,2266,2328,2319,2251,2251,2254,2323,2329,2266,2266,2266,2266,2266,2337,2343,2272,2273,2272,2270,2270,2270,2270,2270,2272,
2334,2266,2320,2251,2251,2251,2253,2251,2251,2253,2254,2325,2266,2266,2269,2266,2266,2269,2320,2253,2251,2251,2325,2266,2266,2266,2266,2266,2337,2343,2270,2270,2272,2270,2270,2270,2272,2270,2272,2270,
2334,2266,2328,2327,2327,2327,2327,2327,2327,2327,2327,2329,2266,2269,2266,2266,2266,2266,2320,2251,2251,2253,2325,2266,2269,2266,2266,2337,2343,2270,2273,2270,2270,2270,2270,2273,2270,2270,2270,2270,
2334,2268,2266,2268,2266,2266,2266,2269,2266,2269,2266,2266,2266,2266,2266,2266,2269,2322,2316,2251,2254,2251,2317,2326,2266,2266,2268,2339,2270,2270,2270,2270,2270,2273,2270,2272,2270,2272,2270,2270,
2342,2341,2341,2341,2341,2341,2341,2341,2341,2341,2341,2341,2333,2266,2266,2322,2318,2316,2251,2251,2251,2251,2253,2317,2318,2326,2266,2339,2270,2270,2270,2270,2272,2270,2272,2270,2270,2273,2273,2272,
2270,2272,2270,2270,2270,2270,2270,2270,2270,2270,2270,2270,2342,2333,2269,2320,2254,2251,2251,2251,2251,2251,2251,2251,2251,2325,2266,2339,2270,2270,2270,2270,2273,2270,2270,2272,2270,2270,2270,2270,
2270,2272,2270,2273,2273,2270,2272,2270,2272,2270,2270,2270,2270,2334,2266,2320,2251,2251,2251,2251,2251,2251,2251,2253,2251,2325,2266,2339,2270,2270,2270,2270,2270,2270,2270,2270,2270,2270,2270,2270,
2270,2270,2270,2273,2270,2270,2270,2270,2270,2270,2272,2270,2270,2334,2266,2320,2251,2253,2253,2251,2251,2254,2251,2251,2251,2325,2266,2339,2270,2270,2270,2270,2270,2270,2272,2270,2270,2272,2270,2272,
2270,2270,2270,2270,2270,2270,2270,2270,2270,2270,2270,2270,2273,2334,2266,2320,2253,2251,2251,2251,2251,2251,2251,2251,2251,2325,2266,2339,2270,2270,2270,2270,2273,2270,2272,2270,2270,2270,2270,2270,
2270,2270,2270,2270,2272,2273,2270,2270,2270,2270,2272,2270,2270,2334,2266,2320,2251,2251,2253,2251,2254,2253,2251,2251,2251,2325,2266,2339,2270,2270,2270,2270,2270,2270,2270,2273,2270,2270,2270,2272,
2270,2270,2270,2270,2272,2270,2270,2270,2270,2270,2270,2270,2270,2334,2266,2328,2327,2327,2327,2319,2253,2251,2323,2327,2327,2329,2266,2339,2270,2270,2270,2270,2270,2270,2270,2270,2270,2270,2270,2270,
2270,2270,2270,2270,2273,2270,2270,2270,2270,2272,2270,2270,2270,2334,2266,2268,2266,2266,2269,2328,2327,2327,2329,2266,2268,2268,2266,2339,2270,2273,2270,2270,2270,2270,2270,2270,2270,2270,2270,2270,
2270,2270,2270,2270,2273,2270,2272,2272,2270,2270,2270,2270,2270,2342,2341,2341,2341,2341,2341,2341,2341,2341,2341,2341,2341,2341,2341,2343,2270,2270,2270,2272,2270,2270,2270,2270,2270,2270,2270,2270
</data>
 </layer>
 <layer id="11" name="shadow_lower" width="40" height="40">
  <data encoding="csv">
0,0,0,0,0,0,0,0,0,0,0,0,0,0,0,0,0,0,0,0,0,0,0,0,0,0,0,0,0,0,0,0,0,0,0,0,0,0,0,0,
0,0,0,0,0,0,0,0,0,0,0,0,0,0,0,0,0,0,0,0,0,0,0,0,0,0,0,0,0,0,0,0,0,0,0,0,0,0,0,0,
0,0,0,0,0,0,0,0,0,0,0,0,0,0,0,0,0,0,0,0,0,0,0,0,0,0,0,0,0,0,0,0,0,0,0,0,0,0,0,0,
0,0,0,0,0,0,0,0,0,0,0,0,1108,0,0,0,0,0,0,0,0,0,0,0,0,0,0,0,1108,0,0,0,0,0,0,0,0,0,0,0,
0,0,0,0,0,0,0,0,0,0,0,0,0,0,0,0,0,0,0,0,0,0,0,0,0,0,0,0,0,0,0,0,0,0,0,0,0,0,0,0,
0,0,0,0,0,0,0,0,0,0,0,0,0,0,0,1090,0,0,0,0,0,0,0,0,0,0,0,0,0,0,0,0,0,0,0,0,0,0,0,0,
0,0,0,0,0,0,0,0,0,0,0,0,0,0,0,0,0,0,0,0,0,0,0,0,0,0,0,0,0,0,0,0,0,0,0,0,0,0,0,0,
0,0,0,0,0,0,0,0,0,0,0,0,0,0,0,0,0,0,0,0,0,0,0,0,0,0,0,0,0,0,0,0,0,0,0,0,0,0,0,0,
0,0,0,0,0,0,0,0,0,0,0,0,0,0,0,0,0,0,0,0,0,0,0,0,0,0,0,0,0,0,0,0,0,0,0,0,0,0,0,0,
0,0,0,0,0,0,0,0,0,0,0,0,0,0,0,0,0,0,0,0,0,0,0,0,0,0,0,0,0,0,0,0,0,0,0,0,0,0,0,0,
0,0,0,0,0,0,0,0,0,0,0,0,0,0,0,0,0,0,0,0,0,0,0,0,0,0,0,0,0,0,0,0,0,0,0,0,0,0,0,0,
0,0,0,0,0,0,0,0,0,0,0,0,0,0,0,0,0,0,0,0,0,0,0,0,0,0,0,0,0,0,0,0,0,0,0,0,0,0,0,0,
0,0,0,0,0,0,0,0,0,0,0,0,0,0,0,0,0,0,0,0,0,0,0,0,0,0,0,0,0,0,0,0,0,0,0,0,0,0,0,0,
0,0,0,0,0,0,0,0,0,0,0,0,0,0,0,0,0,0,0,0,0,0,0,0,0,0,0,0,0,1107,0,0,0,0,0,0,0,0,1108,0,
0,0,0,0,0,0,0,0,0,0,0,0,0,0,0,0,0,0,0,0,0,0,0,0,0,0,0,0,0,0,0,0,0,0,0,0,0,0,0,0,
0,0,0,1107,0,0,0,0,0,0,0,1107,0,0,0,0,0,0,0,0,0,0,0,0,0,0,0,0,0,0,0,0,0,0,0,0,0,0,0,0,
0,0,0,0,0,0,0,0,0,0,0,0,0,0,0,0,0,0,0,0,0,0,0,0,0,0,0,0,0,0,0,0,0,0,0,0,0,0,0,0,
0,0,0,0,0,0,0,0,0,0,0,0,0,0,0,0,0,0,0,0,0,0,0,0,0,0,0,0,0,0,0,0,0,0,0,0,0,0,0,0,
0,0,0,0,0,0,0,0,0,0,0,0,0,0,0,0,0,0,0,0,0,0,0,0,0,0,0,0,0,0,0,0,0,0,0,0,0,0,0,0,
0,0,0,0,0,0,0,0,0,0,0,0,0,0,0,0,0,0,0,0,0,0,0,0,0,0,0,0,0,0,0,0,0,0,0,0,0,0,0,0,
0,0,0,0,0,0,0,0,1090,0,0,0,0,0,0,0,0,0,0,0,0,0,0,0,0,0,0,0,0,0,0,0,0,0,0,0,0,0,0,0,
0,0,0,0,0,0,0,0,0,0,0,0,0,0,0,0,0,0,0,0,0,0,0,0,0,0,0,0,0,0,0,0,0,0,0,0,0,0,0,0,
0,0,0,0,0,0,0,0,0,0,0,0,0,0,0,0,0,0,0,0,0,0,0,0,0,0,0,0,0,0,0,0,0,1128,0,0,0,0,0,0,
0,0,0,0,0,0,0,0,0,0,0,0,0,0,0,0,0,0,0,0,0,0,0,0,0,0,0,0,0,0,0,0,0,0,0,0,0,0,0,0,
0,0,0,0,0,0,0,0,0,0,0,0,0,0,0,0,0,0,0,0,0,0,0,0,0,0,0,0,0,0,0,0,0,0,0,0,0,0,0,0,
0,0,0,0,0,0,0,0,0,0,0,0,0,0,0,0,0,0,0,0,0,0,0,0,0,0,0,0,0,0,0,0,0,0,0,0,0,0,0,0,
0,0,0,0,0,0,0,0,0,0,0,0,0,0,0,0,0,0,0,0,0,0,0,0,0,0,0,0,0,0,0,0,0,0,0,0,0,0,0,0,
0,0,0,0,0,0,0,0,0,0,0,0,0,0,0,0,0,0,0,0,0,0,0,0,0,0,0,0,0,0,0,0,0,0,0,0,0,0,0,0,
0,0,0,0,0,0,0,0,0,0,0,0,0,0,0,0,0,0,0,0,0,0,0,0,0,0,0,0,0,0,0,0,0,0,0,0,0,0,0,0,
0,0,0,0,0,0,0,0,0,0,0,0,0,0,0,0,0,0,0,0,0,0,0,0,0,0,0,0,0,0,0,0,0,0,0,0,0,0,0,0,
0,0,0,0,0,0,0,0,0,0,0,0,0,0,0,0,0,0,0,0,0,0,0,0,0,0,0,0,0,0,0,0,0,0,0,0,0,0,0,0,
0,0,0,0,0,0,0,0,0,0,0,0,0,0,0,0,0,0,0,0,0,0,0,0,0,0,0,0,0,0,0,0,0,0,0,0,0,0,0,0,
0,0,0,0,0,0,0,0,0,0,0,0,0,0,0,0,0,0,0,0,0,0,0,0,0,0,0,0,0,0,0,0,0,0,0,0,0,0,0,0,
0,0,0,0,0,0,0,0,0,0,0,0,0,0,0,0,0,0,0,0,0,0,0,0,1128,0,0,0,0,0,0,0,0,0,0,0,0,0,0,0,
0,0,0,0,0,0,0,0,0,0,0,0,0,0,0,0,0,0,0,0,0,0,0,0,0,0,0,0,0,0,0,0,0,0,0,0,0,0,0,0,
0,0,0,0,0,0,0,0,0,0,0,0,0,0,0,0,0,0,0,0,0,0,0,0,0,0,0,0,0,0,0,0,0,0,0,0,0,0,0,0,
0,0,0,0,0,0,0,0,0,0,0,0,0,0,0,0,0,0,0,0,0,0,0,0,0,0,0,0,0,0,0,0,0,0,0,0,0,0,0,0,
0,0,0,0,0,0,0,0,0,0,0,0,0,0,0,0,0,0,0,0,0,0,0,0,0,0,0,0,0,0,0,0,0,0,0,0,0,0,0,0,
0,0,0,0,0,0,0,0,0,0,0,0,0,0,0,0,0,0,0,0,0,0,0,0,0,0,0,0,0,0,0,0,0,0,0,0,0,0,0,0,
0,0,0,0,0,0,0,0,0,0,0,0,0,0,0,0,0,0,0,0,0,0,0,0,0,0,0,0,0,0,0,0,0,0,0,0,0,0,0,0
</data>
 </layer>
 <layer id="12" name="object" width="40" height="40">
  <data encoding="csv">
302,302,302,302,302,302,302,302,302,302,302,302,302,302,302,302,302,302,302,302,302,302,302,302,302,302,302,302,302,302,302,302,302,302,302,302,302,302,302,302,
302,302,302,302,302,302,302,302,302,302,302,302,302,302,302,302,302,302,302,302,302,302,302,302,302,302,302,302,302,302,302,302,302,302,302,302,302,302,302,302,
302,302,302,302,302,302,302,302,302,302,302,302,0,0,0,0,0,0,0,0,0,0,0,0,0,0,0,0,0,302,302,302,302,302,302,302,302,302,302,302,
302,302,302,302,302,302,302,302,302,302,302,302,0,0,0,0,0,0,0,0,0,0,0,0,0,0,0,0,0,302,302,302,302,302,302,302,302,302,302,302,
302,302,302,302,302,302,302,302,302,302,302,302,0,0,0,0,0,0,0,0,0,0,0,0,0,0,0,0,0,302,302,302,302,302,302,302,302,302,302,302,
302,302,302,302,302,302,302,302,302,302,302,302,0,0,0,0,0,0,0,0,0,0,0,0,1099,0,1098,0,0,302,302,302,302,302,302,302,302,302,302,302,
302,302,302,302,302,302,302,302,302,302,302,302,0,0,0,0,0,0,0,0,0,0,0,0,0,0,0,0,0,302,302,302,302,302,302,302,302,302,302,302,
302,302,302,302,302,302,302,302,302,302,302,302,0,0,0,0,0,0,0,0,0,0,0,0,0,0,0,0,0,302,302,302,302,302,302,302,302,302,302,302,
302,302,302,302,302,302,302,302,302,302,302,302,302,302,302,302,302,302,0,0,0,0,0,302,302,302,302,302,302,302,302,302,302,302,302,302,302,302,302,302,
302,302,302,302,302,302,302,302,302,302,302,302,302,302,302,302,302,302,0,0,0,0,0,302,302,302,302,302,302,302,302,302,302,302,302,302,302,302,302,302,
302,302,302,302,302,302,302,302,302,302,302,302,302,302,302,302,302,302,0,0,0,0,0,302,302,302,302,302,302,302,302,302,302,302,302,302,302,302,302,302,
302,302,302,302,302,302,302,302,302,302,302,302,302,302,302,302,302,302,0,0,0,0,0,302,302,302,302,302,302,302,302,302,302,302,302,302,302,302,302,302,
302,302,302,302,302,302,302,302,302,302,302,302,302,0,0,0,0,0,0,0,0,0,0,0,0,0,0,0,0,0,0,0,0,0,0,0,0,0,0,302,
302,302,302,302,302,302,302,302,302,302,302,302,302,1101,0,0,0,0,0,0,0,0,0,0,0,0,0,1101,0,0,0,0,0,0,0,0,0,0,0,302,
302,302,0,0,0,0,0,0,0,0,0,0,302,0,0,0,0,0,0,0,0,0,0,0,0,0,0,0,0,0,0,0,0,0,0,0,0,0,0,302,
302,302,0,0,0,0,0,0,0,0,0,0,302,0,0,0,302,302,0,0,0,0,0,302,302,0,0,0,0,0,0,0,0,0,0,0,0,0,0,302,
302,302,0,0,0,0,0,0,0,0,0,0,302,0,0,0,302,302,0,0,0,0,0,302,302,0,0,0,0,0,0,0,0,0,0,0,0,0,0,302,
302,302,0,0,0,0,0,0,0,0,0,0,302,0,0,0,302,302,0,0,0,0,0,302,302,0,0,0,0,0,0,0,0,0,0,0,0,0,0,302,
302,302,0,0,0,0,0,0,0,0,0,0,0,0,0,0,302,302,0,0,0,0,0,302,302,0,0,0,0,0,0,0,0,0,0,0,0,0,0,302,
302,302,0,0,0,0,0,0,0,0,0,0,0,0,0,0,302,302,0,0,0,0,0,302,302,0,0,0,0,0,0,0,0,0,0,0,0,0,0,302,
302,302,0,0,0,0,0,0,0,0,0,0,0,0,0,0,302,302,0,0,0,0,0,302,302,0,0,0,0,0,0,0,0,0,0,0,0,0,0,302,
302,302,0,0,0,0,0,0,0,0,0,0,0,0,0,0,302,302,0,0,0,0,0,302,302,0,0,0,0,0,0,0,0,0,0,0,0,0,0,302,
302,302,0,0,0,0,0,0,0,0,0,0,302,0,0,0,302,302,0,0,0,0,0,302,302,0,0,0,0,0,0,0,0,0,0,0,0,0,0,302,
302,302,0,0,0,0,0,0,0,0,0,0,302,0,0,0,302,302,0,0,0,0,0,302,302,0,0,0,0,0,0,0,0,0,0,0,0,0,0,302,
302,302,0,0,0,0,0,0,0,0,0,0,302,0,0,0,0,0,0,0,0,0,0,0,0,0,0,0,0,0,0,0,0,0,0,0,0,0,0,302,
302,302,0,0,0,0,0,0,0,0,0,0,302,1101,0,0,0,0,0,0,0,0,0,0,0,0,0,1101,302,302,302,302,302,302,302,302,302,302,302,302,
302,302,0,0,0,0,0,0,0,0,0,0,302,0,0,0,0,0,0,0,0,0,0,0,0,0,0,0,302,302,302,302,302,302,302,302,302,302,302,302,
302,302,0,0,0,0,0,0,0,0,0,0,302,302,302,302,302,302,0,0,0,0,0,302,302,302,302,302,302,302,302,302,302,302,302,302,302,302,302,302,
302,302,0,0,0,0,0,0,0,0,0,0,302,302,302,302,302,302,0,0,0,0,0,302,302,302,302,302,302,302,302,302,302,302,302,302,302,302,302,302,
302,302,0,0,0,0,0,0,0,0,0,0,302,302,302,302,302,302,0,0,0,0,0,302,302,302,302,302,302,302,302,302,302,302,302,302,302,302,302,302,
302,302,302,302,302,302,302,302,302,302,302,302,302,302,302,302,302,302,0,0,0,0,0,302,302,302,302,302,302,302,302,302,302,302,302,302,302,302,302,302,
302,302,302,302,302,302,302,302,302,302,302,302,302,302,302,0,0,0,0,0,0,0,0,0,0,0,302,302,302,302,302,302,302,302,302,302,302,302,302,302,
302,302,302,302,302,302,302,302,302,302,302,302,302,302,302,1101,0,0,0,0,0,0,0,0,0,1101,302,302,302,302,302,302,302,302,302,302,302,302,302,302,
302,302,302,302,302,302,302,302,302,302,302,302,302,302,302,0,0,0,0,0,0,0,0,0,0,0,302,302,302,302,302,302,302,302,302,302,302,302,302,302,
302,302,302,302,302,302,302,302,302,302,302,302,302,302,302,0,0,0,0,0,0,0,0,0,0,0,302,302,302,302,302,302,302,302,302,302,302,302,302,302,
302,302,302,302,302,302,302,302,302,302,302,302,302,302,302,0,0,0,0,0,0,0,0,0,0,0,302,302,302,302,302,302,302,302,302,302,302,302,302,302,
302,302,302,302,302,302,302,302,302,302,302,302,302,302,302,0,0,0,0,0,0,0,0,0,0,0,302,302,302,302,302,302,302,302,302,302,302,302,302,302,
302,302,302,302,302,302,302,302,302,302,302,302,302,302,302,0,0,0,0,0,0,0,0,0,0,0,302,302,302,302,302,302,302,302,302,302,302,302,302,302,
302,302,302,302,302,302,302,302,302,302,302,302,302,302,302,302,302,302,302,302,0,0,302,302,302,302,302,302,302,302,302,302,302,302,302,302,302,302,302,302,
302,302,302,302,302,302,302,302,302,302,302,302,302,302,302,302,302,302,302,302,302,302,302,302,302,302,302,302,302,302,302,302,302,302,302,302,302,302,302,302
</data>
 </layer>
 <layer id="13" name="shadow_upper" width="40" height="40">
  <data encoding="csv">
0,0,0,0,0,0,0,0,0,0,0,0,0,0,0,0,0,0,0,0,0,0,0,0,0,0,0,0,0,0,0,0,0,0,0,0,0,0,0,0,
0,0,0,0,0,0,0,0,0,0,0,0,0,0,0,0,0,0,0,0,0,0,0,0,0,0,0,0,0,0,0,0,0,0,0,0,0,0,0,0,
0,0,0,0,0,0,0,0,0,0,0,0,0,0,0,0,0,0,0,0,0,0,0,0,0,0,0,0,0,0,0,0,0,0,0,0,0,0,0,0,
0,0,0,0,0,0,0,0,0,0,0,0,0,0,0,0,0,0,0,0,0,0,0,0,0,0,0,0,0,0,0,0,0,0,0,0,0,0,0,0,
0,0,0,0,0,0,0,0,0,0,0,0,0,0,0,0,0,0,0,0,0,0,0,0,0,0,0,0,0,0,0,0,0,0,0,0,0,0,0,0,
0,0,0,0,0,0,0,0,0,0,0,0,0,0,0,0,0,0,0,0,0,0,0,0,0,0,0,0,0,0,0,0,0,0,0,0,0,0,0,0,
0,0,0,0,0,0,0,0,0,0,0,0,0,0,0,0,0,0,0,0,0,0,0,0,0,0,0,0,0,0,0,0,0,0,0,0,0,0,0,0,
0,0,0,0,0,0,0,0,0,0,0,0,0,0,0,0,0,0,0,0,0,0,0,0,0,0,0,0,0,0,0,0,0,0,0,0,0,0,0,0,
0,0,0,0,0,0,0,0,0,0,0,0,0,0,0,0,0,0,0,0,0,0,0,0,0,0,0,0,0,0,0,0,0,0,0,0,0,0,0,0,
0,0,0,0,0,0,0,0,0,0,0,0,0,0,0,0,0,0,0,0,0,0,0,0,0,0,0,0,0,0,0,0,0,0,0,0,0,0,0,0,
0,0,0,0,0,0,0,0,0,0,0,0,0,0,0,0,0,0,0,0,0,0,0,0,0,0,0,0,0,0,0,0,0,0,0,0,0,0,0,0,
0,0,0,0,0,0,0,0,0,0,0,0,0,0,0,0,0,0,0,0,0,0,0,0,0,0,0,0,0,0,0,0,0,0,0,0,0,0,0,0,
0,0,0,0,0,0,0,0,0,0,0,0,0,0,0,0,0,0,0,0,0,0,0,0,0,0,0,0,0,0,0,0,0,0,0,0,0,0,0,0,
0,0,0,0,0,0,0,0,0,0,0,0,0,0,0,0,0,0,0,0,0,0,0,0,0,0,0,0,0,0,0,0,0,0,0,0,0,0,0,0,
0,0,0,0,0,0,0,0,0,0,0,0,0,0,0,0,0,0,0,0,0,0,0,0,0,0,0,0,0,0,0,0,0,0,0,0,0,0,0,0,
0,0,0,0,0,0,0,0,0,0,0,0,0,0,0,0,0,0,0,0,0,0,0,0,0,0,0,0,0,0,0,0,0,0,0,0,0,0,0,0,
0,0,0,0,0,0,0,0,0,0,0,0,0,0,0,0,0,0,0,0,0,0,0,0,0,0,0,0,0,0,0,0,0,0,0,0,0,0,0,0,
0,0,0,0,0,0,0,0,0,0,0,0,0,0,0,0,0,0,0,0,0,0,0,0,0,0,0,0,0,0,0,0,0,0,0,0,0,0,0,0,
0,0,0,0,0,0,0,0,0,0,0,0,0,0,0,0,0,0,0,0,0,0,0,0,0,0,0,0,0,0,0,0,0,0,0,0,0,0,0,0,
0,0,0,0,0,0,0,0,0,0,0,0,0,0,0,0,0,0,0,0,0,0,0,0,0,0,0,0,0,0,0,0,0,0,0,0,0,0,0,0,
0,0,0,0,0,0,0,0,0,0,0,0,0,0,0,0,0,0,0,0,0,0,0,0,0,0,0,0,0,0,0,0,0,0,0,0,0,0,0,0,
0,0,0,0,0,0,0,0,0,0,0,0,0,0,0,0,0,0,0,0,0,0,0,0,0,0,0,0,0,0,0,0,0,0,0,0,0,0,0,0,
0,0,0,0,0,0,0,0,0,0,0,0,0,0,0,0,0,0,0,0,0,0,0,0,0,0,0,0,0,0,0,0,0,0,0,0,0,0,0,0,
0,0,0,0,0,0,0,0,0,0,0,0,0,0,0,0,0,0,0,0,0,0,0,0,0,0,0,0,0,0,0,0,0,0,0,0,0,0,0,0,
0,0,0,0,0,0,0,0,0,0,0,0,0,0,0,0,0,0,0,0,0,0,0,0,0,0,0,0,0,0,0,0,0,0,0,0,0,0,0,0,
0,0,0,0,0,0,0,0,0,0,0,0,0,0,0,0,0,0,0,0,0,0,0,0,0,0,0,0,0,0,0,0,0,0,0,0,0,0,0,0,
0,0,0,0,0,0,0,0,0,0,0,0,0,0,0,0,0,0,0,0,0,0,0,0,0,0,0,0,0,0,0,0,0,0,0,0,0,0,0,0,
0,0,0,0,0,0,0,0,0,0,0,0,0,0,0,0,0,0,0,0,0,0,0,0,0,0,0,0,0,0,0,0,0,0,0,0,0,0,0,0,
0,0,0,0,0,0,0,0,0,0,0,0,0,0,0,0,0,0,0,0,0,0,0,0,0,0,0,0,0,0,0,0,0,0,0,0,0,0,0,0,
0,0,0,0,0,0,0,0,0,0,0,0,0,0,0,0,0,0,0,0,0,0,0,0,0,0,0,0,0,0,0,0,0,0,0,0,0,0,0,0,
0,0,0,0,0,0,0,0,0,0,0,0,0,0,0,0,0,0,0,0,0,0,0,0,0,0,0,0,0,0,0,0,0,0,0,0,0,0,0,0,
0,0,0,0,0,0,0,0,0,0,0,0,0,0,0,0,0,0,0,0,0,0,0,0,0,0,0,0,0,0,0,0,0,0,0,0,0,0,0,0,
0,0,0,0,0,0,0,0,0,0,0,0,0,0,0,0,0,0,0,0,0,0,0,0,0,0,0,0,0,0,0,0,0,0,0,0,0,0,0,0,
0,0,0,0,0,0,0,0,0,0,0,0,0,0,0,0,0,0,0,0,0,0,0,0,0,0,0,0,0,0,0,0,0,0,0,0,0,0,0,0,
0,0,0,0,0,0,0,0,0,0,0,0,0,0,0,0,0,0,0,0,0,0,0,0,0,0,0,0,0,0,0,0,0,0,0,0,0,0,0,0,
0,0,0,0,0,0,0,0,0,0,0,0,0,0,0,0,0,0,0,0,0,0,0,0,0,0,0,0,0,0,0,0,0,0,0,0,0,0,0,0,
0,0,0,0,0,0,0,0,0,0,0,0,0,0,0,0,0,0,0,0,0,0,0,0,0,0,0,0,0,0,0,0,0,0,0,0,0,0,0,0,
0,0,0,0,0,0,0,0,0,0,0,0,0,0,0,0,0,0,0,0,0,0,0,0,0,0,0,0,0,0,0,0,0,0,0,0,0,0,0,0,
0,0,0,0,0,0,0,0,0,0,0,0,0,0,0,0,0,0,0,0,0,0,0,0,0,0,0,0,0,0,0,0,0,0,0,0,0,0,0,0,
0,0,0,0,0,0,0,0,0,0,0,0,0,0,0,0,0,0,0,0,0,0,0,0,0,0,0,0,0,0,0,0,0,0,0,0,0,0,0,0
</data>
 </layer>
 <layer id="14" name="object_upper" width="40" height="40">
  <data encoding="csv">
0,0,0,0,0,0,0,0,0,0,0,0,0,0,0,0,0,0,0,0,0,0,0,0,0,0,0,0,0,0,0,0,0,0,0,0,0,0,0,0,
0,0,0,0,0,0,0,0,0,0,0,0,0,0,0,0,0,0,0,0,0,0,0,0,0,0,0,0,0,0,0,0,0,0,0,0,0,0,0,0,
0,0,0,0,0,0,0,0,0,0,0,0,0,0,0,0,0,0,0,0,0,0,0,0,0,0,0,0,0,0,0,0,0,0,0,0,0,0,0,0,
0,0,0,0,0,0,0,0,0,0,0,0,0,0,0,0,0,0,0,0,0,0,0,0,0,0,0,0,0,0,0,0,0,0,0,0,0,0,0,0,
0,0,0,0,0,0,0,0,0,0,0,0,0,0,0,0,0,0,0,0,0,0,0,0,0,0,0,0,0,0,0,0,0,0,0,0,0,0,0,0,
0,0,0,0,0,0,0,0,0,0,0,0,0,0,0,0,0,0,0,0,0,0,0,0,0,0,0,0,0,0,0,0,0,0,0,0,0,0,0,0,
0,0,0,0,0,0,0,0,0,0,0,0,0,0,0,0,0,0,0,0,0,0,0,0,0,0,0,0,0,0,0,0,0,0,0,0,0,0,0,0,
0,0,0,0,0,0,0,0,0,0,0,0,0,0,0,0,0,0,0,0,0,0,0,0,0,0,0,0,0,0,0,0,0,0,0,0,0,0,0,0,
0,0,0,0,0,0,0,0,0,0,0,0,0,0,0,0,0,0,0,0,0,0,0,0,0,0,0,0,0,0,0,0,0,0,0,0,0,0,0,0,
0,0,0,0,0,0,0,0,0,0,0,0,0,0,0,0,0,0,0,0,0,0,0,0,0,0,0,0,0,0,0,0,0,0,0,0,0,0,0,0,
0,0,0,0,0,0,0,0,0,0,0,0,0,0,0,0,0,0,0,0,0,0,0,0,0,0,0,0,0,0,0,0,0,0,0,0,0,0,0,0,
0,0,0,0,0,0,0,0,0,0,0,0,0,0,0,0,0,0,0,0,0,0,0,0,0,0,0,0,0,0,0,0,0,0,0,0,0,0,0,0,
0,0,0,0,0,0,0,0,0,0,0,0,0,1100,0,0,0,0,0,0,0,0,0,0,0,0,0,1100,0,0,0,0,0,0,0,0,0,0,0,0,
0,0,0,0,0,0,0,0,0,0,0,0,0,0,0,0,0,0,0,0,0,0,0,0,0,0,0,0,0,0,0,0,0,0,0,0,0,0,0,0,
0,0,0,0,0,0,0,0,0,0,0,0,0,0,0,0,0,0,0,0,0,0,0,0,0,0,0,0,0,0,0,0,0,0,0,0,0,0,0,0,
0,0,0,0,0,0,0,0,0,0,0,0,0,0,0,0,0,0,0,0,0,0,0,0,0,0,0,0,0,0,0,0,0,0,0,0,0,0,0,0,
0,0,0,0,0,0,0,0,0,0,0,0,0,0,0,0,0,0,0,0,0,0,0,0,0,0,0,0,0,0,0,0,0,0,0,0,0,0,0,0,
0,0,0,0,0,0,0,0,0,0,0,0,0,0,0,0,0,0,0,0,0,0,0,0,0,0,0,0,0,0,0,0,0,0,0,0,0,0,0,0,
0,0,0,0,0,0,0,0,0,0,0,0,0,0,0,0,0,0,0,0,0,0,0,0,0,0,0,0,0,0,0,0,0,0,0,0,0,0,0,0,
0,0,0,0,0,0,0,0,0,0,0,0,0,0,0,0,0,0,0,0,0,0,0,0,0,0,0,0,0,0,0,0,0,0,0,0,0,0,0,0,
0,0,0,0,0,0,0,0,0,0,0,0,0,0,0,0,0,0,0,0,0,0,0,0,0,0,0,0,0,0,0,0,0,0,0,0,0,0,0,0,
0,0,0,0,0,0,0,0,0,0,0,0,0,0,0,0,0,0,0,0,0,0,0,0,0,0,0,0,0,0,0,0,0,0,0,0,0,0,0,0,
0,0,0,0,0,0,0,0,0,0,0,0,0,0,0,0,0,0,0,0,0,0,0,0,0,0,0,0,0,0,0,0,0,0,0,0,0,0,0,0,
0,0,0,0,0,0,0,0,0,0,0,0,0,0,0,0,0,0,0,0,0,0,0,0,0,0,0,0,0,0,0,0,0,0,0,0,0,0,0,0,
0,0,0,0,0,0,0,0,0,0,0,0,0,1100,0,0,0,0,0,0,0,0,0,0,0,0,0,1100,0,0,0,0,0,0,0,0,0,0,0,0,
0,0,0,0,0,0,0,0,0,0,0,0,0,0,0,0,0,0,0,0,0,0,0,0,0,0,0,0,0,0,0,0,0,0,0,0,0,0,0,0,
0,0,0,0,0,0,0,0,0,0,0,0,0,0,0,0,0,0,0,0,0,0,0,0,0,0,0,0,0,0,0,0,0,0,0,0,0,0,0,0,
0,0,0,0,0,0,0,0,0,0,0,0,0,0,0,0,0,0,0,0,0,0,0,0,0,0,0,0,0,0,0,0,0,0,0,0,0,0,0,0,
0,0,0,0,0,0,0,0,0,0,0,0,0,0,0,0,0,0,0,0,0,0,0,0,0,0,0,0,0,0,0,0,0,0,0,0,0,0,0,0,
0,0,0,0,0,0,0,0,0,0,0,0,0,0,0,0,0,0,0,0,0,0,0,0,0,0,0,0,0,0,0,0,0,0,0,0,0,0,0,0,
0,0,0,0,0,0,0,0,0,0,0,0,0,0,0,0,0,0,0,0,0,0,0,0,0,0,0,0,0,0,0,0,0,0,0,0,0,0,0,0,
0,0,0,0,0,0,0,0,0,0,0,0,0,0,0,1100,0,0,0,0,0,0,0,0,0,1100,0,0,0,0,0,0,0,0,0,0,0,0,0,0,
0,0,0,0,0,0,0,0,0,0,0,0,0,0,0,0,0,0,0,0,0,0,0,0,0,0,0,0,0,0,0,0,0,0,0,0,0,0,0,0,
0,0,0,0,0,0,0,0,0,0,0,0,0,0,0,0,0,0,0,0,0,0,0,0,0,0,0,0,0,0,0,0,0,0,0,0,0,0,0,0,
0,0,0,0,0,0,0,0,0,0,0,0,0,0,0,0,0,0,0,0,0,0,0,0,0,0,0,0,0,0,0,0,0,0,0,0,0,0,0,0,
0,0,0,0,0,0,0,0,0,0,0,0,0,0,0,0,0,0,0,0,0,0,0,0,0,0,0,0,0,0,0,0,0,0,0,0,0,0,0,0,
0,0,0,0,0,0,0,0,0,0,0,0,0,0,0,0,0,0,0,0,0,0,0,0,0,0,0,0,0,0,0,0,0,0,0,0,0,0,0,0,
0,0,0,0,0,0,0,0,0,0,0,0,0,0,0,0,0,0,0,0,0,0,0,0,0,0,0,0,0,0,0,0,0,0,0,0,0,0,0,0,
0,0,0,0,0,0,0,0,0,0,0,0,0,0,0,0,0,0,0,0,0,0,0,0,0,0,0,0,0,0,0,0,0,0,0,0,0,0,0,0,
0,0,0,0,0,0,0,0,0,0,0,0,0,0,0,0,0,0,0,0,0,0,0,0,0,0,0,0,0,0,0,0,0,0,0,0,0,0,0,0
</data>
 </layer>
 <layer id="15" name="deco" width="40" height="40">
  <data encoding="csv">
0,0,0,0,0,0,0,0,0,0,0,0,0,0,0,0,0,0,0,0,0,0,0,0,0,0,0,0,0,0,0,0,0,0,0,0,0,0,0,0,
0,0,0,0,0,0,0,0,0,0,0,0,0,0,0,0,0,0,0,0,0,0,0,0,0,0,0,0,0,0,0,0,0,0,0,0,0,0,0,0,
0,0,0,0,0,0,0,0,0,0,0,0,0,0,0,0,0,0,0,0,0,0,0,0,0,0,0,0,0,0,0,0,0,0,0,0,0,0,0,0,
0,0,0,0,0,0,0,0,0,0,0,0,0,0,0,0,0,0,0,0,0,0,0,0,0,0,0,0,0,0,0,0,0,0,0,0,0,0,0,0,
0,0,0,0,0,0,0,0,0,0,0,0,0,0,0,0,0,0,0,0,0,0,0,0,0,0,0,0,0,0,0,0,0,0,0,0,0,0,0,0,
0,0,0,0,0,0,0,0,0,0,0,0,0,0,0,0,0,0,0,0,0,0,0,0,0,0,0,0,0,0,0,0,0,0,0,0,0,0,0,0,
0,0,0,0,0,0,0,0,0,0,0,0,0,0,0,0,0,0,0,0,0,0,0,0,0,0,0,0,0,0,0,0,0,0,0,0,0,0,0,0,
0,0,0,0,0,0,0,0,0,0,0,0,0,0,0,0,0,0,0,0,0,0,0,0,0,0,0,0,0,0,0,0,0,0,0,0,0,0,0,0,
0,0,0,0,0,0,0,0,0,0,0,0,0,0,0,0,0,0,0,0,0,0,0,0,0,0,0,0,0,0,0,0,0,0,0,0,0,0,0,0,
0,0,0,0,0,0,0,0,0,0,0,0,0,0,0,0,0,0,0,0,0,0,0,0,0,0,0,0,0,0,0,0,0,0,0,0,0,0,0,0,
0,0,0,0,0,0,0,0,0,0,0,0,0,0,0,0,0,0,0,0,0,0,0,0,0,0,0,0,0,0,0,0,0,0,0,0,0,0,0,0,
0,0,0,0,0,0,0,0,0,0,0,0,0,0,0,0,0,0,0,0,0,0,0,0,0,0,0,0,0,0,0,0,0,0,0,0,0,0,0,0,
0,0,0,0,0,0,0,0,0,0,0,0,0,0,0,0,0,0,0,0,0,0,0,0,0,0,0,0,0,0,0,0,0,0,0,0,0,0,0,0,
0,0,0,0,0,0,0,0,0,0,0,0,0,0,0,0,0,0,0,0,0,0,0,0,0,0,0,0,0,0,0,0,0,0,0,0,0,0,0,0,
0,0,0,0,0,0,0,0,0,0,0,0,0,0,0,0,0,0,0,0,0,0,0,0,0,0,0,0,0,0,0,0,0,0,0,0,0,0,0,0,
0,0,0,0,0,0,0,0,0,0,0,0,0,0,0,0,0,0,0,0,0,0,0,0,0,0,0,0,0,0,0,0,0,0,0,0,0,0,0,0,
0,0,0,0,0,0,0,0,0,0,0,0,0,0,0,0,0,0,0,0,0,0,0,0,0,0,0,0,0,0,0,0,0,0,0,0,0,0,0,0,
0,0,0,0,0,0,0,0,0,0,0,0,0,0,0,0,0,0,0,0,0,0,0,0,0,0,0,0,0,0,0,0,0,0,0,0,0,0,0,0,
0,0,0,0,0,0,0,0,0,0,0,0,0,0,0,0,0,0,0,0,0,0,0,0,0,0,0,0,0,0,0,0,0,0,0,0,0,0,0,0,
0,0,0,0,0,0,0,0,0,0,0,0,0,0,0,0,0,0,0,0,0,0,0,0,0,0,0,0,0,0,0,0,0,0,0,0,0,0,0,0,
0,0,0,0,0,0,0,0,0,0,0,0,0,0,0,0,0,0,0,0,0,0,0,0,0,0,0,0,0,0,0,0,0,0,0,0,0,0,0,0,
0,0,0,0,0,0,0,0,0,0,0,0,0,0,0,0,0,0,0,0,0,0,0,0,0,0,0,0,0,0,0,0,0,0,0,0,0,0,0,0,
0,0,0,0,0,0,0,0,0,0,0,0,0,0,0,0,0,0,0,0,0,0,0,0,0,0,0,0,0,0,0,0,0,0,0,0,0,0,0,0,
0,0,0,0,0,0,0,0,0,0,0,0,0,0,0,0,0,0,0,0,0,0,0,0,0,0,0,0,0,0,0,0,0,0,0,0,0,0,0,0,
0,0,0,0,0,0,0,0,0,0,0,0,0,0,0,0,0,0,0,0,0,0,0,0,0,0,0,0,0,0,0,0,0,0,0,0,0,0,0,0,
0,0,0,0,0,0,0,0,0,0,0,0,0,0,0,0,0,0,0,0,0,0,0,0,0,0,0,0,0,0,0,0,0,0,0,0,0,0,0,0,
0,0,0,0,0,0,0,0,0,0,0,0,0,0,0,0,0,0,0,0,0,0,0,0,0,0,0,0,0,0,0,0,0,0,0,0,0,0,0,0,
0,0,0,0,0,0,0,0,0,0,0,0,0,0,0,0,0,0,0,0,0,0,0,0,0,0,0,0,0,0,0,0,0,0,0,0,0,0,0,0,
0,0,0,0,0,0,0,0,0,0,0,0,0,0,0,0,0,0,0,0,0,0,0,0,0,0,0,0,0,0,0,0,0,0,0,0,0,0,0,0,
0,0,0,0,0,0,0,0,0,0,0,0,0,0,0,0,0,0,0,0,0,0,0,0,0,0,0,0,0,0,0,0,0,0,0,0,0,0,0,0,
0,0,0,0,0,0,0,0,0,0,0,0,0,0,0,0,0,0,0,0,0,0,0,0,0,0,0,0,0,0,0,0,0,0,0,0,0,0,0,0,
0,0,0,0,0,0,0,0,0,0,0,0,0,0,0,0,0,0,0,0,0,0,0,0,0,0,0,0,0,0,0,0,0,0,0,0,0,0,0,0,
0,0,0,0,0,0,0,0,0,0,0,0,0,0,0,0,0,0,0,0,0,0,0,0,0,0,0,0,0,0,0,0,0,0,0,0,0,0,0,0,
0,0,0,0,0,0,0,0,0,0,0,0,0,0,0,0,0,0,0,0,0,0,0,0,0,0,0,0,0,0,0,0,0,0,0,0,0,0,0,0,
0,0,0,0,0,0,0,0,0,0,0,0,0,0,0,0,0,0,0,0,0,0,0,0,0,0,0,0,0,0,0,0,0,0,0,0,0,0,0,0,
0,0,0,0,0,0,0,0,0,0,0,0,0,0,0,0,0,0,0,0,0,0,0,0,0,0,0,0,0,0,0,0,0,0,0,0,0,0,0,0,
0,0,0,0,0,0,0,0,0,0,0,0,0,0,0,0,0,0,0,0,0,0,0,0,0,0,0,0,0,0,0,0,0,0,0,0,0,0,0,0,
0,0,0,0,0,0,0,0,0,0,0,0,0,0,0,0,0,0,0,0,0,0,0,0,0,0,0,0,0,0,0,0,0,0,0,0,0,0,0,0,
0,0,0,0,0,0,0,0,0,0,0,0,0,0,0,0,0,0,0,0,0,0,0,0,0,0,0,0,0,0,0,0,0,0,0,0,0,0,0,0,
0,0,0,0,0,0,0,0,0,0,0,0,0,0,0,0,0,0,0,0,0,0,0,0,0,0,0,0,0,0,0,0,0,0,0,0,0,0,0,0
</data>
 </layer>
 <layer id="16" name="roof" width="40" height="40">
  <data encoding="csv">
0,0,0,0,0,0,0,0,0,0,0,0,0,0,0,0,0,0,0,0,0,0,0,0,0,0,0,0,0,0,0,0,0,0,0,0,0,0,0,0,
0,0,0,0,0,0,0,0,0,0,0,0,0,0,0,0,0,0,0,0,0,0,0,0,0,0,0,0,0,0,0,0,0,0,0,0,0,0,0,0,
0,0,0,0,0,0,0,0,0,0,0,0,0,0,0,0,0,0,0,0,0,0,0,0,0,0,0,0,0,0,0,0,0,0,0,0,0,0,0,0,
0,0,0,0,0,0,0,0,0,0,0,0,0,0,0,0,0,0,0,0,0,0,0,0,0,0,0,0,0,0,0,0,0,0,0,0,0,0,0,0,
0,0,0,0,0,0,0,0,0,0,0,0,0,0,0,0,0,0,0,0,0,0,0,0,0,0,0,0,0,0,0,0,0,0,0,0,0,0,0,0,
0,0,0,0,0,0,0,0,0,0,0,0,0,0,0,0,0,0,0,0,0,0,0,0,0,0,0,0,0,0,0,0,0,0,0,0,0,0,0,0,
0,0,0,0,0,0,0,0,0,0,0,0,0,0,0,0,0,0,0,0,0,0,0,0,0,0,0,0,0,0,0,0,0,0,0,0,0,0,0,0,
0,0,0,0,0,0,0,0,0,0,0,0,0,0,0,0,0,0,0,0,0,0,0,0,0,0,0,0,0,0,0,0,0,0,0,0,0,0,0,0,
0,0,0,0,0,0,0,0,0,0,0,0,0,0,0,0,0,0,0,0,0,0,0,0,0,0,0,0,0,0,0,0,0,0,0,0,0,0,0,0,
0,0,0,0,0,0,0,0,0,0,0,0,0,0,0,0,0,0,0,0,0,0,0,0,0,0,0,0,0,0,0,0,0,0,0,0,0,0,0,0,
0,0,0,0,0,0,0,0,0,0,0,0,0,0,0,0,0,0,0,0,0,0,0,0,0,0,0,0,0,0,0,0,0,0,0,0,0,0,0,0,
0,0,0,0,0,0,0,0,0,0,0,0,0,0,0,0,0,0,0,0,0,0,0,0,0,0,0,0,0,0,0,0,0,0,0,0,0,0,0,0,
0,0,0,0,0,0,0,0,0,0,0,0,0,0,0,0,0,0,0,0,0,0,0,0,0,0,0,0,0,0,0,0,0,0,0,0,0,0,0,0,
0,0,0,0,0,0,0,0,0,0,0,0,0,0,0,0,0,0,0,0,0,0,0,0,0,0,0,0,0,0,0,0,0,0,0,0,0,0,0,0,
0,0,0,0,0,0,0,0,0,0,0,0,0,0,0,0,0,0,0,0,0,0,0,0,0,0,0,0,0,0,0,0,0,0,0,0,0,0,0,0,
0,0,0,0,0,0,0,0,0,0,0,0,0,0,0,0,0,0,0,0,0,0,0,0,0,0,0,0,0,0,0,0,0,0,0,0,0,0,0,0,
0,0,0,0,0,0,0,0,0,0,0,0,0,0,0,0,0,0,0,0,0,0,0,0,0,0,0,0,0,0,0,0,0,0,0,0,0,0,0,0,
0,0,0,0,0,0,0,0,0,0,0,0,0,0,0,0,0,0,0,0,0,0,0,0,0,0,0,0,0,0,0,0,0,0,0,0,0,0,0,0,
0,0,0,0,0,0,0,0,0,0,0,0,0,0,0,0,0,0,0,0,0,0,0,0,0,0,0,0,0,0,0,0,0,0,0,0,0,0,0,0,
0,0,0,0,0,0,0,0,0,0,0,0,0,0,0,0,0,0,0,0,0,0,0,0,0,0,0,0,0,0,0,0,0,0,0,0,0,0,0,0,
0,0,0,0,0,0,0,0,0,0,0,0,0,0,0,0,0,0,0,0,0,0,0,0,0,0,0,0,0,0,0,0,0,0,0,0,0,0,0,0,
0,0,0,0,0,0,0,0,0,0,0,0,0,0,0,0,0,0,0,0,0,0,0,0,0,0,0,0,0,0,0,0,0,0,0,0,0,0,0,0,
0,0,0,0,0,0,0,0,0,0,0,0,0,0,0,0,0,0,0,0,0,0,0,0,0,0,0,0,0,0,0,0,0,0,0,0,0,0,0,0,
0,0,0,0,0,0,0,0,0,0,0,0,0,0,0,0,0,0,0,0,0,0,0,0,0,0,0,0,0,0,0,0,0,0,0,0,0,0,0,0,
0,0,0,0,0,0,0,0,0,0,0,0,0,0,0,0,0,0,0,0,0,0,0,0,0,0,0,0,0,0,0,0,0,0,0,0,0,0,0,0,
0,0,0,0,0,0,0,0,0,0,0,0,0,0,0,0,0,0,0,0,0,0,0,0,0,0,0,0,0,0,0,0,0,0,0,0,0,0,0,0,
0,0,0,0,0,0,0,0,0,0,0,0,0,0,0,0,0,0,0,0,0,0,0,0,0,0,0,0,0,0,0,0,0,0,0,0,0,0,0,0,
0,0,0,0,0,0,0,0,0,0,0,0,0,0,0,0,0,0,0,0,0,0,0,0,0,0,0,0,0,0,0,0,0,0,0,0,0,0,0,0,
0,0,0,0,0,0,0,0,0,0,0,0,0,0,0,0,0,0,0,0,0,0,0,0,0,0,0,0,0,0,0,0,0,0,0,0,0,0,0,0,
0,0,0,0,0,0,0,0,0,0,0,0,0,0,0,0,0,0,0,0,0,0,0,0,0,0,0,0,0,0,0,0,0,0,0,0,0,0,0,0,
0,0,0,0,0,0,0,0,0,0,0,0,0,0,0,0,0,0,0,0,0,0,0,0,0,0,0,0,0,0,0,0,0,0,0,0,0,0,0,0,
0,0,0,0,0,0,0,0,0,0,0,0,0,0,0,0,0,0,0,0,0,0,0,0,0,0,0,0,0,0,0,0,0,0,0,0,0,0,0,0,
0,0,0,0,0,0,0,0,0,0,0,0,0,0,0,0,0,0,0,0,0,0,0,0,0,0,0,0,0,0,0,0,0,0,0,0,0,0,0,0,
0,0,0,0,0,0,0,0,0,0,0,0,0,0,0,0,0,0,0,0,0,0,0,0,0,0,0,0,0,0,0,0,0,0,0,0,0,0,0,0,
0,0,0,0,0,0,0,0,0,0,0,0,0,0,0,0,0,0,0,0,0,0,0,0,0,0,0,0,0,0,0,0,0,0,0,0,0,0,0,0,
0,0,0,0,0,0,0,0,0,0,0,0,0,0,0,0,0,0,0,0,0,0,0,0,0,0,0,0,0,0,0,0,0,0,0,0,0,0,0,0,
0,0,0,0,0,0,0,0,0,0,0,0,0,0,0,0,0,0,0,0,0,0,0,0,0,0,0,0,0,0,0,0,0,0,0,0,0,0,0,0,
0,0,0,0,0,0,0,0,0,0,0,0,0,0,0,0,0,0,0,0,0,0,0,0,0,0,0,0,0,0,0,0,0,0,0,0,0,0,0,0,
0,0,0,0,0,0,0,0,0,0,0,0,0,0,0,0,0,0,0,0,0,0,0,0,0,0,0,0,0,0,0,0,0,0,0,0,0,0,0,0,
0,0,0,0,0,0,0,0,0,0,0,0,0,0,0,0,0,0,0,0,0,0,0,0,0,0,0,0,0,0,0,0,0,0,0,0,0,0,0,0
</data>
 </layer>
 <objectgroup id="2" name="characters">
  <!-- 얼어붙은 사냥꾼(frozen_hunter, q039 — 구출 뒤 사라짐), 얼음 광맥(ice_vein, q039) / 얼음 골렘 3(Lv45~46), 서리 해골 5(Lv44~45) -->
  <object id="10" name="얼음 골렘-1" type="character" x="208" y="608" width="32" height="32">
   <properties>
    <property name="blocksMovement" type="bool" value="true"/>
    <property name="monster.level" type="int" value="45"/>
    <property name="type" value="monster_ice_golem"/>
   </properties>
  </object>
  <object id="11" name="얼음 골렘-2" type="character" x="336" y="768" width="32" height="32">
   <properties>
    <property name="blocksMovement" type="bool" value="true"/>
    <property name="monster.level" type="int" value="45"/>
    <property name="type" value="monster_ice_golem"/>
   </properties>
  </object>
  <object id="12" name="얼음 골렘-3" type="character" x="208" y="864" width="32" height="32">
   <properties>
    <property name="blocksMovement" type="bool" value="true"/>
    <property name="monster.level" type="int" value="46"/>
    <property name="type" value="monster_ice_golem"/>
   </properties>
  </object>
  <object id="13" name="서리 해골-1" type="character" x="624" y="832" width="32" height="32">
   <properties>
    <property name="blocksMovement" type="bool" value="true"/>
    <property name="monster.level" type="int" value="44"/>
    <property name="type" value="monster_frost_skeleton"/>
   </properties>
  </object>
  <object id="14" name="서리 해골-2" type="character" x="688" y="544" width="32" height="32">
   <properties>
    <property name="blocksMovement" type="bool" value="true"/>
    <property name="monster.level" type="int" value="44"/>
    <property name="type" value="monster_frost_skeleton"/>
   </properties>
  </object>
  <object id="15" name="서리 해골-3" type="character" x="1008" y="704" width="32" height="32">
   <properties>
    <property name="blocksMovement" type="bool" value="true"/>
    <property name="monster.level" type="int" value="45"/>
    <property name="type" value="monster_frost_skeleton"/>
   </properties>
  </object>
  <object id="16" name="서리 해골-4" type="character" x="1136" y="480" width="32" height="32">
   <properties>
    <property name="blocksMovement" type="bool" value="true"/>
    <property name="monster.level" type="int" value="45"/>
    <property name="type" value="monster_frost_skeleton"/>
   </properties>
  </object>
  <object id="17" name="서리 해골-5" type="character" x="528" y="192" width="32" height="32">
   <properties>
    <property name="blocksMovement" type="bool" value="true"/>
    <property name="monster.level" type="int" value="45"/>
    <property name="type" value="monster_frost_skeleton"/>
   </properties>
  </object>
  <object id="1" name="frozen_hunter" type="character" x="1104" y="608" width="32" height="32">
   <properties>
    <property name="blocksMovement" type="bool" value="true"/>
    <property name="controller.dialogueLines" type="list">
     <item value="얼음 속에 사람이 갇혀 있다! 아직 숨결이 희미하게 남아 있다."/>
    </property>
    <property name="controller.scriptId" value="vn-dialogue"/>
    <property name="displayText" value="얼어붙은 사냥꾼"/>
    <property name="quest.hiddenWhenCompleted" value="q039-ice-cave"/>
    <property name="type" value="snow_drift_wall"/>
   </properties>
  </object>
  <object id="2" name="ice_vein" type="character" x="816" y="192" width="32" height="32">
   <properties>
    <property name="blocksMovement" type="bool" value="true"/>
    <property name="controller.dialogueLines" type="list">
     <item value="푸르게 빛나는 얼음 광맥이다. 볼크가 말하던 바로 그 광석이다."/>
    </property>
    <property name="controller.scriptId" value="vn-dialogue"/>
    <property name="displayText" value="얼음 광맥"/>
    <property name="type" value="cave_prop_crystal_tall_r1c0"/>
   </properties>
  </object>
 </objectgroup>
 <objectgroup id="3" name="portals">
  <!-- 남쪽 계단 → 거울못 (52, 20). 북쪽 계단 → 2층 (14, 25)(q039 후). -->
  <object id="30" name="lake_stairs" type="portal" x="640" y="1216" width="64" height="32">
   <properties>
    <property name="appearanceType" value="stairs_stone_step_base_00"/>
    <property name="targetFacing" value="down"/>
    <property name="targetSceneId" value="frozen-lake"/>
    <property name="targetSpawnTileX" type="int" value="52"/>
    <property name="targetSpawnTileY" type="int" value="20"/>
   </properties>
  </object>
  <object id="31" name="altar_stairs" type="portal" x="608" y="96" width="64" height="32">
   <properties>
    <property name="appearanceType" value="stairs_stone_step_base_00"/>
    <property name="quest.requiresCompleted" value="q039-ice-cave"/>
    <property name="targetFacing" value="up"/>
    <property name="targetSceneId" value="ice-cave-2f"/>
    <property name="targetSpawnTileX" type="int" value="14"/>
    <property name="targetSpawnTileY" type="int" value="25"/>
   </properties>
  </object>
 </objectgroup>
</map>
