<?xml version="1.0" encoding="UTF-8"?>
<map version="1.10" tiledversion="1.12.1" orientation="orthogonal" renderorder="right-down" width="50" height="28" tilewidth="32" tileheight="32" infinite="0" nextlayerid="17" nextobjectid="40">
<!-- scripts/generate-north-pass.py 가 생성한다. 손으로 고치지 말고 스크립트를 고친 뒤 다시 돌릴 것. -->
 <tileset firstgid="1" source="../tilesets/town-32.tsx"/>
 <tileset firstgid="1801" source="../tilesets/biome-snow.tsx"/>
 <layer id="10" name="ground" width="50" height="28">
  <data encoding="csv">
1802,1802,1801,1801,1801,1802,1801,1801,1802,1802,1801,1801,1802,1802,1801,1801,1802,1801,1801,1801,1802,1802,1801,1803,1803,1803,1801,1801,1802,1801,1801,1801,1802,1801,1801,1801,1802,1801,1801,1801,1802,1801,1801,1801,1802,1801,1801,1801,1802,1801,
1802,1802,1801,1801,1802,1802,1801,1801,1802,1802,1801,1801,1802,1802,1801,1801,1802,1802,1801,1801,1802,1802,1801,1803,1803,1803,1801,1801,1802,1802,1801,1801,1802,1802,1801,1801,1802,1802,1801,1801,1801,1802,1801,1801,1801,1802,1801,1801,1801,1801,
1801,1801,1802,1802,1802,1801,1802,1802,1801,1801,1802,1802,1801,1801,1802,1802,1801,1802,1802,1802,1801,1802,1802,1803,1803,1803,1801,1802,1801,1802,1801,1802,1801,1802,1801,1802,1801,1802,1801,1802,1801,1802,1801,1802,1801,1802,1801,1802,1801,1802,
1801,1801,1801,1801,1801,1801,1801,1801,1801,1801,1801,1801,1801,1801,1801,1801,1801,1801,1801,1801,1801,1801,1801,1803,1803,1803,1801,1802,1801,1801,1801,1802,1801,1801,1801,1802,1801,1801,1801,1802,1801,1801,1801,1802,1801,1801,1801,1802,1801,1802,
1801,1801,1802,1802,1801,1801,1801,1801,1801,1801,1802,1802,1801,1801,1801,1801,1801,1801,1802,1802,1801,1801,1801,1803,1803,1803,1802,1802,1801,1801,1802,1801,1801,1801,1802,1801,1801,1801,1802,1801,1801,1802,1802,1801,1801,1801,1802,1801,1801,1802,
1801,1801,1802,1802,1801,1801,1802,1802,1801,1801,1802,1802,1801,1801,1802,1802,1801,1801,1801,1802,1801,1801,1802,1803,1803,1803,1803,1802,1801,1801,1802,1802,1801,1801,1801,1802,1801,1801,1802,1801,1801,1801,1801,1802,1801,1801,1802,1801,1801,1801,
1801,1801,1801,1801,1801,1801,1801,1801,1801,1801,1801,1801,1801,1801,1801,1801,1801,1801,1801,1801,1801,1801,1801,1803,1803,1803,1803,1803,1801,1801,1801,1801,1802,1801,1801,1801,1801,1801,1801,1801,1802,1801,1801,1801,1801,1801,1801,1801,1802,1801,
1802,1801,1801,1801,1801,1802,1801,1801,1802,1801,1802,1801,1801,1802,1801,1801,1802,1801,1802,1801,1801,1802,1801,1801,1803,1803,1803,1803,1803,1802,1801,1801,1802,1801,1802,1801,1801,1801,1801,1801,1802,1801,1802,1801,1802,1801,1801,1801,1802,1801,
1802,1801,1801,1801,1801,1802,1801,1801,1801,1802,1801,1801,1802,1801,1801,1801,1802,1801,1801,1801,1801,1802,1801,1801,1801,1803,1803,1803,1803,1803,1801,1802,1801,1801,1801,1801,1801,1802,1801,1801,1801,1802,1801,1802,1801,1801,1801,1802,1801,1801,
1801,1801,1801,1801,1801,1801,1801,1801,1802,1803,1803,1803,1801,1801,1801,1801,1801,1801,1801,1801,1802,1801,1801,1801,1802,1802,1803,1803,1803,1803,1801,1801,1801,1801,1801,1801,1802,1802,1801,1801,1802,1802,1802,1801,1801,1801,1801,1801,1801,1801,
1801,1802,1802,1801,1802,1801,1801,1801,1802,1803,1803,1803,1803,1802,1802,1802,1801,1802,1802,1801,1802,1801,1801,1801,1802,1801,1801,1803,1803,1803,1802,1801,1801,1802,1802,1801,1802,1801,1801,1801,1801,1801,1801,1801,1801,1801,1802,1801,1801,1801,
1801,1801,1802,1801,1802,1801,1801,1801,1802,1803,1803,1803,1803,1803,1803,1802,1801,1802,1802,1801,1801,1801,1801,1801,1801,1801,1801,1803,1803,1803,1802,1802,1801,1802,1801,1801,1801,1801,1801,1801,1801,1801,1801,1802,1801,1802,1801,1802,1801,1802,
1801,1802,1801,1801,1802,1801,1802,1802,1801,1801,1801,1803,1803,1803,1803,1803,1801,1802,1802,1802,1802,1801,1802,1802,1801,1801,1803,1803,1803,1803,1801,1801,1801,1802,1802,1802,1801,1801,1802,1802,1801,1801,1801,1801,1801,1801,1801,1801,1801,1802,
1801,1801,1802,1801,1801,1801,1802,1801,1801,1801,1801,1802,1801,1803,1803,1803,1803,1801,1802,1801,1801,1801,1802,1803,1803,1803,1803,1803,1803,1803,1801,1801,1802,1802,1802,1801,1801,1801,1801,1802,1801,1801,1801,1801,1801,1801,1802,1801,1802,1802,
1802,1801,1801,1802,1801,1802,1801,1801,1801,1801,1802,1801,1801,1801,1803,1803,1803,1803,1801,1801,1801,1803,1803,1803,1803,1803,1803,1803,1803,1801,1801,1801,1802,1801,1801,1801,1801,1802,1801,1801,1801,1801,1802,1801,1802,1801,1801,1801,1801,1801,
2029,2029,2029,2029,2029,2029,2029,2029,2029,2029,2029,2029,2029,1801,1801,1803,1803,1803,1801,1802,1801,1803,1803,1803,1803,1803,1803,1803,1802,1801,1801,1801,1801,1801,1801,1802,1801,1802,1802,1801,1802,1801,1801,1801,1802,1801,1801,1801,1801,1801,
2029,2029,2029,2029,2029,2029,2029,2029,2029,2029,2029,2029,2029,2029,2029,2029,2029,2029,2029,2029,2029,2029,2029,2029,2029,2029,2029,2029,2029,2029,1802,1801,1801,1802,1802,1802,1801,1801,2029,2029,2029,2029,2029,2029,2029,2029,2029,2029,2029,2029,
2029,2029,2029,2029,2029,2029,2029,1802,1801,2029,2029,2029,2029,2029,2029,2029,2029,2029,2029,2029,2029,2029,2029,2029,2029,2029,2029,2029,2029,2029,2029,2029,2029,2029,2029,2029,2029,2029,2029,2029,2029,2029,2029,2029,2029,2029,2029,2029,2029,2029,
1801,1801,1801,1801,1801,1801,1801,1801,1801,1801,1801,1801,1801,2029,2029,2029,2029,2029,2029,2029,2029,2029,2029,1801,1802,2029,2029,2029,2029,2029,2029,2029,2029,2029,2029,2029,2029,2029,2029,2029,2029,2029,2029,2029,2029,2029,2029,2029,2029,2029,
1801,1801,1801,1802,1801,1801,1801,1801,1801,1801,1801,1801,1802,1802,1801,1801,1802,1802,1803,1803,1803,1802,1802,1801,1802,1802,1802,1801,1801,2029,2029,2029,2029,2029,2029,2029,2029,2029,1801,1801,1801,1801,1801,1801,1802,1801,1801,1801,1802,1801,
1801,1801,1801,1801,1801,1802,1802,1801,1802,1801,1801,1801,1802,1802,1801,1801,1802,1802,1803,1803,1803,1803,1801,1801,1801,1801,1801,1801,1801,1801,1801,1802,1802,1801,1801,1801,1801,1801,1801,1802,1802,1801,1801,1801,1802,1802,1801,1801,1801,1801,
1802,1801,1801,1801,1801,1802,1801,1801,1802,1801,1801,1801,1802,1801,1801,1801,1801,1802,1803,1803,1803,1803,1803,1801,1801,1802,1801,1801,1802,1802,1801,1801,1802,1801,1802,1801,1802,1802,1801,1801,1801,1801,1801,1801,1801,1802,1801,1801,1801,1802,
1802,1802,1801,1801,1802,1801,1801,1802,1801,1802,1802,1802,1801,1801,1802,1802,1801,1801,1802,1803,1803,1803,1803,1803,1801,1802,1801,1801,1802,1802,1801,1801,1801,1801,1801,1801,1802,1802,1802,1801,1801,1801,1801,1802,1801,1801,1802,1802,1801,1802,
1801,1802,1801,1801,1802,1801,1802,1802,1801,1802,1801,1801,1801,1801,1802,1801,1801,1801,1801,1802,1803,1803,1803,1803,1803,1801,1801,1801,1801,1801,1801,1802,1801,1802,1801,1801,1801,1801,1802,1802,1801,1802,1801,1802,1801,1801,1801,1802,1801,1801,
1801,1802,1801,1801,1802,1801,1802,1802,1802,1801,1802,1801,1801,1801,1801,1801,1801,1801,1801,1802,1801,1801,1803,1803,1803,1803,1801,1801,1801,1802,1802,1801,1801,1802,1802,1802,1801,1801,1802,1801,1801,1801,1802,1801,1801,1801,1801,1801,1802,1802,
1801,1801,1802,1801,1801,1801,1802,1802,1801,1801,1802,1801,1801,1801,1801,1802,1802,1801,1801,1802,1801,1801,1803,1803,1803,1803,1801,1802,1801,1802,1802,1801,1801,1802,1802,1801,1801,1801,1801,1802,1801,1801,1801,1801,1802,1801,1801,1801,1802,1801,
1801,1801,1801,1802,1801,1801,1801,1801,1801,1801,1801,1801,1802,1801,1801,1801,1802,1801,1801,1801,1801,1802,1802,1803,1803,1803,1802,1801,1801,1801,1801,1801,1802,1801,1801,1801,1801,1801,1801,1801,1801,1801,1801,1802,1802,1801,1801,1801,1801,1801,
1802,1801,1801,1802,1801,1802,1801,1801,1801,1802,1801,1801,1802,1801,1801,1801,1801,1801,1801,1801,1801,1802,1802,1803,1803,1803,1802,1801,1802,1801,1801,1801,1802,1801,1801,1802,1801,1801,1802,1801,1801,1801,1802,1801,1801,1801,1801,1801,1801,1801
</data>
 </layer>
 <layer id="11" name="shadow_lower" width="50" height="28">
  <data encoding="csv">
0,0,0,0,0,0,0,0,0,0,0,0,1807,0,0,0,0,1804,0,0,0,0,0,1962,0,1984,0,0,0,0,0,0,0,0,0,0,0,0,0,0,0,0,0,1806,0,0,0,0,0,0,
0,0,0,0,0,0,0,0,0,0,0,0,0,0,1808,0,0,0,0,0,0,0,0,1960,0,1986,0,0,0,0,0,0,0,0,0,0,0,0,0,0,0,0,0,0,0,0,0,0,0,0,
0,0,0,0,0,0,0,0,0,0,0,0,0,0,0,0,0,0,0,0,0,0,0,1963,0,1992,0,0,0,0,0,0,0,0,0,1806,1804,0,0,0,0,0,1804,0,0,0,0,0,0,0,
0,0,0,0,0,0,2051,0,2053,0,0,0,0,0,0,0,0,0,0,0,0,0,0,1961,0,1991,0,0,0,0,0,0,0,0,1804,0,0,0,0,0,0,1805,0,0,0,1808,0,0,0,0,
0,0,1804,0,0,0,0,0,0,0,0,0,0,0,0,0,0,0,0,0,0,0,0,1955,0,1988,0,0,0,0,0,0,0,1807,0,0,0,0,0,1806,0,0,0,0,0,0,0,0,0,0,
0,0,0,0,0,0,0,0,0,0,1804,0,0,0,0,0,0,0,0,0,0,0,0,1956,0,1932,2000,0,0,0,0,0,0,0,0,0,0,0,0,0,2069,2070,0,2072,2073,0,0,0,0,0,
0,0,0,0,0,0,0,0,0,0,0,0,0,0,0,0,0,0,0,0,0,0,0,2016,1954,0,1935,1994,0,0,0,0,0,0,0,0,0,1806,0,0,0,0,0,0,0,0,0,0,0,0,
0,0,0,0,0,0,0,0,0,0,0,0,0,0,0,1808,0,0,0,0,0,0,0,0,2018,1947,0,1930,1995,0,1806,0,0,0,0,0,0,0,0,0,0,0,0,0,0,0,0,1805,0,1806,
0,0,0,0,0,0,0,0,0,0,0,0,0,0,0,0,0,0,0,0,0,0,0,0,0,2011,1952,0,1929,1994,0,0,0,0,0,0,0,0,0,0,0,0,0,0,0,2139,2140,0,2142,2143,
0,0,0,1806,1808,0,0,0,0,1967,1937,1993,0,0,0,0,0,0,0,0,0,0,0,0,0,0,2017,1946,0,1984,0,0,0,0,0,0,0,0,0,0,0,0,0,0,0,0,0,0,0,0,
0,0,0,0,0,0,0,0,0,1962,0,1929,2000,0,0,0,0,0,0,0,0,0,0,0,0,0,0,1955,0,1986,0,0,0,0,0,0,0,0,0,0,0,0,0,0,0,0,0,0,0,0,
2051,0,2053,1805,0,0,0,0,0,2015,2009,1951,1936,1945,1995,0,0,0,0,0,0,0,0,0,0,0,0,1955,0,1992,0,0,0,0,0,0,0,0,0,0,0,0,0,0,0,0,0,0,0,0,
0,0,0,0,0,0,0,0,0,0,0,2014,2002,1952,1929,1994,0,0,0,0,0,0,0,0,0,0,1969,1920,0,1992,0,0,0,0,0,0,0,0,0,0,0,0,0,0,0,2164,2165,0,2167,2168,
0,0,0,0,0,0,0,0,0,0,0,0,0,2017,1952,1930,2001,0,0,0,0,0,0,1967,1937,1940,1923,0,1974,2026,0,0,0,0,0,0,0,0,0,0,0,0,0,0,0,0,0,0,0,0,
1805,0,0,1804,0,1805,0,0,1806,1806,1804,0,0,0,2017,1946,1934,1993,0,0,0,1965,1940,1926,0,0,0,1981,2022,0,0,0,0,0,0,0,0,0,0,0,0,0,0,0,0,0,0,2051,0,2053,
1832,1828,1833,1829,1833,1835,1832,1828,1833,1835,1832,1834,1888,1807,0,2012,2003,2020,0,2204,2204,2204,2007,2009,2007,2009,2004,2023,0,0,0,2139,2140,0,2142,2143,0,0,0,0,1805,1807,1805,0,0,0,0,1804,0,0,
0,0,0,0,1866,1839,1867,1896,1893,1842,0,0,1821,1827,1833,1829,1827,1833,1832,2204,2204,2204,1835,1829,1827,1833,1835,1832,1834,1888,1805,1807,1807,0,0,0,0,1804,1858,1831,1834,1835,1832,1828,1827,1833,1832,1828,1827,1883,
1893,1895,1899,1897,1917,1906,1912,0,1808,1909,1897,1893,1895,1840,0,0,0,0,0,2204,2204,2204,1871,1894,1895,1837,0,0,0,1822,1831,1828,1827,1830,1834,1829,1827,1833,1811,0,0,0,0,0,0,0,0,0,0,1820,
0,0,0,0,0,1807,0,0,0,0,0,1808,1808,1904,1895,1899,1897,1893,1892,2204,2204,2204,1913,0,0,1903,1897,1893,1892,1836,0,0,0,0,0,0,0,1864,1892,1892,1892,1892,1892,1898,1897,1893,1895,1899,1897,1893,
0,0,0,0,0,0,0,0,0,0,0,0,0,0,0,0,1807,0,1966,2204,2204,2204,0,0,0,0,0,0,0,1903,1894,1898,1897,1899,1897,1899,1897,1911,0,1805,1806,1804,1806,0,0,0,1805,1805,1805,0,
2051,0,2053,0,0,0,0,0,0,0,0,0,0,0,0,0,0,0,1960,0,1936,1995,0,0,0,2069,2070,0,2072,2073,0,0,1805,1806,0,0,0,0,0,0,0,0,0,0,0,0,0,1804,0,0,
0,0,0,0,0,0,2094,2095,1808,2097,2098,0,0,0,0,0,0,0,2017,1952,0,1928,1999,0,0,0,0,0,0,0,0,0,0,0,0,0,0,0,0,0,0,0,0,0,0,0,0,0,0,0,
0,0,0,1805,0,0,0,0,0,0,0,0,0,0,0,0,0,0,0,2018,1950,0,1936,2001,0,0,0,0,0,0,0,0,0,0,0,0,0,0,0,0,0,0,0,0,0,0,1807,0,0,0,
0,0,0,0,0,0,0,0,0,0,0,0,0,0,0,0,0,0,0,0,2014,2005,1950,1934,1996,0,0,0,0,0,0,0,0,0,0,0,1806,0,0,0,2139,2140,0,2142,2143,0,0,0,0,0,
0,0,0,0,0,0,0,0,0,2069,2070,0,2072,2073,0,0,0,0,0,0,0,0,1960,0,1932,1994,0,0,0,0,0,0,0,0,2094,2095,0,2097,2098,0,0,0,0,1805,0,1804,0,0,0,1808,
0,0,1806,2184,2185,0,2187,2188,0,0,0,0,0,0,0,0,0,0,0,0,0,0,2017,1949,0,1984,0,0,2069,2070,0,2072,2073,0,0,0,0,0,0,0,0,0,0,0,0,0,0,0,0,0,
0,0,0,0,0,0,0,0,0,0,2051,0,2053,0,2069,2070,0,2072,2073,0,0,0,0,1959,0,1986,0,0,0,0,0,0,0,0,0,0,2184,2185,0,2187,2188,0,0,0,0,0,0,0,0,0,
0,0,0,0,0,0,0,0,0,0,0,2051,0,2053,0,0,2164,2165,0,2167,2168,0,0,1960,0,1992,0,0,0,0,0,0,0,0,2139,2140,0,2142,2143,0,0,0,0,0,2184,2185,0,2187,2188,0
</data>
 </layer>
 <layer id="12" name="object" width="50" height="28">
  <data encoding="csv">
302,302,302,302,302,302,302,302,302,302,302,302,302,302,302,302,302,302,2196,302,302,302,2198,0,0,0,2196,302,302,302,2198,2195,302,302,302,2196,302,302,302,302,302,302,302,302,302,302,302,302,302,302,
302,0,2039,2040,2041,2039,2040,2041,2039,2040,2041,2039,2040,2041,0,2039,2040,2041,0,0,0,0,0,0,0,0,0,2039,2040,2041,0,2195,2039,2040,2041,0,0,2039,2040,2041,2039,2040,2041,0,0,0,2039,2040,2041,302,
302,0,0,0,0,0,0,0,0,0,0,0,0,0,0,0,0,0,0,2039,2040,2041,0,0,0,0,0,0,0,0,0,0,0,0,0,0,0,0,0,0,0,0,0,0,0,0,0,0,0,302,
2039,2040,2041,0,0,0,0,2052,0,0,0,2039,2040,2041,2039,2040,2041,0,0,0,0,0,0,0,0,0,0,0,0,0,0,0,0,0,0,0,2039,2040,2041,2039,2040,2041,0,2039,2040,2041,0,2039,2040,2041,
302,302,2195,2039,2040,2041,0,0,0,0,0,0,0,0,0,0,0,0,0,0,0,0,0,0,0,0,0,0,0,0,0,0,0,0,0,0,0,0,0,0,0,0,0,0,0,0,0,0,0,2196,
2039,2040,2041,0,0,0,0,2039,2040,2041,0,2039,2040,2041,0,0,0,0,0,0,0,0,0,0,0,0,0,0,0,0,0,0,0,0,0,2039,2040,2041,0,0,0,0,2071,0,0,0,0,0,0,302,
302,0,0,0,0,0,0,0,0,0,0,0,0,0,0,0,0,0,0,0,0,0,0,0,0,0,0,0,0,0,0,0,0,0,0,0,0,0,0,0,0,0,0,0,0,0,2039,2040,2041,302,
302,2039,2040,2041,0,0,1095,1095,0,0,0,0,1095,0,0,0,2039,2040,2041,0,0,0,0,0,0,0,0,0,0,0,0,0,0,0,0,0,0,2039,2040,2041,0,0,2039,2040,2041,0,0,0,0,302,
302,0,0,0,0,0,0,0,0,0,0,0,0,0,0,0,0,0,0,0,0,0,0,0,0,0,0,0,0,0,0,0,0,0,0,0,0,0,0,0,0,0,0,0,0,0,0,2141,0,302,
2039,2040,2041,0,0,0,0,0,0,1092,0,0,0,0,0,0,0,0,0,0,0,0,0,0,0,0,0,0,0,0,0,0,0,0,0,0,2199,0,0,0,0,0,2039,2040,2041,0,0,0,0,302,
302,0,0,0,0,0,0,0,0,0,0,2202,0,0,0,0,0,0,0,0,0,0,0,0,0,0,0,0,0,0,0,0,0,0,0,0,0,0,0,0,0,0,0,0,0,0,0,2039,2040,2041,
2196,2052,0,0,0,0,0,0,0,0,0,0,0,0,0,0,0,0,2201,0,0,0,0,0,2039,2040,2041,0,0,0,0,0,0,0,0,0,0,0,0,0,2039,2040,2041,2039,2040,2041,0,0,0,302,
2196,0,0,0,0,0,0,0,0,0,0,0,0,0,0,0,0,0,0,0,0,0,0,0,0,0,0,0,0,0,0,0,0,0,0,0,0,0,0,0,0,0,0,0,0,0,0,2166,0,302,
2196,2039,2040,2041,0,0,0,0,0,0,0,0,0,0,0,0,0,0,0,0,0,0,0,0,0,0,0,0,0,0,0,0,0,2039,2040,2041,0,0,0,0,0,2039,2040,2041,0,0,0,0,0,302,
2196,0,0,0,0,0,0,0,0,0,0,0,0,0,0,0,0,0,0,0,0,0,0,0,0,0,0,0,0,0,0,0,0,0,0,0,0,0,0,0,0,0,0,0,2039,2040,2041,0,2052,2196,
302,302,302,302,302,302,302,302,302,302,302,302,0,0,2194,0,0,0,0,0,0,0,0,0,0,0,0,0,0,0,0,0,0,2141,0,0,0,0,0,0,0,0,2194,0,0,0,0,0,0,2196,
302,302,302,302,302,302,302,302,302,302,302,302,302,302,302,302,302,302,302,0,0,0,302,302,302,302,302,302,302,0,0,2194,0,0,0,2194,2194,0,0,302,302,302,302,302,302,302,302,302,302,302,
302,302,302,302,0,0,0,0,0,0,302,302,302,302,302,302,302,302,302,0,0,0,302,302,302,302,302,302,302,302,302,302,302,302,302,302,302,302,302,302,302,302,302,302,302,302,302,302,302,302,
302,0,0,0,0,0,0,0,0,0,0,2199,0,0,302,302,302,302,302,0,0,0,0,2039,2040,2041,302,302,302,302,302,302,302,302,302,302,302,302,302,302,302,302,302,302,302,302,302,302,302,302,
302,0,0,0,2039,2040,2041,0,0,0,0,0,0,0,0,0,0,0,0,0,0,0,0,0,0,0,0,0,0,0,302,302,302,302,302,302,302,0,0,0,0,0,0,0,0,0,0,2039,2040,2041,
302,2052,0,0,0,0,0,0,0,0,0,0,0,0,0,0,0,0,0,0,0,0,0,0,0,0,0,2071,0,0,2198,0,0,0,2039,2040,2041,0,0,2039,2040,2041,0,0,0,0,0,0,0,2201,
302,0,0,2039,2040,2041,0,0,2096,0,0,0,0,0,0,0,0,0,0,0,0,0,0,0,0,0,0,0,0,0,0,0,0,0,0,0,0,0,0,0,0,0,0,0,0,0,2039,2040,2041,302,
2039,2040,2041,0,0,0,0,0,0,0,0,0,0,0,0,0,0,0,0,0,0,0,0,0,0,0,0,0,0,0,0,0,0,0,0,2039,2040,2041,2039,2040,2041,0,0,0,0,0,0,0,0,302,
2201,0,0,0,2039,2040,2041,0,0,0,0,0,0,2039,2040,2041,0,0,0,0,0,0,0,0,0,0,0,0,0,0,0,0,0,0,0,0,0,0,0,0,0,0,2141,0,0,0,0,0,0,302,
302,2039,2040,2041,0,0,0,0,0,0,0,2071,0,0,0,0,0,0,0,0,0,0,0,0,0,0,0,0,0,0,0,0,2039,2040,2041,0,2096,0,0,0,0,0,0,0,0,0,0,2039,2040,2041,
302,0,0,0,0,2186,0,0,0,0,0,0,0,0,0,0,0,0,0,0,0,0,0,0,0,0,0,0,0,0,2071,0,0,0,0,0,0,0,0,2039,2040,2041,0,2039,2040,2041,0,0,0,302,
302,0,0,0,0,0,2039,2040,2041,0,0,2052,0,2039,2040,2041,2071,0,0,2039,2040,2041,0,0,0,0,0,2039,2040,2041,0,0,0,0,0,0,0,0,2186,0,0,0,0,0,0,0,0,2039,2040,2041,
2039,2040,2041,2039,2040,2041,2196,2195,2039,2040,2041,2197,2052,2198,2196,2196,2199,2198,2166,2198,2196,2195,2201,0,0,0,2201,2196,2196,2196,2039,2040,2041,2039,2040,2041,2141,2198,2195,2198,2196,2039,2040,2041,2199,2200,2186,2198,2201,2200
</data>
 </layer>
 <layer id="13" name="shadow_upper" width="50" height="28">
  <data encoding="csv">
0,0,0,0,0,0,0,0,0,0,0,0,0,0,0,0,0,0,0,0,0,0,0,0,0,0,0,0,0,0,0,0,0,0,0,0,0,0,0,0,0,0,0,0,0,0,0,0,0,0,
0,0,0,0,0,0,0,0,0,0,0,0,0,0,0,0,0,0,0,0,0,0,0,0,0,0,0,0,0,0,0,0,0,0,0,0,0,0,0,0,0,0,0,0,0,0,0,0,0,0,
0,0,0,0,0,0,0,0,0,0,0,0,0,0,0,0,0,0,0,0,0,0,0,0,0,0,0,0,0,0,0,0,0,0,0,0,0,0,0,0,0,0,0,0,0,0,0,0,0,0,
0,0,0,0,0,0,0,0,0,0,0,0,0,0,0,0,0,0,0,0,0,0,0,0,0,0,0,0,0,0,0,0,0,0,0,0,0,0,0,0,0,0,0,0,0,0,0,0,0,0,
0,0,0,0,0,0,0,0,0,0,0,0,0,0,0,0,0,0,0,0,0,0,0,0,0,0,0,0,0,0,0,0,0,0,0,0,0,0,0,0,0,0,0,0,0,0,0,0,0,0,
0,0,0,0,0,0,0,0,0,0,0,0,0,0,0,0,0,0,0,0,0,0,0,0,0,0,0,0,0,0,0,0,0,0,0,0,0,0,0,0,0,0,0,0,0,0,0,0,0,0,
0,0,0,0,0,0,0,0,0,0,0,0,0,0,0,0,0,0,0,0,0,0,0,0,0,0,0,0,0,0,0,0,0,0,0,0,0,0,0,0,0,0,0,0,0,0,0,0,0,0,
0,0,0,0,0,0,0,0,0,0,0,0,0,0,0,0,0,0,0,0,0,0,0,0,0,0,0,0,0,0,0,0,0,0,0,0,0,0,0,0,0,0,0,0,0,0,0,0,0,0,
0,0,0,0,0,0,0,0,0,0,0,0,0,0,0,0,0,0,0,0,0,0,0,0,0,0,0,0,0,0,0,0,0,0,0,0,0,0,0,0,0,0,0,0,0,0,0,0,0,0,
0,0,0,0,0,0,0,0,0,0,0,0,0,0,0,0,0,0,0,0,0,0,0,0,0,0,0,0,0,0,0,0,0,0,0,0,0,0,0,0,0,0,0,0,0,0,0,0,0,0,
0,0,0,0,0,0,0,0,0,0,0,0,0,0,0,0,0,0,0,0,0,0,0,0,0,0,0,0,0,0,0,0,0,0,0,0,0,0,0,0,0,0,0,0,0,0,0,0,0,0,
0,0,0,0,0,0,0,0,0,0,0,0,0,0,0,0,0,0,0,0,0,0,0,0,0,0,0,0,0,0,0,0,0,0,0,0,0,0,0,0,0,0,0,0,0,0,0,0,0,0,
0,0,0,0,0,0,0,0,0,0,0,0,0,0,0,0,0,0,0,0,0,0,0,0,0,0,0,0,0,0,0,0,0,0,0,0,0,0,0,0,0,0,0,0,0,0,0,0,0,0,
0,0,0,0,0,0,0,0,0,0,0,0,0,0,0,0,0,0,0,0,0,0,0,0,0,0,0,0,0,0,0,0,0,0,0,0,0,0,0,0,0,0,0,0,0,0,0,0,0,0,
0,0,0,0,0,0,0,0,0,0,0,0,0,0,0,0,0,0,0,0,0,0,0,0,0,0,0,0,0,0,0,0,0,0,0,0,0,0,0,0,0,0,0,0,0,0,0,0,0,0,
0,0,0,0,0,0,0,0,0,0,0,0,0,0,0,0,0,0,0,0,0,0,0,0,0,0,0,0,0,0,0,0,0,0,0,0,0,0,0,0,0,0,0,0,0,0,0,0,0,0,
0,0,0,0,0,0,0,0,0,0,0,0,0,0,0,0,0,0,0,0,0,0,0,0,0,0,0,0,0,0,0,0,0,0,0,0,0,0,0,0,0,0,0,0,0,0,0,0,0,0,
0,0,0,0,0,0,0,0,0,0,0,0,0,0,0,0,0,0,0,0,0,0,0,0,0,0,0,0,0,0,0,0,0,0,0,0,0,0,0,0,0,0,0,0,0,0,0,0,0,0,
0,0,0,0,0,0,0,0,0,0,0,0,0,0,0,0,0,0,0,0,0,0,0,0,0,0,0,0,0,0,0,0,0,0,0,0,0,0,0,0,0,0,0,0,0,0,0,0,0,0,
0,0,0,0,0,0,0,0,0,0,0,0,0,0,0,0,0,0,0,0,0,0,0,0,0,0,0,0,0,0,0,0,0,0,0,0,0,0,0,0,0,0,0,0,0,0,0,0,0,0,
0,0,0,0,0,0,0,0,0,0,0,0,0,0,0,0,0,0,0,0,0,0,0,0,0,0,0,0,0,0,0,0,0,0,0,0,0,0,0,0,0,0,0,0,0,0,0,0,0,0,
0,0,0,0,0,0,0,0,0,0,0,0,0,0,0,0,0,0,0,0,0,0,0,0,0,0,0,0,0,0,0,0,0,0,0,0,0,0,0,0,0,0,0,0,0,0,0,0,0,0,
0,0,0,0,0,0,0,0,0,0,0,0,0,0,0,0,0,0,0,0,0,0,0,0,0,0,0,0,0,0,0,0,0,0,0,0,0,0,0,0,0,0,0,0,0,0,0,0,0,0,
0,0,0,0,0,0,0,0,0,0,0,0,0,0,0,0,0,0,0,0,0,0,0,0,0,0,0,0,0,0,0,0,0,0,0,0,0,0,0,0,0,0,0,0,0,0,0,0,0,0,
0,0,0,0,0,0,0,0,0,0,0,0,0,0,0,0,0,0,0,0,0,0,0,0,0,0,0,0,0,0,0,0,0,0,0,0,0,0,0,0,0,0,0,0,0,0,0,0,0,0,
0,0,0,0,0,0,0,0,0,0,0,0,0,0,0,0,0,0,0,0,0,0,0,0,0,0,0,0,0,0,0,0,0,0,0,0,0,0,0,0,0,0,0,0,0,0,0,0,0,0,
0,0,0,0,0,0,0,0,0,0,0,0,0,0,0,0,0,0,0,0,0,0,0,0,0,0,0,0,0,0,0,0,0,0,0,0,0,0,0,0,0,0,0,0,0,0,0,0,0,0,
0,0,0,0,0,0,0,0,0,0,0,0,0,0,0,0,0,0,0,0,0,0,0,0,0,0,0,0,0,0,0,0,0,0,0,0,0,0,0,0,0,0,0,0,0,0,0,0,0,0
</data>
 </layer>
 <layer id="14" name="object_upper" width="50" height="28">
  <data encoding="csv">
2030,2031,2036,2037,2038,2036,2037,2038,2036,2037,2038,2036,2037,2038,2030,2036,2037,2038,0,2033,2034,2035,0,0,0,0,0,2036,2037,2038,0,0,2036,2037,2038,0,2030,2036,2037,2038,2036,2037,2038,2030,2031,2032,2036,2037,2038,2032,
2033,2034,2035,2030,2031,2032,2045,2046,2047,0,0,2033,2034,2035,2033,2034,2035,0,0,2036,2037,2038,0,0,0,0,0,0,0,0,0,0,0,0,0,0,2033,2034,2035,2033,2034,2035,0,2033,2034,2035,0,2033,2034,2035,
2036,2037,2038,2033,2034,2035,2048,2049,2050,2032,0,2036,2037,2038,2036,2037,2038,0,0,0,0,0,0,0,0,0,0,0,0,0,0,0,0,0,0,2030,2036,2037,2038,2036,2037,2038,2056,2036,2037,2038,0,2036,2037,2038,
2033,2034,2035,2036,2037,2038,0,2033,2034,2035,0,2033,2034,2035,0,0,0,0,0,0,0,0,0,0,0,0,0,0,0,0,0,0,0,0,0,2033,2034,2035,0,0,2059,2060,2061,2062,2063,0,2030,2031,2032,0,
2036,2037,2038,2032,0,0,0,2036,2037,2038,0,2036,2037,2038,0,0,2030,2031,2032,0,0,0,0,0,0,0,0,0,0,0,0,0,0,0,0,2036,2037,2038,2031,2032,2064,2065,2066,2067,2068,0,2033,2034,2035,0,
0,2033,2034,2035,0,0,0,0,0,0,0,0,0,0,0,0,2033,2034,2035,0,0,0,0,0,0,0,0,0,0,0,0,0,0,0,0,0,0,2033,2034,2035,0,0,2033,2034,2035,2124,2036,2037,2038,2128,
2030,2036,2037,2038,0,0,0,0,0,0,0,0,0,0,0,0,2036,2037,2038,0,0,0,0,0,0,0,0,0,0,0,0,0,0,0,0,0,0,2036,2037,2038,0,0,2036,2037,2038,2129,2130,2131,2132,2133,
2033,2034,2035,0,0,0,0,0,0,0,0,0,0,0,0,0,0,0,0,0,0,0,0,0,0,0,0,0,0,0,0,0,0,0,0,0,0,0,0,0,0,0,2033,2034,2035,2134,2135,2136,2137,2138,
2036,2037,2038,0,0,0,0,0,0,0,0,0,0,0,0,0,0,0,0,0,0,0,0,0,2030,2031,2032,0,0,0,0,0,0,0,0,0,0,0,0,0,2030,2031,2036,2037,2038,2032,2145,2033,2034,2035,
2045,2046,2047,0,0,0,0,0,0,0,0,0,0,0,0,0,0,0,0,0,0,0,0,0,2033,2034,2035,0,0,0,0,0,0,0,0,0,0,0,0,0,2033,2034,2035,2033,2034,2035,2150,2036,2037,2038,
2048,2049,2050,2032,0,0,0,0,0,0,0,0,0,0,0,0,0,0,0,0,0,0,0,0,2036,2037,2038,0,0,0,0,0,0,2030,2031,2032,0,0,0,0,2036,2037,2038,2036,2037,2038,2155,2156,2157,2158,
0,2033,2034,2035,0,0,0,0,0,0,0,0,0,0,0,0,0,0,0,0,0,0,0,0,0,0,0,0,0,0,0,0,0,2033,2034,2035,0,0,0,0,0,2033,2034,2035,2030,2159,2160,2161,2162,2163,
0,2036,2037,2038,0,0,0,0,0,0,0,0,0,0,0,0,0,0,0,0,0,0,0,0,0,0,0,0,0,0,0,2124,2125,2036,2037,2038,0,0,0,0,0,2036,2037,2038,2033,2034,2035,2045,2046,2047,
0,0,0,0,0,0,0,0,0,0,0,0,0,0,0,0,0,0,0,0,0,0,0,0,0,0,0,0,0,0,0,2129,2130,2131,2132,2133,0,0,0,0,0,0,0,0,2036,2037,2038,2048,2049,2050,
0,0,0,0,0,0,0,0,0,0,0,0,0,0,2193,0,0,0,0,0,0,0,0,0,0,0,0,0,0,0,0,2134,2135,2136,2137,2138,0,0,0,0,0,0,2193,0,0,0,0,0,0,0,
0,0,0,0,0,0,0,0,0,0,0,0,0,0,0,0,0,0,0,0,0,0,0,2030,2031,2032,0,0,0,0,0,2193,0,0,0,2193,2193,0,0,0,0,0,0,0,0,0,0,0,0,0,
0,0,0,0,2030,2031,2032,0,0,0,0,0,0,0,0,0,0,0,0,0,0,0,0,2033,2034,2035,0,0,0,0,0,0,0,0,0,0,0,0,0,0,0,0,0,0,0,0,0,2030,2031,2032,
2042,2043,2044,0,2033,2034,2035,2075,2076,2077,2078,0,0,0,0,0,0,0,0,0,0,0,0,2036,2037,2038,2055,2056,2057,2058,0,0,0,0,2030,2031,2032,0,0,2030,2031,2032,0,0,0,0,0,2033,2034,2035,
2045,2046,2047,2030,2036,2037,2038,2080,2081,2082,2083,0,0,0,0,0,0,0,0,0,0,0,0,0,0,2059,2060,2061,2062,2063,0,0,0,0,2033,2034,2035,0,0,2033,2034,2035,0,0,0,0,2030,2036,2037,2038,
2048,2049,2050,2033,2034,2035,2084,2085,2086,2087,2088,0,0,0,0,0,0,0,0,0,0,0,0,0,0,2064,2065,2066,2067,2068,0,0,0,0,2036,2037,2038,2032,2030,2036,2037,2038,0,0,0,0,2033,2034,2035,0,
2033,2034,2035,2036,2037,2038,2089,2090,2091,2092,2093,0,0,2030,2031,2032,0,0,0,0,0,0,0,0,0,0,0,0,0,0,0,0,0,0,2074,2033,2034,2035,2033,2034,2035,2125,2126,2127,2128,0,2036,2037,2038,0,
2036,2037,2038,2032,2033,2034,2035,0,0,2054,2055,2056,2057,2033,2034,2035,0,0,0,0,0,0,0,0,0,0,0,0,0,0,0,0,2030,2031,2079,2036,2037,2038,2036,2037,2038,2130,2131,2132,2133,0,0,2030,2031,2032,
0,2033,2034,2035,2036,2037,2038,2173,0,2059,2060,2061,2062,2036,2037,2038,0,0,0,0,0,0,0,0,0,0,0,0,2054,2055,2056,2057,2033,2034,2084,2085,2086,2087,2088,2030,2134,2135,2136,2137,2138,2032,0,2033,2034,2035,
0,2036,2037,2038,2175,2176,2177,2178,2032,2064,2065,2066,2067,2068,2031,2032,2056,2057,2058,2030,2031,2032,0,0,0,0,0,2030,2059,2060,2061,2062,2036,2037,2089,2090,2091,2092,2093,2033,2034,2035,0,2033,2034,2035,0,2036,2037,2038,
2030,2031,2032,2179,2180,2181,2182,2183,2035,2031,2045,2046,2047,2033,2034,2035,2061,2062,2063,2033,2034,2035,0,0,0,0,0,2033,2064,2065,2066,2067,2068,2030,2031,2032,2174,2175,2176,2036,2037,2038,2031,2036,2037,2038,2171,2033,2034,2035,
2033,2034,2035,2033,2034,2035,2036,2037,2038,2034,2048,2049,2050,2036,2037,2038,2066,2067,2068,2036,2037,2038,0,0,0,0,0,2036,2037,2038,2033,2034,2035,2033,2034,2035,2179,2180,2181,2182,2183,2033,2034,2035,2174,2175,2176,2036,2037,2038,
2036,2037,2038,2036,2037,2038,0,0,2036,2037,2038,2048,2049,2050,0,0,2159,2160,2161,2162,2163,0,0,0,0,0,0,0,0,0,2036,2037,2038,2036,2037,2038,2136,2137,2138,0,0,2036,2037,2038,2179,2180,2181,2182,2183,0,
0,0,0,0,0,0,0,0,0,0,0,0,0,0,0,0,0,0,0,0,0,0,0,0,0,0,0,0,0,0,0,0,0,0,0,0,0,0,0,0,0,0,0,0,0,0,0,0,0,0
</data>
 </layer>
 <layer id="15" name="deco" width="50" height="28">
  <data encoding="csv">
0,0,2032,0,0,0,2042,2043,2044,0,0,2030,2031,2032,0,2031,2032,0,0,0,0,0,0,0,0,0,0,0,0,0,0,0,0,0,0,0,0,2031,2032,2030,2031,2032,0,0,0,0,0,2030,2031,0,
0,0,0,0,0,0,0,0,0,0,0,0,0,0,0,0,0,0,0,0,0,0,0,0,0,0,0,0,0,0,0,0,0,0,0,0,0,0,0,0,0,0,0,0,0,0,0,0,0,0,
2030,2031,2032,0,0,0,0,2030,2031,0,0,2030,2031,2032,0,0,0,0,0,0,0,0,0,0,0,0,0,0,0,0,0,0,0,0,0,0,2031,2032,0,0,2054,2055,0,2057,2058,0,0,0,0,0,
0,0,0,0,0,0,0,0,0,0,0,0,0,0,0,0,0,0,0,0,0,0,0,0,0,0,0,0,0,0,0,0,0,0,0,0,0,0,0,0,0,0,0,0,0,0,0,0,0,0,
0,2030,2031,0,0,0,0,0,0,0,0,0,0,0,0,0,0,0,0,0,0,0,0,0,0,0,0,0,0,0,0,0,0,0,0,0,0,2030,0,0,0,0,2030,2031,2032,0,0,0,0,0,
0,0,0,0,0,0,0,0,0,0,0,0,0,0,0,0,0,0,0,0,0,0,0,0,0,0,0,0,0,0,0,0,0,0,0,0,0,0,0,0,0,0,0,0,0,0,2125,2126,2127,0,
0,2031,2032,0,0,0,0,0,0,0,0,0,0,0,0,0,0,0,0,0,0,0,0,0,0,0,0,0,0,0,0,0,0,0,0,0,0,0,0,0,0,0,2030,2031,2032,0,0,0,0,0,
0,0,0,0,0,0,0,0,0,0,0,0,0,0,0,0,0,0,0,0,0,0,0,0,0,0,0,0,0,0,0,0,0,0,0,0,0,0,0,0,0,0,0,0,0,0,0,2030,2031,2032,
2042,2043,2044,0,0,0,0,0,0,0,0,0,0,0,0,0,0,0,0,0,0,0,0,0,0,0,0,0,0,0,0,0,0,0,0,0,0,0,0,0,0,0,2032,2030,2031,2144,0,2146,2147,2148,
0,0,0,0,0,0,0,0,0,0,0,0,0,0,0,0,0,0,0,0,0,0,0,0,0,0,0,0,0,0,0,0,0,0,0,0,0,0,0,0,0,0,0,0,0,2149,0,2151,2152,2153,
0,2030,2031,0,0,0,0,0,0,0,0,0,0,0,0,0,0,0,0,0,0,0,0,0,0,0,0,0,0,0,0,0,0,0,0,0,0,0,0,0,0,2030,2031,2032,0,2154,0,0,0,0,
0,0,0,0,0,0,0,0,0,0,0,0,0,0,0,0,0,0,0,0,0,0,0,0,0,0,0,0,0,0,0,0,0,0,0,0,0,0,0,0,0,0,0,0,0,2031,2032,2042,2043,2044,
0,0,0,0,0,0,0,0,0,0,0,0,0,0,0,0,0,0,0,0,0,0,0,0,0,0,0,0,0,0,0,0,0,2126,2127,2128,0,0,0,0,0,0,0,0,0,0,0,0,0,0,
0,0,0,0,0,0,0,0,0,0,0,0,0,0,0,0,0,0,0,0,0,0,0,0,0,0,0,0,0,0,0,0,0,0,0,0,0,0,0,0,0,0,0,0,0,0,0,0,0,0,
0,0,0,0,0,0,0,0,0,0,0,0,0,0,0,0,0,0,0,0,0,0,0,0,0,0,0,0,0,0,0,0,0,0,0,0,0,0,0,0,0,0,0,0,0,0,0,0,0,0,
0,0,0,0,0,0,0,0,0,0,0,0,0,0,0,0,0,0,0,0,0,0,0,0,0,0,0,0,0,0,0,0,0,0,0,0,0,0,0,0,0,0,0,0,0,0,0,0,0,0,
0,0,0,0,0,0,0,0,0,0,0,0,0,0,0,0,0,0,0,0,0,0,0,0,0,0,0,0,0,0,0,0,0,0,0,0,0,0,0,0,0,0,0,0,0,0,0,0,0,0,
0,0,0,0,0,0,2074,0,0,0,0,0,0,0,0,0,0,0,0,0,0,0,0,0,0,2054,0,0,0,0,0,0,0,0,0,0,0,0,0,0,0,0,0,0,0,0,0,0,0,0,
0,0,0,0,2031,2032,2079,0,0,0,0,0,0,0,0,0,0,0,0,0,0,0,0,0,0,0,0,0,0,0,0,0,0,0,0,0,0,0,0,0,0,0,0,0,0,0,0,2031,2032,0,
2030,2031,2032,0,0,0,0,0,0,0,0,0,0,0,0,0,0,0,0,0,0,0,0,0,0,0,0,0,0,0,0,0,0,0,0,2030,2031,0,0,2031,2032,0,0,0,0,0,0,0,0,0,
0,0,0,0,2030,2031,2032,0,0,0,0,0,0,0,0,0,0,0,0,0,0,0,0,0,0,0,0,0,0,0,0,0,0,0,0,2075,2076,2077,2078,0,2124,0,0,0,0,0,0,0,0,0,
0,2030,2031,0,0,0,0,0,0,0,0,0,0,2058,0,0,0,0,0,0,0,0,0,0,0,0,0,0,0,0,0,0,0,0,2032,2080,2081,2082,2083,0,2129,0,0,0,0,0,0,0,0,0,
0,0,0,2169,2170,2171,2172,0,0,0,0,0,0,2063,0,0,0,0,0,0,0,0,0,0,0,0,0,0,0,0,0,0,2058,0,2035,0,0,0,0,0,2031,2032,0,2030,2031,0,0,0,0,0,
0,0,0,2174,0,0,2030,2031,0,0,2042,2043,2044,2030,2054,2055,2144,2145,2146,2147,2148,0,0,0,0,0,0,0,2031,2032,0,0,2063,0,2038,0,2169,2170,2171,2172,2173,0,0,0,0,0,0,2030,2031,2032,
0,0,0,2030,2031,2032,2033,2034,2030,0,2032,2042,2043,2044,2059,2060,2149,2150,2151,2152,2153,0,0,0,0,0,0,0,2034,2035,2030,2031,2032,0,2124,2125,2126,2127,2128,2177,2178,2030,0,2032,2169,2170,0,2172,2173,0,
0,0,0,0,0,0,0,0,2033,0,2035,2045,2046,2047,2064,2065,2154,2155,2156,2157,2158,0,0,0,0,0,0,0,0,0,0,0,0,0,2129,2130,2131,2132,2133,0,0,0,0,0,0,0,0,2177,2178,0,
0,0,0,0,0,0,0,0,0,0,0,0,0,0,0,0,0,0,0,0,0,0,0,0,0,0,0,0,0,0,0,0,0,0,2134,2135,0,0,0,0,0,0,0,0,0,0,0,0,0,0,
0,0,0,0,0,0,0,0,0,0,0,0,0,0,0,0,0,0,0,0,0,0,0,0,0,0,0,0,0,0,0,0,0,0,0,0,0,0,0,0,0,0,0,0,0,0,0,0,0,0
</data>
 </layer>
 <layer id="16" name="roof" width="50" height="28">
  <data encoding="csv">
0,0,0,0,0,0,0,0,0,0,0,0,0,0,0,0,0,0,0,0,0,0,0,0,0,0,0,0,0,0,0,0,0,0,0,0,0,0,0,0,0,0,0,0,0,0,0,0,0,0,
0,0,0,0,0,0,0,0,0,0,0,0,0,0,0,0,0,0,0,0,0,0,0,0,0,0,0,0,0,0,0,0,0,0,0,0,0,0,0,0,0,0,0,0,0,0,0,0,0,0,
0,0,0,0,0,0,0,0,0,0,0,0,0,0,0,0,0,0,0,0,0,0,0,0,0,0,0,0,0,0,0,0,0,0,0,0,0,0,0,0,0,0,0,0,0,0,0,0,0,0,
0,0,0,0,0,0,0,0,0,0,0,0,0,0,0,0,0,0,0,0,0,0,0,0,0,0,0,0,0,0,0,0,0,0,0,0,0,0,0,0,0,0,0,0,0,0,0,0,0,0,
0,0,0,0,0,0,0,0,0,0,0,0,0,0,0,0,0,0,0,0,0,0,0,0,0,0,0,0,0,0,0,0,0,0,0,0,0,0,0,0,0,0,0,0,0,0,0,0,0,0,
0,0,0,0,0,0,0,0,0,0,0,0,0,0,0,0,0,0,0,0,0,0,0,0,0,0,0,0,0,0,0,0,0,0,0,0,0,0,0,0,0,0,0,0,0,0,0,0,0,0,
0,0,0,0,0,0,0,0,0,0,0,0,0,0,0,0,0,0,0,0,0,0,0,0,0,0,0,0,0,0,0,0,0,0,0,0,0,0,0,0,0,0,0,0,0,0,0,0,0,0,
0,0,0,0,0,0,0,0,0,0,0,0,0,0,0,0,0,0,0,0,0,0,0,0,0,0,0,0,0,0,0,0,0,0,0,0,0,0,0,0,0,0,0,0,0,0,0,0,0,0,
0,0,0,0,0,0,0,0,0,0,0,0,0,0,0,0,0,0,0,0,0,0,0,0,0,0,0,0,0,0,0,0,0,0,0,0,0,0,0,0,0,0,0,0,0,0,0,0,0,0,
0,0,0,0,0,0,0,0,0,0,0,0,0,0,0,0,0,0,0,0,0,0,0,0,0,0,0,0,0,0,0,0,0,0,0,0,0,0,0,0,0,0,0,0,0,0,0,0,0,0,
0,0,0,0,0,0,0,0,0,0,0,0,0,0,0,0,0,0,0,0,0,0,0,0,0,0,0,0,0,0,0,0,0,0,0,0,0,0,0,0,0,0,0,0,0,0,0,0,0,0,
0,0,0,0,0,0,0,0,0,0,0,0,0,0,0,0,0,0,0,0,0,0,0,0,0,0,0,0,0,0,0,0,0,0,0,0,0,0,0,0,0,0,0,0,0,0,0,0,0,0,
0,0,0,0,0,0,0,0,0,0,0,0,0,0,0,0,0,0,0,0,0,0,0,0,0,0,0,0,0,0,0,0,0,0,0,0,0,0,0,0,0,0,0,0,0,0,0,0,0,0,
0,0,0,0,0,0,0,0,0,0,0,0,0,0,0,0,0,0,0,0,0,0,0,0,0,0,0,0,0,0,0,0,0,0,0,0,0,0,0,0,0,0,0,0,0,0,0,0,0,0,
0,0,0,0,0,0,0,0,0,0,0,0,0,0,0,0,0,0,0,0,0,0,0,0,0,0,0,0,0,0,0,0,0,0,0,0,0,0,0,0,0,0,0,0,0,0,0,0,0,0,
0,0,0,0,0,0,0,0,0,0,0,0,0,0,0,0,0,0,0,0,0,0,0,0,0,0,0,0,0,0,0,0,0,0,0,0,0,0,0,0,0,0,0,0,0,0,0,0,0,0,
0,0,0,0,0,0,0,0,0,0,0,0,0,0,0,0,0,0,0,0,0,0,0,0,0,0,0,0,0,0,0,0,0,0,0,0,0,0,0,0,0,0,0,0,0,0,0,0,0,0,
0,0,0,0,0,0,0,0,0,0,0,0,0,0,0,0,0,0,0,0,0,0,0,0,0,0,0,0,0,0,0,0,0,0,0,0,0,0,0,0,0,0,0,0,0,0,0,0,0,0,
0,0,0,0,0,0,0,0,0,0,0,0,0,0,0,0,0,0,0,0,0,0,0,0,0,0,0,0,0,0,0,0,0,0,0,0,0,0,0,0,0,0,0,0,0,0,0,0,0,0,
0,0,0,0,0,0,0,0,0,0,0,0,0,0,0,0,0,0,0,0,0,0,0,0,0,0,0,0,0,0,0,0,0,0,0,0,0,0,0,0,0,0,0,0,0,0,0,0,0,0,
0,0,0,0,0,0,0,0,0,0,0,0,0,0,0,0,0,0,0,0,0,0,0,0,0,0,0,0,0,0,0,0,0,0,0,0,0,0,0,0,0,0,0,0,0,0,0,0,0,0,
0,0,0,0,0,0,0,0,0,0,0,0,0,0,0,0,0,0,0,0,0,0,0,0,0,0,0,0,0,0,0,0,0,0,0,0,0,0,0,0,0,0,0,0,0,0,0,0,0,0,
0,0,0,0,0,0,0,0,0,0,0,0,0,0,0,0,0,0,0,0,0,0,0,0,0,0,0,0,0,0,0,0,0,0,0,0,0,0,0,0,0,0,0,0,0,0,0,0,0,0,
0,0,0,0,0,0,0,0,0,0,0,0,0,0,0,0,0,0,0,0,0,0,0,0,0,0,0,0,0,0,0,0,0,0,0,0,0,0,0,0,0,0,0,0,0,0,0,0,0,0,
0,0,0,0,0,0,0,0,0,0,0,0,0,0,0,0,0,0,0,0,0,0,0,0,0,0,0,0,0,0,0,0,0,0,0,0,0,0,0,0,0,0,0,0,0,0,0,0,0,0,
0,0,0,0,0,0,0,0,0,0,0,0,0,0,0,0,0,0,0,0,0,0,0,0,0,0,0,0,0,0,0,0,0,0,0,0,0,0,0,0,0,0,0,0,0,0,0,0,0,0,
0,0,0,0,0,0,0,0,0,0,0,0,0,0,0,0,0,0,0,0,0,0,0,0,0,0,0,0,0,0,0,0,0,0,0,0,0,0,0,0,0,0,0,0,0,0,0,0,0,0,
0,0,0,0,0,0,0,0,0,0,0,0,0,0,0,0,0,0,0,0,0,0,0,0,0,0,0,0,0,0,0,0,0,0,0,0,0,0,0,0,0,0,0,0,0,0,0,0,0,0
</data>
 </layer>
 <objectgroup id="2" name="characters">
  <!-- 표지판, 고블린이 훔친 짐 / 눈 말캉이 5(Lv38~39), 고블린 약탈자 4(Lv39~41, 서쪽 야영지) -->
  <object id="10" name="눈 말캉이-1" type="character" x="848" y="736" width="32" height="32">
   <properties>
    <property name="blocksMovement" type="bool" value="true"/>
    <property name="monster.level" type="int" value="38"/>
    <property name="type" value="monster_snow_slime"/>
   </properties>
  </object>
  <object id="11" name="눈 말캉이-2" type="character" x="560" y="736" width="32" height="32">
   <properties>
    <property name="blocksMovement" type="bool" value="true"/>
    <property name="monster.level" type="int" value="38"/>
    <property name="type" value="monster_snow_slime"/>
   </properties>
  </object>
  <object id="12" name="눈 말캉이-3" type="character" x="944" y="416" width="32" height="32">
   <properties>
    <property name="blocksMovement" type="bool" value="true"/>
    <property name="monster.level" type="int" value="39"/>
    <property name="type" value="monster_snow_slime"/>
   </properties>
  </object>
  <object id="13" name="눈 말캉이-4" type="character" x="1040" y="320" width="32" height="32">
   <properties>
    <property name="blocksMovement" type="bool" value="true"/>
    <property name="monster.level" type="int" value="39"/>
    <property name="type" value="monster_snow_slime"/>
   </properties>
  </object>
  <object id="14" name="눈 말캉이-5" type="character" x="688" y="256" width="32" height="32">
   <properties>
    <property name="blocksMovement" type="bool" value="true"/>
    <property name="monster.level" type="int" value="39"/>
    <property name="type" value="monster_snow_slime"/>
   </properties>
  </object>
  <object id="15" name="고블린 약탈자-1" type="character" x="272" y="416" width="32" height="32">
   <properties>
    <property name="blocksMovement" type="bool" value="true"/>
    <property name="monster.level" type="int" value="39"/>
    <property name="type" value="monster_goblin"/>
   </properties>
  </object>
  <object id="16" name="고블린 약탈자-2" type="character" x="400" y="288" width="32" height="32">
   <properties>
    <property name="blocksMovement" type="bool" value="true"/>
    <property name="monster.level" type="int" value="40"/>
    <property name="type" value="monster_goblin"/>
   </properties>
  </object>
  <object id="17" name="고블린 약탈자-3" type="character" x="208" y="288" width="32" height="32">
   <properties>
    <property name="blocksMovement" type="bool" value="true"/>
    <property name="monster.level" type="int" value="40"/>
    <property name="type" value="monster_goblin"/>
   </properties>
  </object>
  <object id="18" name="고블린 약탈자-4" type="character" x="432" y="416" width="32" height="32">
   <properties>
    <property name="blocksMovement" type="bool" value="true"/>
    <property name="monster.level" type="int" value="41"/>
    <property name="type" value="monster_goblin"/>
   </properties>
  </object>
  <object id="1" name="pass_south_sign" type="character" x="848" y="800" width="32" height="32">
   <properties>
    <property name="type" value="sign_inn"/>
    <property name="blocksMovement" type="bool" value="false"/>
    <property name="displayText" value="서리목 ↑ · 티르코네일 ↓"/>
   </properties>
  </object>
  <object id="2" name="goblin_loot" type="character" x="240" y="256" width="32" height="32">
   <properties>
    <property name="blocksMovement" type="bool" value="true"/>
    <property name="controller.dialogueLines" type="list">
     <item value="고블린들이 훔쳐 온 상자다. 서리목 마을 낙인이 찍혀 있다."/>
    </property>
    <property name="controller.scriptId" value="vn-dialogue"/>
    <property name="displayText" value="훔친 짐"/>
    <property name="type" value="cave_prop_crate_bones"/>
   </properties>
  </object>
 </objectgroup>
 <objectgroup id="3" name="portals">
  <!-- 남쪽 → 티르코네일 (10, 1), 북쪽 → 서리목 (22, 33). -->
  <object id="30" name="town_road" type="portal" x="736" y="864" width="96" height="32">
   <properties>
    <property name="appearanceType" value="stairs_stone_step_base_00"/>
    <property name="targetFacing" value="down"/>
    <property name="targetSceneId" value="town"/>
    <property name="targetSpawnTileX" type="int" value="10"/>
    <property name="targetSpawnTileY" type="int" value="1"/>
   </properties>
  </object>
  <object id="31" name="frost_village_road" type="portal" x="736" y="0" width="96" height="32">
   <properties>
    <property name="appearanceType" value="stairs_stone_step_base_00"/>
    <property name="targetFacing" value="up"/>
    <property name="targetSceneId" value="frost-village"/>
    <property name="targetSpawnTileX" type="int" value="22"/>
    <property name="targetSpawnTileY" type="int" value="33"/>
   </properties>
  </object>
 </objectgroup>
</map>
