<?xml version="1.0" encoding="UTF-8"?>
<map version="1.10" tiledversion="1.12.1" orientation="orthogonal" renderorder="right-down" width="44" height="36" tilewidth="32" tileheight="32" infinite="0" nextlayerid="17" nextobjectid="80">
<!-- scripts/generate-reed-village.py 가 생성한다. 손으로 고치지 말고 스크립트를 고친 뒤 다시 돌릴 것. -->
 <tileset firstgid="1" source="../tilesets/town-32.tsx"/>
 <layer id="10" name="ground" width="44" height="36">
  <data encoding="csv">
639,639,639,639,639,639,639,639,639,639,639,639,639,639,639,639,639,639,639,639,639,639,639,639,639,639,639,1353,1354,1353,1353,1353,1354,1353,639,639,639,639,639,639,639,639,639,639,
639,639,639,639,639,639,639,639,639,639,639,639,639,639,639,639,639,639,639,639,639,639,639,639,639,639,1353,1353,1354,1354,1353,1353,1354,1354,1353,1353,1354,639,639,639,639,639,639,639,
639,639,639,639,639,639,639,639,639,639,639,639,639,639,639,639,639,639,639,639,639,639,639,639,639,639,1353,1354,1353,1354,1353,1354,1353,1354,1353,1354,1353,639,639,639,639,639,639,639,
639,639,639,639,639,639,639,639,639,639,639,639,639,639,639,639,639,639,639,639,639,639,639,639,639,1353,1353,1354,1353,1353,1353,1354,1353,1353,1353,1354,1353,639,639,639,639,639,639,639,
639,639,639,639,639,639,639,1353,1353,639,639,639,639,639,639,639,639,639,639,639,639,639,639,639,639,1353,1354,1354,1353,1353,1354,1353,1353,1353,1354,1353,1353,639,639,639,639,639,639,639,
639,639,639,639,639,639,1354,1354,1353,639,639,639,639,639,639,639,639,639,639,639,639,639,639,639,1353,1353,1353,1354,1353,1353,1354,1354,1353,1353,1353,1354,1353,1353,639,639,639,639,639,639,
639,639,639,639,639,639,639,1353,1353,639,639,639,639,639,639,639,639,639,639,639,639,639,639,639,639,1353,1353,1353,1353,1353,1353,1353,1354,1353,1353,1353,1353,1353,639,639,639,639,639,639,
639,639,639,639,639,639,639,639,639,639,639,639,639,639,639,639,639,639,639,639,639,639,639,639,639,1353,1354,1353,1353,1354,1353,1353,1354,1353,1354,1353,639,639,639,639,1354,1353,639,639,
639,639,639,639,639,639,639,639,639,639,639,639,639,639,639,639,639,639,639,639,639,639,639,639,639,639,639,639,1354,1353,1353,1354,1353,1353,639,639,639,639,639,639,1353,1354,639,639,
639,639,639,639,639,639,639,639,639,639,639,639,639,639,639,639,639,639,639,639,639,639,639,639,639,639,639,639,639,1353,639,639,639,639,639,639,639,639,639,639,1354,1354,639,639,
639,639,639,639,639,639,639,639,639,639,639,639,639,639,639,639,639,639,639,639,639,639,639,639,639,639,639,639,639,639,639,639,639,639,639,639,639,639,639,639,1353,639,639,639,
639,639,639,639,639,639,639,639,639,639,639,639,639,639,639,639,639,639,639,639,639,639,639,639,639,639,639,639,639,639,639,639,639,639,639,639,639,639,639,639,639,639,639,639,
639,639,639,639,639,639,639,639,639,639,639,639,639,639,639,639,1353,1354,1354,1354,639,639,639,639,639,639,639,639,639,639,639,639,639,639,639,639,639,639,639,639,639,639,639,639,
639,639,639,639,639,639,639,639,639,639,639,639,639,639,639,639,1354,1353,1354,1353,1353,1353,639,639,639,639,639,639,639,639,639,639,639,639,639,639,639,639,639,639,639,639,639,639,
639,639,639,1354,1353,1354,639,639,639,639,639,639,639,639,1353,1353,1354,1353,1353,1353,1353,1354,1353,1353,639,639,639,639,639,639,639,639,639,639,639,1353,1353,1354,639,639,639,639,639,639,
639,639,1353,1354,1353,1354,639,639,639,639,639,639,639,1353,1353,1353,1354,1353,1353,1354,1353,1354,1354,1360,1360,1360,639,639,639,639,639,639,639,639,639,1354,1353,1354,639,639,639,639,639,639,
639,639,1354,1354,1353,1353,639,639,639,639,639,639,639,1353,1353,1354,1353,1353,1353,1353,1353,1353,1360,1360,1360,1360,639,639,639,639,639,639,639,639,639,639,639,639,639,639,639,639,639,639,
639,639,1354,1353,1353,1353,639,639,639,639,639,639,1353,1353,1354,1354,1353,1353,1354,1353,1353,1360,1360,1360,1360,1353,1353,639,639,639,639,639,639,639,639,639,639,639,639,639,639,639,639,639,
639,1353,1353,1353,1353,1353,639,639,639,639,639,639,1360,1360,1353,1353,1354,1353,1353,1353,1360,1360,1360,1360,1354,1353,1353,1353,639,639,639,639,639,639,639,639,639,639,639,639,639,639,639,639,
639,639,1353,1354,1353,1353,639,639,639,639,639,639,1360,1360,1360,1360,1354,1354,1353,1353,1360,1360,1360,1353,1354,1354,1354,639,639,639,639,639,639,639,639,639,639,639,639,639,639,639,639,639,
639,639,1353,1353,1353,1354,639,639,639,639,639,639,1360,1360,1360,1360,1360,1360,1360,1360,1360,1360,1360,1353,1353,1353,1353,639,639,639,639,639,639,639,639,639,639,639,639,639,639,639,639,639,
639,639,1353,1353,1353,1354,639,639,639,639,639,639,1354,1360,1360,1360,1360,1360,1360,1360,1360,1360,1360,1360,1360,1354,1353,1353,639,639,639,639,639,639,639,639,639,639,1353,1353,639,639,639,639,
639,639,639,639,639,639,639,639,639,639,639,1354,1353,1360,1360,1360,1353,1353,1360,1360,1360,1360,1360,1360,1360,1360,1353,639,639,639,639,639,639,639,639,639,1354,1354,1354,1353,1353,1353,1353,639,
639,639,639,639,639,639,639,639,639,639,639,639,1353,1360,1360,1360,1353,1353,1353,1354,1353,1353,1353,1360,1360,1360,1353,639,639,639,639,639,639,639,639,639,1353,1353,1354,1354,1353,1354,1353,1354,
639,639,639,639,639,639,639,639,639,639,639,639,1353,1360,1360,1360,1353,1353,1353,1354,1353,1353,1353,1354,1360,1360,639,639,639,639,639,639,639,639,639,1354,1353,1353,1354,1353,1353,1353,1354,1353,
639,639,639,639,639,639,639,639,639,639,639,639,639,1360,1360,1360,1354,1353,1353,1354,1353,1353,1353,1353,1353,1353,639,639,639,639,639,639,639,639,639,1353,1353,1353,1353,1354,1353,1353,1353,1353,
639,639,639,639,639,639,639,639,639,639,639,639,639,639,1360,1360,1354,1353,1353,1353,1353,1354,1354,1354,1353,639,639,639,639,639,639,639,639,639,639,1353,1353,1353,1353,1353,1353,1353,1353,1354,
639,639,639,639,639,639,639,639,639,639,639,639,639,639,639,1353,1353,1353,1353,1353,1353,1354,1354,639,639,639,639,639,639,639,639,639,639,639,1353,1354,1353,1353,1354,1353,1353,1353,1354,1353,
639,639,639,639,639,639,639,639,639,639,639,639,639,639,639,639,1353,639,639,639,639,639,639,639,639,639,639,639,639,639,639,639,639,639,1353,1353,1353,1354,1353,1353,1353,1353,1353,1354,
639,639,639,639,1353,1353,1353,1353,639,639,639,639,639,639,639,639,639,639,639,639,639,639,639,639,639,639,639,639,639,639,639,639,639,639,639,1353,1353,1354,1353,1353,1354,1353,1353,1354,
639,639,639,639,1353,1353,1354,1354,639,639,639,639,639,639,639,639,639,639,639,639,639,639,639,639,639,639,639,639,639,639,639,639,639,639,639,1353,1354,1353,1353,1354,1354,1354,1353,1353,
639,639,639,639,639,639,639,639,639,639,639,639,639,639,639,639,639,639,639,639,639,639,639,639,639,639,639,639,639,639,639,639,639,639,639,639,1354,1353,1353,1354,1353,1354,1353,639,
639,639,639,639,639,639,639,639,639,639,639,639,639,639,639,639,639,639,639,639,639,639,639,639,639,639,639,639,639,639,1353,1353,1353,639,639,639,639,639,639,639,639,639,639,639,
639,639,639,639,639,639,639,639,639,639,639,639,639,639,639,639,639,639,639,639,639,639,639,639,639,639,639,639,639,639,1353,1353,639,639,639,639,639,639,639,639,639,639,639,639,
639,639,639,639,639,639,639,639,639,639,639,639,639,639,639,639,639,639,639,639,639,639,639,639,639,639,639,639,639,639,639,639,639,639,639,639,639,639,639,639,639,639,639,639,
639,639,639,639,639,639,639,639,639,639,639,639,639,639,639,639,639,639,639,639,639,639,639,639,639,639,639,639,639,639,639,639,639,639,639,639,639,639,639,639,639,639,639,639
</data>
 </layer>
 <layer id="11" name="shadow_lower" width="44" height="36">
  <data encoding="csv">
0,0,0,0,0,0,0,0,0,0,0,0,0,0,0,0,0,0,0,0,0,0,0,0,1419,1445,1465,0,0,0,0,0,0,0,1456,1450,1449,1395,0,0,0,0,0,0,
0,0,0,0,0,0,0,0,0,0,0,0,0,0,0,0,0,0,0,0,0,0,0,0,1372,1443,0,0,0,0,1356,0,0,0,0,0,0,1405,0,0,0,0,0,0,
0,0,0,0,0,0,0,0,0,0,0,0,0,0,0,0,0,0,0,0,0,0,0,0,1423,1470,0,0,0,0,0,0,0,0,0,0,0,1460,1389,0,0,0,0,0,
0,0,0,0,0,0,1418,1447,1445,1394,0,0,0,1606,0,1608,0,0,0,0,0,0,0,0,1430,0,1694,1695,0,1697,1698,0,1359,0,1164,1164,1164,1412,1362,0,0,0,0,0,
1719,1720,0,1722,1723,1418,1468,0,1359,1404,0,0,0,0,0,0,1674,1675,0,1677,1678,0,0,1416,1465,0,0,0,0,0,0,0,1359,0,1165,1165,1165,1461,1396,1694,1695,0,1697,1698,
0,0,0,0,1421,1469,0,0,0,1401,0,0,0,0,0,0,0,0,0,0,0,0,0,1427,1719,1720,0,1722,1723,0,0,0,0,0,1166,1166,1166,1358,1404,0,0,0,0,0,
0,0,0,0,1377,1380,1441,1359,1356,1400,1739,1740,0,1742,1743,0,0,0,0,0,0,0,0,1375,1443,0,0,0,0,0,0,0,0,0,1167,1167,1167,1358,1401,1423,1446,1450,1396,0,
0,1606,0,1608,0,0,1377,1386,1384,1362,0,0,0,1649,1650,0,1652,1653,1624,1625,0,1627,1628,0,1434,1356,0,0,0,0,0,1356,0,0,0,1359,1412,1383,1425,1466,1359,1356,1404,0,
0,0,0,0,1674,1675,0,1677,1678,0,0,0,0,0,0,0,0,0,0,0,0,0,0,0,1378,1443,1415,1443,0,0,0,0,0,0,1407,1385,1369,0,1373,1438,0,1355,1402,0,
0,0,0,0,0,0,0,0,0,0,1694,1695,0,1697,1698,0,0,0,0,0,0,0,0,0,0,1783,1783,1377,1439,0,1408,1382,1436,1409,1361,0,0,0,1421,1466,1359,1356,1403,0,
0,0,0,0,0,0,0,0,0,0,0,0,0,0,0,0,0,0,0,0,0,0,0,0,0,1783,1783,0,1375,1387,1366,0,1371,1368,0,0,0,0,1378,1443,1356,1411,1362,0,
0,0,0,0,0,0,0,0,0,0,0,0,0,0,0,1416,1450,1452,1446,1447,1392,0,0,0,0,1783,1783,0,0,0,0,0,0,0,0,0,0,0,0,1377,1380,1364,0,0,
0,0,0,1424,1393,0,0,0,0,0,0,0,0,0,0,1426,1356,1356,0,0,1457,1451,1396,1419,1445,1783,1783,0,0,0,0,0,0,0,0,0,0,0,0,0,0,0,0,0,
0,0,1417,1468,1457,1451,1393,0,0,0,0,0,0,1418,1447,1463,0,0,0,0,0,0,1461,1464,1408,1783,1783,0,0,0,0,0,0,0,1423,1449,1448,1448,1389,0,0,0,0,0,
0,1417,1465,0,0,0,1401,0,0,0,0,0,1419,1469,0,0,0,0,0,0,0,0,0,0,1457,1451,1446,1391,0,0,0,0,0,0,1430,1359,0,1359,1398,0,0,0,0,0,
0,1431,0,0,0,0,1457,1392,0,0,0,0,1427,1356,0,0,0,0,0,0,0,0,0,1523,1494,1549,1409,1364,0,0,0,0,0,0,1431,0,0,1358,1402,0,0,0,0,0,
0,1434,0,0,0,0,1410,1365,0,0,1419,1445,1465,0,0,0,0,0,0,1359,0,1355,1525,1473,1528,1575,1461,1390,0,0,0,0,0,0,1377,1383,1386,1387,1369,0,0,0,0,0,
1782,1782,1782,1782,0,0,1782,1782,1782,1782,1782,1782,0,0,0,0,0,0,0,0,1359,1521,1478,1527,1578,0,0,1453,1394,0,0,0,0,0,0,0,0,0,0,0,0,0,0,0,
1782,1782,1782,1782,0,0,1782,1782,1782,1782,1782,1782,1522,1549,0,0,0,1358,0,0,1522,1475,1530,1576,0,0,0,0,1403,0,0,0,0,0,0,0,0,0,0,0,0,0,0,0,
1377,1436,0,0,0,0,1404,1784,1784,1784,1421,1463,1513,1483,1492,1552,0,0,0,0,1515,0,1539,0,0,0,0,1409,1361,0,0,0,0,0,0,0,0,0,0,0,0,0,0,0,
0,1426,1357,0,0,0,1402,0,0,0,1376,1438,1565,1503,0,1487,1493,1493,1490,1495,1479,0,1537,0,0,0,0,1459,1388,0,0,0,0,0,0,0,0,1421,1451,1452,1396,0,0,0,
0,1428,1359,0,0,0,1403,0,0,0,1417,1465,0,1510,0,1529,1561,1556,1498,1534,1500,0,1483,1492,1546,0,0,0,1398,0,0,0,0,0,1419,1451,1452,1470,0,1355,1460,1445,1444,1394,
0,1377,1380,1385,1440,1415,1363,0,0,0,1430,1357,1359,1507,0,1536,0,0,1565,1580,1563,1557,1561,1506,1482,1550,0,1415,1366,0,0,0,0,0,1372,1443,0,1624,1625,0,1627,1628,0,1460,
0,0,0,0,1373,1367,0,0,0,0,1375,1437,0,1507,0,1536,1359,0,0,0,0,0,0,1569,1501,1540,1359,1404,0,0,0,0,0,0,1417,1468,1359,0,0,0,0,0,0,0,
0,0,0,0,0,0,0,0,0,0,0,1426,1359,1509,0,1536,0,1355,0,0,0,0,0,0,1567,1576,1410,1782,1782,1782,1782,1782,1782,1782,1782,0,0,0,0,0,0,0,1356,0,
0,0,0,0,0,0,0,0,0,0,0,1372,1443,1569,1504,1537,0,0,0,0,0,0,0,0,0,1359,1399,1782,1782,1782,1782,1782,1782,1782,1782,0,0,0,0,0,0,0,0,0,
0,0,0,0,0,0,0,0,0,0,0,0,1377,1439,1569,1575,0,0,0,1694,1695,0,1697,1698,1359,1415,1369,1784,1784,1784,1784,1784,1784,1417,1462,0,0,0,0,0,0,0,0,0,
0,0,0,0,1422,1390,0,0,0,0,0,0,0,1374,1439,0,0,0,0,0,0,0,1359,1415,1387,1369,0,0,0,0,0,0,0,1429,0,0,0,0,0,0,0,0,0,0,
0,0,0,1420,1463,1454,1445,1444,1394,0,0,0,0,0,1375,1440,0,1412,1439,1407,1379,1379,1382,1368,0,0,0,0,0,0,0,0,0,1426,0,0,0,0,0,0,0,0,0,0,
0,0,0,1431,0,1355,0,1359,1405,0,0,0,0,0,0,1373,1382,1368,1374,1362,0,0,0,0,0,0,0,0,0,0,0,0,0,1370,1441,1359,0,1739,1740,0,1742,1743,0,0,
0,0,0,1434,0,0,0,1358,1403,0,0,0,0,0,0,0,0,0,0,0,0,0,0,0,0,0,0,0,0,0,0,0,0,0,1434,1358,0,0,0,0,0,0,0,0,
0,0,0,1378,1381,1438,1409,1382,1362,0,0,0,0,0,0,0,0,0,0,0,0,0,0,0,0,0,0,0,0,1421,1448,1445,1447,1395,1376,1441,0,0,0,0,0,0,0,1409,
0,0,0,0,0,1375,1369,0,0,0,0,0,0,0,0,0,0,0,0,0,0,0,0,0,0,0,0,0,1420,1469,0,1355,0,1405,0,1376,1435,1409,1435,1412,1436,1410,1380,1367,
0,0,0,0,0,0,0,0,0,0,0,0,0,0,0,0,0,0,0,0,0,0,0,0,0,0,0,0,1374,1439,1355,0,1415,1369,0,0,1372,1369,1372,1369,1371,1362,0,0,
0,0,0,0,0,0,0,0,0,0,0,0,0,0,0,0,0,0,0,0,0,0,0,0,0,0,0,0,0,1374,1380,1385,1369,0,0,0,0,0,0,0,0,0,0,0,
0,0,0,0,0,0,0,0,0,0,0,0,0,0,0,0,0,0,0,0,0,0,0,0,0,0,0,0,0,0,0,0,0,0,0,0,0,0,0,0,0,0,0,0
</data>
 </layer>
 <layer id="12" name="object" width="44" height="36">
  <data encoding="csv">
302,302,302,302,302,302,302,302,302,302,302,302,302,302,302,302,302,302,302,302,302,302,302,302,302,302,302,302,302,302,302,1150,463,1150,302,302,302,302,302,302,302,302,302,302,
302,302,302,302,302,302,302,302,302,302,302,302,302,302,302,302,302,302,302,302,302,302,302,302,302,0,1594,1595,1596,0,0,0,0,0,1594,1595,1596,302,302,302,302,302,302,302,
302,302,302,302,302,302,302,302,302,302,302,302,302,302,302,302,302,302,302,302,302,302,302,302,302,0,0,0,0,1753,1753,1753,1753,0,0,0,0,0,302,302,302,302,302,302,
302,302,302,302,302,302,302,302,302,302,302,302,302,302,1607,302,302,302,302,302,302,302,302,302,302,0,0,0,1696,1753,1753,1753,1753,0,0,0,0,0,302,302,302,302,302,302,
302,302,1721,302,302,302,302,1150,302,302,302,302,302,302,302,302,302,302,1676,302,302,302,302,302,0,0,0,0,0,1752,1756,1756,1754,0,0,0,0,0,302,302,302,1696,302,302,
302,302,302,302,302,302,1150,1150,302,302,302,302,302,302,302,302,302,302,302,302,302,302,302,302,0,0,1721,0,0,1755,1756,1756,1757,0,0,0,0,0,302,302,302,302,302,302,
302,302,302,302,302,302,302,302,302,302,302,302,1741,302,302,302,302,302,302,302,302,302,302,302,1158,0,0,0,0,1755,1756,1756,1757,0,0,0,0,0,302,302,302,302,302,302,
302,302,1607,302,302,302,302,302,302,302,302,302,302,302,302,1651,302,302,302,302,1626,302,302,302,302,0,0,0,0,1758,1759,1759,1760,0,0,0,0,302,302,302,302,302,302,302,
302,302,302,302,302,302,1676,302,302,302,302,302,302,302,302,302,302,302,302,302,302,302,302,302,302,0,0,1158,0,0,0,0,0,0,0,302,302,302,302,302,302,1158,302,302,
302,302,302,302,302,302,302,302,302,302,302,302,1696,302,302,302,302,302,302,302,302,302,302,302,302,0,0,302,0,0,0,302,0,0,302,302,302,302,302,302,302,1158,302,302,
302,302,302,302,302,302,302,302,302,302,302,302,302,302,302,302,302,302,302,302,302,302,302,302,302,0,0,302,302,302,302,302,302,302,302,302,302,302,302,1150,1158,302,302,302,
302,302,302,302,302,302,302,302,302,302,302,302,302,302,302,302,302,302,302,302,302,302,302,302,302,0,0,302,302,302,302,302,302,302,302,302,302,302,302,302,302,302,302,302,
302,302,302,302,302,302,302,302,302,302,302,302,302,302,302,302,0,0,0,0,0,302,302,302,302,0,0,302,302,302,302,302,302,302,302,302,302,302,302,302,302,302,302,302,
302,302,302,302,302,302,302,302,302,302,302,302,302,302,302,0,0,0,0,0,0,0,0,0,0,0,0,302,302,302,302,302,302,302,302,302,302,302,302,302,302,302,302,302,
302,302,302,1594,1595,1596,302,302,302,302,302,302,302,1594,1595,1596,0,1753,1753,1753,1753,0,0,0,0,302,302,302,302,302,302,302,302,302,302,302,302,302,302,302,302,302,302,302,
302,302,1158,527,0,0,0,302,302,302,302,302,302,0,0,0,0,1753,1753,1753,1753,0,0,0,0,0,0,302,302,302,302,302,302,302,302,1158,1158,1158,302,302,302,302,302,302,
302,302,0,0,0,0,0,302,302,302,302,302,0,0,0,0,0,1752,1756,1756,1754,0,0,0,0,0,0,302,302,302,302,302,302,302,302,302,302,302,302,302,302,302,302,302,
0,0,0,0,0,0,0,0,0,0,0,0,0,0,0,0,0,1755,1756,1756,1757,0,0,0,0,0,0,0,302,302,302,302,302,302,302,302,302,302,302,302,302,302,302,302,
0,0,0,0,0,0,0,0,0,0,0,0,0,0,0,0,0,1755,1756,1756,1757,0,0,0,0,0,1189,1158,302,302,302,302,302,302,302,302,302,302,302,302,302,302,302,302,
302,0,0,0,0,0,302,302,302,302,302,0,0,0,0,0,0,1758,1759,1759,1760,0,1189,1190,0,0,0,0,302,302,302,302,302,302,302,302,302,302,302,302,302,302,302,302,
302,302,0,0,0,0,302,302,302,302,302,0,1753,1753,1753,1753,0,0,0,0,0,0,0,0,0,0,0,1158,302,302,302,302,302,302,302,302,302,302,302,302,302,302,302,302,
302,302,1158,0,0,0,302,302,302,302,302,1158,1753,1753,1753,1753,0,0,0,0,0,0,0,0,0,0,0,0,302,302,302,302,302,302,302,302,302,0,0,0,0,302,302,302,
302,302,302,302,0,1158,302,302,302,302,302,1150,1752,1756,1756,1754,0,0,0,0,0,0,0,0,0,0,0,0,302,302,302,302,302,302,302,0,0,0,0,1626,463,1594,1595,1596,
302,302,302,302,302,302,302,302,302,302,302,1150,1755,1756,1756,1757,0,0,0,0,0,0,0,0,0,0,0,302,302,302,302,302,302,302,302,0,0,0,0,0,0,0,1150,1151,
302,302,302,302,302,302,302,302,302,302,302,302,1755,1756,1756,1757,0,0,0,0,0,0,0,0,0,0,0,0,0,0,0,0,0,0,0,1158,0,0,0,0,0,0,0,1151,
302,302,302,302,302,302,302,302,302,302,302,302,1758,1759,1759,1760,0,0,0,0,0,0,0,0,0,0,302,0,0,0,0,0,0,0,0,0,0,0,0,0,0,0,0,527,
302,302,302,302,302,302,302,302,302,302,302,302,302,0,0,0,0,0,0,0,1252,1696,0,1594,1595,1596,302,302,302,302,302,302,302,302,0,0,0,0,0,0,0,0,0,0,
302,302,302,302,302,302,302,302,302,302,302,302,302,302,0,0,0,0,0,0,0,0,1158,302,302,302,302,302,302,302,302,302,302,302,0,0,0,0,0,0,0,0,0,0,
302,302,302,302,302,1150,302,302,302,302,302,302,302,302,302,0,0,0,0,1158,302,302,302,302,302,302,302,302,302,302,302,302,302,302,0,0,0,0,0,0,0,0,1150,1150,
302,302,302,302,302,1150,302,302,302,302,302,302,302,302,302,302,302,302,302,302,302,302,302,302,302,302,302,302,302,302,302,302,302,302,1594,1595,1596,0,0,1741,0,0,0,1151,
302,302,302,302,1150,302,1158,1158,302,302,302,302,302,302,302,302,302,302,302,302,302,302,302,302,302,302,302,302,302,302,302,302,302,302,302,0,0,0,0,0,0,0,0,464,
302,302,302,302,302,302,1158,302,302,302,302,302,302,302,302,302,302,302,302,302,302,302,302,302,302,302,302,302,302,302,302,302,302,302,302,0,0,0,0,0,0,0,0,527,
302,302,302,302,302,302,302,302,302,302,302,302,302,302,302,302,302,302,302,302,302,302,302,302,302,302,302,302,302,302,1150,302,302,302,302,302,1594,1595,1596,1594,1595,1596,302,302,
302,302,302,302,302,302,302,302,302,302,302,302,302,302,302,302,302,302,302,302,302,302,302,302,302,302,302,302,302,1594,1595,1596,1158,302,302,302,302,302,302,302,302,302,302,302,
302,302,302,302,302,302,302,302,302,302,302,302,302,302,302,302,302,302,302,302,302,302,302,302,302,302,302,302,302,302,302,302,302,302,302,302,302,302,302,302,302,302,302,302,
302,302,302,302,302,302,302,302,302,302,302,302,302,302,302,302,302,302,302,302,302,302,302,302,302,302,302,302,302,302,302,302,302,302,302,302,302,302,302,302,302,302,302,302
</data>
 </layer>
 <layer id="13" name="shadow_upper" width="44" height="36">
  <data encoding="csv">
0,0,0,0,0,0,0,0,0,0,0,0,0,0,0,0,0,0,0,0,0,0,0,0,0,0,0,0,0,0,0,0,0,0,0,0,0,0,0,0,0,0,0,0,
0,0,0,0,0,0,0,0,0,0,0,0,0,0,0,0,0,0,0,0,0,0,0,0,0,0,0,0,0,0,0,0,0,0,0,0,0,0,0,0,0,0,0,0,
0,0,0,0,0,0,0,0,0,0,0,0,0,0,0,0,0,0,0,0,0,0,0,0,0,0,0,0,0,0,0,0,0,0,0,0,0,0,0,0,0,0,0,0,
0,0,0,0,0,0,0,0,0,0,0,0,0,0,0,0,0,0,0,0,0,0,0,0,0,0,0,0,0,0,0,0,0,0,0,0,0,0,0,0,0,0,0,0,
0,0,0,0,0,0,0,0,0,0,0,0,0,0,0,0,0,0,0,0,0,0,0,0,0,0,0,0,0,0,0,0,0,64,0,0,0,0,0,0,0,0,0,0,
0,0,0,0,0,0,0,0,0,0,0,0,0,0,0,0,0,0,0,0,0,0,0,0,0,0,0,0,0,0,0,0,0,64,0,0,0,0,0,0,0,0,0,0,
0,0,0,0,0,0,0,0,0,0,0,0,0,0,0,0,0,0,0,0,0,0,0,0,0,0,0,0,0,0,0,0,0,64,0,0,0,0,0,0,0,0,0,0,
0,0,0,0,0,0,0,0,0,0,0,0,0,0,0,0,0,0,0,0,0,0,0,0,0,0,0,0,0,0,0,0,0,63,0,0,0,0,0,0,0,0,0,0,
0,0,0,0,0,0,0,0,0,0,0,0,0,0,0,0,0,0,0,0,0,0,0,0,0,0,0,0,0,0,0,0,0,0,0,0,0,0,0,0,0,0,0,0,
0,0,0,0,0,0,0,0,0,0,0,0,0,0,0,0,0,0,0,0,0,0,0,0,0,0,0,0,0,0,0,0,0,0,0,0,0,0,0,0,0,0,0,0,
0,0,0,0,0,0,0,0,0,0,0,0,0,0,0,0,0,0,0,0,0,0,0,0,0,0,0,0,0,0,0,0,0,0,0,0,0,0,0,0,0,0,0,0,
0,0,0,0,0,0,0,0,0,0,0,0,0,0,0,0,0,0,0,0,0,0,0,0,0,0,0,0,0,0,0,0,0,0,0,0,0,0,0,0,0,0,0,0,
0,0,0,0,0,0,0,0,0,0,0,0,0,0,0,0,0,0,0,0,0,0,0,0,0,0,0,0,0,0,0,0,0,0,0,0,0,0,0,0,0,0,0,0,
0,0,0,0,0,0,0,0,0,0,0,0,0,0,0,0,0,0,0,0,0,0,0,0,0,0,0,0,0,0,0,0,0,0,0,0,0,0,0,0,0,0,0,0,
0,0,0,0,0,0,0,0,0,0,0,0,0,0,0,0,0,0,0,0,0,0,0,0,0,0,0,0,0,0,0,0,0,0,0,0,0,0,0,0,0,0,0,0,
0,0,0,0,0,0,0,0,0,0,0,0,0,0,0,0,0,0,0,0,0,0,0,0,0,0,0,0,0,0,0,0,0,0,0,0,0,0,0,0,0,0,0,0,
0,0,0,0,0,0,0,0,0,0,0,0,0,0,0,0,0,0,0,0,0,64,0,0,0,0,0,0,0,0,0,0,0,0,0,0,0,0,0,0,0,0,0,0,
0,0,0,0,0,0,0,0,0,0,0,0,0,0,0,0,0,0,0,0,0,64,0,0,0,0,0,0,0,0,0,0,0,0,0,0,0,0,0,0,0,0,0,0,
0,0,0,0,0,0,0,0,0,0,0,0,0,0,0,0,0,0,0,0,0,64,0,0,0,0,0,0,0,0,0,0,0,0,0,0,0,0,0,0,0,0,0,0,
0,0,0,0,0,0,0,0,0,0,0,0,0,0,0,0,0,0,0,0,0,63,0,0,0,0,0,0,0,0,0,0,0,0,0,0,0,0,0,0,0,0,0,0,
0,0,0,0,0,0,0,0,0,0,0,0,0,0,0,0,0,0,0,0,0,0,0,0,0,0,0,0,0,0,0,0,0,0,0,0,0,0,0,0,0,0,0,0,
0,0,0,0,0,0,0,0,0,0,0,0,0,0,0,0,0,0,0,0,0,0,0,0,0,0,0,0,0,0,0,0,0,0,0,0,0,0,0,0,0,0,0,0,
0,0,0,0,0,0,0,0,0,0,0,0,0,0,0,0,64,0,0,0,0,0,0,0,0,0,0,0,0,0,0,0,0,0,0,0,0,0,0,0,0,0,0,0,
0,0,0,0,0,0,0,0,0,0,0,0,0,0,0,0,64,0,0,0,0,0,0,0,0,0,0,0,0,0,0,0,0,0,0,0,0,0,0,0,0,0,0,0,
0,0,0,0,0,0,0,0,0,0,0,0,0,0,0,0,64,0,0,0,0,0,0,0,0,0,0,0,0,0,0,0,0,0,0,0,0,0,0,0,0,0,0,0,
0,0,0,0,0,0,0,0,0,0,0,0,0,0,0,0,63,0,0,0,0,0,0,0,0,0,0,0,0,0,0,0,0,0,0,0,0,0,0,0,0,0,0,0,
0,0,0,0,0,0,0,0,0,0,0,0,0,0,0,0,0,0,0,0,0,0,0,0,0,0,0,0,0,0,0,0,0,0,0,0,0,0,0,0,0,0,0,0,
0,0,0,0,0,0,0,0,0,0,0,0,0,0,0,0,0,0,0,0,0,0,0,0,0,0,0,0,0,0,0,0,0,0,0,0,0,0,0,0,0,0,0,0,
0,0,0,0,0,0,0,0,0,0,0,0,0,0,0,0,0,0,0,0,0,0,0,0,0,0,0,0,0,0,0,0,0,0,0,0,0,0,0,0,0,0,0,0,
0,0,0,0,0,0,0,0,0,0,0,0,0,0,0,0,0,0,0,0,0,0,0,0,0,0,0,0,0,0,0,0,0,0,0,0,0,0,0,0,0,0,0,0,
0,0,0,0,0,0,0,0,0,0,0,0,0,0,0,0,0,0,0,0,0,0,0,0,0,0,0,0,0,0,0,0,0,0,0,0,0,0,0,0,0,0,0,0,
0,0,0,0,0,0,0,0,0,0,0,0,0,0,0,0,0,0,0,0,0,0,0,0,0,0,0,0,0,0,0,0,0,0,0,0,0,0,0,0,0,0,0,0,
0,0,0,0,0,0,0,0,0,0,0,0,0,0,0,0,0,0,0,0,0,0,0,0,0,0,0,0,0,0,0,0,0,0,0,0,0,0,0,0,0,0,0,0,
0,0,0,0,0,0,0,0,0,0,0,0,0,0,0,0,0,0,0,0,0,0,0,0,0,0,0,0,0,0,0,0,0,0,0,0,0,0,0,0,0,0,0,0,
0,0,0,0,0,0,0,0,0,0,0,0,0,0,0,0,0,0,0,0,0,0,0,0,0,0,0,0,0,0,0,0,0,0,0,0,0,0,0,0,0,0,0,0,
0,0,0,0,0,0,0,0,0,0,0,0,0,0,0,0,0,0,0,0,0,0,0,0,0,0,0,0,0,0,0,0,0,0,0,0,0,0,0,0,0,0,0,0
</data>
 </layer>
 <layer id="14" name="object_upper" width="44" height="36">
  <data encoding="csv">
1699,1700,1701,1702,1703,0,0,0,0,0,0,0,0,1597,1598,1599,1654,1655,1656,1657,1658,0,0,0,0,0,1591,1592,1593,1682,1683,0,0,0,1591,1592,1593,0,0,0,0,0,0,0,
1704,1705,1706,1707,1708,0,0,0,0,0,0,0,0,1600,1601,1602,1659,1660,1661,1662,1663,0,0,0,1699,1700,1684,1685,1686,1687,1688,0,0,0,0,0,0,0,0,1679,1680,1681,1682,1683,
1709,1710,1711,1712,1713,0,0,0,0,0,0,0,0,1603,1604,1605,1664,1665,1666,1667,1668,0,0,0,1704,1705,1689,1690,1691,1692,1693,0,0,0,0,0,0,0,0,1684,1685,1686,1687,1688,
1714,1715,1716,1717,1718,0,0,0,0,0,1724,1725,1726,1727,1728,1631,1669,1670,1671,1672,1673,0,0,0,1709,1710,1711,1712,1713,0,0,0,0,0,0,0,0,0,0,1689,1690,1691,1692,1693,
0,1597,1598,1599,1654,1655,1656,1657,1658,0,1729,1730,1731,1732,1733,1636,1637,1638,1609,1610,1611,1612,1613,0,1714,1715,1716,1717,1718,0,0,0,0,0,0,0,0,0,0,0,0,0,0,0,
0,1600,1601,1602,1659,1660,1661,1662,1663,0,1734,1735,1736,1737,1738,1641,1642,1643,1614,1615,1616,1617,1618,0,1157,0,0,0,0,0,0,0,0,0,0,0,0,0,0,0,0,0,0,0,
0,1603,1604,1605,1664,1665,1666,1667,1668,0,1679,1680,1681,1644,1645,1646,1647,1648,1619,1620,1621,1622,1623,0,0,0,0,0,0,0,0,0,0,0,0,0,0,0,0,0,0,0,0,0,
0,0,0,0,1669,1670,1671,1672,1673,0,1684,1685,1686,1687,1688,0,0,0,0,0,0,0,0,0,0,0,0,1157,0,0,0,0,0,0,0,0,0,0,0,0,0,1157,0,0,
0,0,0,0,0,0,0,0,0,0,1689,1690,1691,1692,1693,0,0,0,0,0,0,0,0,0,0,0,0,0,0,0,0,0,0,0,0,0,0,0,0,0,0,1157,0,0,
0,0,0,0,0,0,0,0,0,0,0,0,0,0,0,0,0,0,0,0,0,0,0,0,0,0,0,0,0,0,0,0,0,0,0,0,0,0,0,0,1157,0,0,0,
0,0,0,0,0,0,0,0,0,0,0,0,0,0,0,0,0,0,0,0,0,0,0,0,0,0,0,0,0,0,0,0,0,0,0,0,0,0,0,0,0,0,0,0,
0,0,0,1585,1586,1587,0,0,0,0,0,0,0,1585,1586,1587,0,0,0,0,0,0,0,0,0,0,0,0,0,0,0,0,0,0,0,0,0,0,0,0,0,0,0,0,
0,0,0,1588,1589,1590,0,0,0,0,0,0,0,1588,1589,1590,0,0,0,0,0,0,0,0,0,0,0,0,0,0,0,0,0,0,0,0,0,0,0,0,0,0,0,0,
0,0,0,1591,1592,1593,0,0,0,0,0,0,0,1591,1592,1593,0,0,0,0,0,0,0,0,0,0,0,0,0,0,0,0,0,0,0,0,0,0,0,0,0,0,0,0,
0,0,1157,0,0,0,0,0,0,0,0,0,0,0,0,0,0,0,0,0,0,0,0,0,0,0,0,0,0,0,0,0,0,0,0,1157,1157,1157,0,0,0,0,0,0,
0,0,0,0,0,0,0,0,0,0,0,0,0,0,0,0,0,0,0,0,0,0,0,0,0,0,0,0,0,0,0,0,0,0,0,0,0,0,0,0,0,0,0,0,
0,0,0,0,0,0,0,0,0,0,0,0,0,0,0,0,0,0,0,0,0,0,0,0,0,0,0,0,0,0,0,0,0,0,0,0,0,0,0,0,0,0,0,0,
0,0,0,0,0,0,0,0,0,0,0,0,0,0,0,0,0,0,0,0,0,0,0,0,0,0,0,1157,0,0,0,0,0,0,0,0,0,0,0,0,0,0,0,0,
0,0,0,0,0,0,0,0,0,0,0,0,0,0,0,0,0,0,0,0,0,0,1187,1188,0,0,0,0,0,0,0,0,0,0,0,0,0,0,0,0,0,0,0,0,
0,0,0,0,0,0,0,0,0,0,0,0,0,0,0,0,0,0,0,0,0,0,0,0,0,0,0,1157,0,0,0,0,0,0,0,0,0,1609,1610,1611,1612,1613,1586,1587,
0,0,1157,0,0,0,0,0,0,0,0,1157,0,0,0,0,0,0,0,0,0,0,0,0,0,0,0,0,0,0,0,0,0,0,0,0,0,1614,1615,1616,1617,1618,1589,1590,
0,0,0,0,0,1157,0,0,0,0,0,0,0,0,0,0,0,0,0,0,0,0,0,0,0,0,0,0,0,0,0,0,0,0,0,0,0,1619,1620,1621,1622,1623,1592,1593,
0,0,0,0,0,0,0,0,0,0,0,0,0,0,0,0,0,0,0,0,0,0,0,0,0,0,0,0,0,0,0,0,0,0,0,0,0,0,0,0,0,0,0,0,
0,0,0,0,0,0,0,0,0,0,0,0,0,0,0,0,0,0,0,1679,1680,1681,1682,1585,1586,1587,0,0,0,0,0,0,0,0,0,1157,0,0,0,0,0,0,0,0,
0,0,0,0,0,0,0,0,0,0,0,0,0,0,0,0,0,0,0,1684,1685,1686,1687,1588,1589,1590,0,0,0,0,0,0,0,0,0,0,0,0,0,0,0,0,0,0,
0,0,0,0,0,0,0,0,0,0,0,0,0,0,0,0,0,0,0,1249,1250,1691,1692,1591,1592,1593,0,0,0,0,0,0,0,0,0,0,0,0,0,0,0,0,0,0,
0,0,0,0,0,0,0,0,0,0,0,0,0,0,0,0,0,0,0,0,0,0,1157,0,0,0,0,0,0,0,0,0,0,0,1585,1586,1587,1724,1725,1726,1727,1728,0,0,
0,0,0,0,0,0,0,0,0,0,0,0,0,0,0,0,0,0,0,1157,0,0,0,0,0,0,0,0,0,0,0,0,0,0,1588,1589,1590,1729,1730,1731,1732,1733,0,0,
0,0,0,0,0,0,0,0,0,0,0,0,0,0,0,0,0,0,0,0,0,0,0,0,0,0,0,0,0,0,0,0,0,0,1591,1592,1593,1734,1735,1736,1737,1738,0,0,
0,0,0,0,0,0,1157,1157,0,0,0,0,0,0,0,0,0,0,0,0,0,0,0,0,0,0,0,0,0,0,0,0,0,0,0,0,1585,1586,1587,1585,1586,1587,0,0,
0,0,0,0,0,0,1157,0,0,0,0,0,0,0,0,0,0,0,0,0,0,0,0,0,0,0,0,0,0,1585,1586,1587,0,0,0,0,1588,1589,1590,1588,1589,1590,0,0,
0,0,0,0,0,0,0,0,0,0,0,0,0,0,0,0,0,0,0,0,0,0,0,0,0,0,0,0,0,1588,1589,1590,0,0,0,0,1591,1592,1593,1591,1592,1593,0,0,
0,0,0,0,0,0,0,0,0,0,0,0,0,0,0,0,0,0,0,0,0,0,0,0,0,0,0,0,0,1591,1592,1593,1157,0,0,0,0,0,0,0,0,0,0,0,
0,0,0,0,0,0,0,0,0,0,0,0,0,0,0,0,0,0,0,0,0,0,0,0,0,0,0,0,0,0,0,0,0,0,0,0,0,0,0,0,0,0,0,0,
0,0,0,0,0,0,0,0,0,0,0,0,0,0,0,0,0,0,0,0,0,0,0,0,0,0,0,0,0,0,0,0,0,0,0,0,0,0,0,0,0,0,0,0,
0,0,0,0,0,0,0,0,0,0,0,0,0,0,0,0,0,0,0,0,0,0,0,0,0,0,0,0,0,0,0,0,0,0,0,0,0,0,0,0,0,0,0,0
</data>
 </layer>
 <layer id="15" name="deco" width="44" height="36">
  <data encoding="csv">
0,0,0,0,0,0,0,0,0,0,0,0,0,0,0,0,0,0,0,0,0,0,0,0,0,0,1679,1680,1681,0,0,0,0,0,0,0,0,0,0,0,0,0,0,0,
0,0,0,0,0,0,0,0,0,0,0,0,0,0,0,0,0,0,0,0,0,0,0,0,0,0,1701,1702,1703,0,0,0,0,0,0,0,0,0,0,0,0,0,0,0,
0,0,0,0,0,0,0,0,0,0,0,0,0,0,0,0,0,0,0,0,0,0,0,0,0,0,1706,1707,1708,0,0,0,0,0,0,0,0,0,0,0,0,0,0,0,
0,0,0,0,0,0,0,0,0,0,0,0,0,1629,1630,0,1632,1633,0,0,0,0,0,0,0,0,0,0,0,0,0,0,0,0,0,0,0,0,0,0,0,0,0,0,
0,0,0,0,0,0,0,0,0,0,0,0,0,1634,1635,0,0,0,0,0,0,0,0,0,0,0,0,0,0,0,1744,0,0,0,0,0,0,0,0,0,0,0,0,0,
0,0,0,0,0,0,0,0,0,0,0,0,0,1639,1640,0,0,0,0,0,0,0,0,0,0,0,0,0,0,0,1751,0,0,0,0,0,0,0,0,0,0,0,0,0,
0,0,0,0,0,0,0,0,0,0,0,0,0,1682,1683,0,0,0,0,0,0,0,0,0,0,0,0,0,0,0,1745,1746,1747,0,0,0,0,0,0,0,0,0,0,0,
0,0,0,0,0,0,0,0,0,0,0,0,0,0,0,0,0,0,0,0,0,0,0,0,0,0,0,0,0,0,1748,1749,1750,0,0,0,0,0,0,0,0,0,0,0,
0,0,0,0,0,0,0,0,0,0,0,0,0,0,0,0,0,0,0,0,0,0,0,0,0,0,0,0,0,0,0,0,0,0,0,0,0,0,0,0,0,0,0,0,
0,0,0,0,0,0,0,0,0,0,0,0,0,0,0,0,0,0,0,0,0,0,0,0,0,0,0,0,0,0,0,0,0,0,0,0,0,0,0,0,0,0,0,0,
0,0,0,0,0,0,0,0,0,0,0,0,0,0,0,0,0,0,0,0,0,0,0,0,0,0,0,0,0,0,0,0,0,0,0,0,0,0,0,0,0,0,0,0,
0,0,0,0,0,0,0,0,0,0,0,0,0,0,0,0,0,0,0,0,0,0,0,0,0,0,0,0,0,0,0,0,0,0,0,0,0,0,0,0,0,0,0,0,
0,0,0,0,0,0,0,0,0,0,0,0,0,0,0,0,0,0,0,0,0,0,0,0,0,0,0,0,0,0,0,0,0,0,0,0,0,0,0,0,0,0,0,0,
0,0,0,0,0,0,0,0,0,0,0,0,0,0,0,0,0,0,0,0,0,0,0,0,0,0,0,0,0,0,0,0,0,0,0,0,0,0,0,0,0,0,0,0,
0,0,0,0,0,0,0,0,0,0,0,0,0,0,0,0,0,0,0,0,0,0,0,0,0,0,0,0,0,0,0,0,0,0,0,0,0,0,0,0,0,0,0,0,
0,0,0,0,0,0,0,0,0,0,0,0,0,0,0,0,0,0,0,0,0,0,0,0,0,0,0,0,0,0,0,0,0,0,0,0,0,0,0,0,0,0,0,0,
0,0,0,0,0,0,0,0,0,0,0,0,0,0,0,0,0,0,1744,0,0,0,0,0,0,0,0,0,0,0,0,0,0,0,0,0,0,0,0,0,0,0,0,0,
0,0,0,0,0,0,0,0,0,0,0,0,0,0,0,0,0,0,1751,0,0,0,0,0,0,0,0,0,0,0,0,0,0,0,0,0,0,0,0,0,0,0,0,0,
0,0,0,0,0,0,0,0,0,0,0,0,0,0,0,0,0,0,1745,1746,1747,0,0,0,0,0,0,0,0,0,0,0,0,0,0,0,0,0,0,0,0,0,0,0,
0,0,0,0,0,0,0,0,0,0,0,0,0,0,0,0,0,0,1748,1749,1750,0,0,0,0,0,0,0,0,0,0,0,0,0,0,0,0,0,0,0,0,1585,0,0,
0,0,0,0,0,0,0,0,0,0,0,0,0,0,0,0,0,0,0,0,0,0,0,0,0,0,0,0,0,0,0,0,0,0,0,0,0,0,0,0,0,1588,0,0,
0,0,0,0,0,0,0,0,0,0,0,0,0,0,0,0,0,0,0,0,0,0,0,0,0,0,0,0,0,0,0,0,0,0,0,0,0,0,0,0,0,1591,0,0,
0,0,0,0,0,0,0,0,0,0,0,0,0,1744,0,0,0,0,0,0,0,0,0,0,0,0,0,0,0,0,0,0,0,0,0,0,0,0,0,0,0,0,0,0,
0,0,0,0,0,0,0,0,0,0,0,0,0,1751,0,0,0,0,0,0,0,0,0,1683,0,0,0,0,0,0,0,0,0,0,0,0,0,0,0,0,0,0,0,0,
0,0,0,0,0,0,0,0,0,0,0,0,0,1745,1746,1747,0,0,0,0,0,0,0,1688,0,0,0,0,0,0,0,0,0,0,0,0,0,0,0,0,0,0,0,0,
0,0,0,0,0,0,0,0,0,0,0,0,0,1748,1749,1750,0,0,0,0,0,0,0,1693,0,0,0,0,0,0,0,0,0,0,0,0,0,0,0,0,0,0,0,0,
0,0,0,0,0,0,0,0,0,0,0,0,0,0,0,0,0,0,0,0,0,0,0,0,0,0,0,0,0,0,0,0,0,0,0,0,0,0,0,0,0,0,0,0,
0,0,0,0,0,0,0,0,0,0,0,0,0,0,0,0,0,0,0,0,0,0,0,0,0,0,0,0,0,0,0,0,0,0,0,0,0,0,0,0,0,0,0,0,
0,0,0,0,0,0,0,0,0,0,0,0,0,0,0,0,0,0,0,0,0,0,0,0,0,0,0,0,0,0,0,0,0,0,0,0,0,0,0,0,0,0,0,0,
0,0,0,0,0,0,0,0,0,0,0,0,0,0,0,0,0,0,0,0,0,0,0,0,0,0,0,0,0,0,0,0,0,0,0,0,0,0,0,0,0,0,0,0,
0,0,0,0,0,0,0,0,0,0,0,0,0,0,0,0,0,0,0,0,0,0,0,0,0,0,0,0,0,0,0,0,0,0,0,0,0,0,0,0,0,0,0,0,
0,0,0,0,0,0,0,0,0,0,0,0,0,0,0,0,0,0,0,0,0,0,0,0,0,0,0,0,0,0,0,0,0,0,0,0,0,0,0,0,0,0,0,0,
0,0,0,0,0,0,0,0,0,0,0,0,0,0,0,0,0,0,0,0,0,0,0,0,0,0,0,0,0,0,0,0,0,0,0,0,0,0,0,0,0,0,0,0,
0,0,0,0,0,0,0,0,0,0,0,0,0,0,0,0,0,0,0,0,0,0,0,0,0,0,0,0,0,0,0,0,0,0,0,0,0,0,0,0,0,0,0,0,
0,0,0,0,0,0,0,0,0,0,0,0,0,0,0,0,0,0,0,0,0,0,0,0,0,0,0,0,0,0,0,0,0,0,0,0,0,0,0,0,0,0,0,0,
0,0,0,0,0,0,0,0,0,0,0,0,0,0,0,0,0,0,0,0,0,0,0,0,0,0,0,0,0,0,0,0,0,0,0,0,0,0,0,0,0,0,0,0
</data>
 </layer>
 <layer id="16" name="roof" width="44" height="36">
  <data encoding="csv">
0,0,0,0,0,0,0,0,0,0,0,0,0,0,0,0,0,0,0,0,0,0,0,0,0,0,0,0,0,173,1761,1762,176,0,0,0,0,0,0,0,0,0,0,0,
0,0,0,0,0,0,0,0,0,0,0,0,0,0,0,0,0,0,0,0,0,0,0,0,0,0,0,0,0,1763,1764,1765,1766,0,0,0,0,0,0,0,0,0,0,0,
0,0,0,0,0,0,0,0,0,0,0,0,0,0,0,0,0,0,0,0,0,0,0,0,0,0,0,0,0,1767,1768,1769,1770,0,0,0,0,0,0,0,0,0,0,0,
0,0,0,0,0,0,0,0,0,0,0,0,0,0,0,0,0,0,0,0,0,0,0,0,0,0,0,0,0,1771,1772,1773,1774,0,0,0,0,0,0,0,0,0,0,0,
0,0,0,0,0,0,0,0,0,0,0,0,0,0,0,0,0,0,0,0,0,0,0,0,0,0,0,0,0,1775,206,207,1776,0,0,0,0,0,0,0,0,0,0,0,
0,0,0,0,0,0,0,0,0,0,0,0,0,0,0,0,0,0,0,0,0,0,0,0,0,0,0,0,0,0,0,0,0,0,0,0,0,0,0,0,0,0,0,0,
0,0,0,0,0,0,0,0,0,0,0,0,0,0,0,0,0,0,0,0,0,0,0,0,0,0,0,0,0,0,0,0,0,0,0,0,0,0,0,0,0,0,0,0,
0,0,0,0,0,0,0,0,0,0,0,0,0,0,0,0,0,0,0,0,0,0,0,0,0,0,0,0,0,0,0,0,0,0,0,0,0,0,0,0,0,0,0,0,
0,0,0,0,0,0,0,0,0,0,0,0,0,0,0,0,0,0,0,0,0,0,0,0,0,0,0,0,0,0,0,0,0,0,0,0,0,0,0,0,0,0,0,0,
0,0,0,0,0,0,0,0,0,0,0,0,0,0,0,0,0,0,0,0,0,0,0,0,0,0,0,0,0,0,0,0,0,0,0,0,0,0,0,0,0,0,0,0,
0,0,0,0,0,0,0,0,0,0,0,0,0,0,0,0,0,0,0,0,0,0,0,0,0,0,0,0,0,0,0,0,0,0,0,0,0,0,0,0,0,0,0,0,
0,0,0,0,0,0,0,0,0,0,0,0,0,0,0,0,0,0,0,0,0,0,0,0,0,0,0,0,0,0,0,0,0,0,0,0,0,0,0,0,0,0,0,0,
0,0,0,0,0,0,0,0,0,0,0,0,0,0,0,0,0,173,1761,1762,176,0,0,0,0,0,0,0,0,0,0,0,0,0,0,0,0,0,0,0,0,0,0,0,
0,0,0,0,0,0,0,0,0,0,0,0,0,0,0,0,0,1763,1764,1765,1766,0,0,0,0,0,0,0,0,0,0,0,0,0,0,0,0,0,0,0,0,0,0,0,
0,0,0,0,0,0,0,0,0,0,0,0,0,0,0,0,0,1767,1768,1769,1770,0,0,0,0,0,0,0,0,0,0,0,0,0,0,0,0,0,0,0,0,0,0,0,
0,0,0,0,0,0,0,0,0,0,0,0,0,0,0,0,0,1771,1772,1773,1774,0,0,0,0,0,0,0,0,0,0,0,0,0,0,0,0,0,0,0,0,0,0,0,
0,0,0,0,0,0,0,0,0,0,0,0,0,0,0,0,0,1775,206,207,1776,0,0,0,0,0,0,0,0,0,0,0,0,0,0,0,0,0,0,0,0,0,0,0,
0,0,0,0,0,0,0,0,0,0,0,0,0,0,0,0,0,0,0,0,0,0,0,0,0,0,0,0,0,0,0,0,0,0,0,0,0,0,0,0,0,0,0,0,
0,0,0,0,0,0,0,0,0,0,0,0,173,1761,1762,176,0,0,0,0,0,0,0,0,0,0,0,0,0,0,0,0,0,0,0,0,0,0,0,0,0,0,0,0,
0,0,0,0,0,0,0,0,0,0,0,0,1763,1764,1765,1766,0,0,0,0,0,0,0,0,0,0,0,0,0,0,0,0,0,0,0,0,0,0,0,0,0,0,0,0,
0,0,0,0,0,0,0,0,0,0,0,0,1767,1768,1769,1770,0,0,0,0,0,0,0,0,0,0,0,0,0,0,0,0,0,0,0,0,0,0,0,0,0,0,0,0,
0,0,0,0,0,0,0,0,0,0,0,0,1771,1772,1773,1774,0,0,0,0,0,0,0,0,0,0,0,0,0,0,0,0,0,0,0,0,0,0,0,0,0,0,0,0,
0,0,0,0,0,0,0,0,0,0,0,0,1775,206,207,1776,0,0,0,0,0,0,0,0,0,0,0,0,0,0,0,0,0,0,0,0,0,0,0,0,0,0,0,0,
0,0,0,0,0,0,0,0,0,0,0,0,0,0,0,0,0,0,0,0,0,0,0,0,0,0,0,0,0,0,0,0,0,0,0,0,0,0,0,0,0,0,0,0,
0,0,0,0,0,0,0,0,0,0,0,0,0,0,0,0,0,0,0,0,0,0,0,0,0,0,0,0,0,0,0,0,0,0,0,0,0,0,0,0,0,0,0,0,
0,0,0,0,0,0,0,0,0,0,0,0,0,0,0,0,0,0,0,0,0,0,0,0,0,0,0,0,0,0,0,0,0,0,0,0,0,0,0,0,0,0,0,0,
0,0,0,0,0,0,0,0,0,0,0,0,0,0,0,0,0,0,0,0,0,0,0,0,0,0,0,0,0,0,0,0,0,0,0,0,0,0,0,0,0,0,0,0,
0,0,0,0,0,0,0,0,0,0,0,0,0,0,0,0,0,0,0,0,0,0,0,0,0,0,0,0,0,0,0,0,0,0,0,0,0,0,0,0,0,0,0,0,
0,0,0,0,0,0,0,0,0,0,0,0,0,0,0,0,0,0,0,0,0,0,0,0,0,0,0,0,0,0,0,0,0,0,0,0,0,0,0,0,0,0,0,0,
0,0,0,0,0,0,0,0,0,0,0,0,0,0,0,0,0,0,0,0,0,0,0,0,0,0,0,0,0,0,0,0,0,0,0,0,0,0,0,0,0,0,0,0,
0,0,0,0,0,0,0,0,0,0,0,0,0,0,0,0,0,0,0,0,0,0,0,0,0,0,0,0,0,0,0,0,0,0,0,0,0,0,0,0,0,0,0,0,
0,0,0,0,0,0,0,0,0,0,0,0,0,0,0,0,0,0,0,0,0,0,0,0,0,0,0,0,0,0,0,0,0,0,0,0,0,0,0,0,0,0,0,0,
0,0,0,0,0,0,0,0,0,0,0,0,0,0,0,0,0,0,0,0,0,0,0,0,0,0,0,0,0,0,0,0,0,0,0,0,0,0,0,0,0,0,0,0,
0,0,0,0,0,0,0,0,0,0,0,0,0,0,0,0,0,0,0,0,0,0,0,0,0,0,0,0,0,0,0,0,0,0,0,0,0,0,0,0,0,0,0,0,
0,0,0,0,0,0,0,0,0,0,0,0,0,0,0,0,0,0,0,0,0,0,0,0,0,0,0,0,0,0,0,0,0,0,0,0,0,0,0,0,0,0,0,0,
0,0,0,0,0,0,0,0,0,0,0,0,0,0,0,0,0,0,0,0,0,0,0,0,0,0,0,0,0,0,0,0,0,0,0,0,0,0,0,0,0,0,0,0
</data>
 </layer>
 <objectgroup id="2" name="characters">
  <!-- 사공 토빈, 촌장 미렌(c2-02 보고), 약초꾼 오디, 문지기 하르, 주민 둘 / 표지판 / 가라앉은 숲 문(닫힘) -->
  <object id="1" name="tobin" type="character" x="112" y="640" width="32" height="32">
   <properties>
    <property name="blocksMovement" type="bool" value="true"/>
    <property name="controller.dialogueLines" type="list">
     <item value="물길이 이렇게 불어난 건 처음이야. 노를 젓는 팔이 다 아프다니까."/>
     <item value="상류길 전망 둑으로 돌아가고 싶으면 나룻배에 타."/>
    </property>
    <property name="controller.scriptId" value="vn-dialogue"/>
    <property name="displayText" value="사공 토빈"/>
    <property name="type" value="character_commoner_tan_tunic"/>
    <property name="quest.hiddenWhenCompleted" value="q025-swamp-priest"/>
   </properties>
  </object>
  <object id="60" name="tobin" type="character" x="112" y="640" width="32" height="32">
   <properties>
    <property name="blocksMovement" type="bool" value="true"/>
    <property name="controller.dialogueLines" type="list">
     <item value="물이 빠지니까 노 젓기가 한결 수월해. 상류길로 가는 배는 언제든 태워 줄게."/>
     <item value="요 며칠 수로에 물고기가 다시 올라와. 늪이 숨을 쉬는 거지."/>
    </property>
    <property name="controller.scriptId" value="vn-dialogue"/>
    <property name="displayText" value="사공 토빈"/>
    <property name="type" value="character_commoner_tan_tunic"/>
    <property name="quest.requiresCompleted" value="q025-swamp-priest"/>
   </properties>
  </object>
  <object id="2" name="miren" type="character" x="688" y="672" width="32" height="32">
   <properties>
    <property name="blocksMovement" type="bool" value="true"/>
    <property name="controller.dialogueLines" type="list">
     <item value="갈대골은 가난해도 서로 돕고 사는 마을이라네."/>
     <item value="숲 쪽 일이라면 언제든 내게 묻게."/>
    </property>
    <property name="controller.scriptId" value="vn-dialogue"/>
    <property name="displayText" value="촌장 미렌"/>
    <property name="type" value="character_elder_gray_hair"/>
    <property name="quest.hiddenWhenCompleted" value="q025-swamp-priest"/>
   </properties>
  </object>
  <object id="61" name="miren" type="character" x="688" y="672" width="32" height="32">
   <properties>
    <property name="blocksMovement" type="bool" value="true"/>
    <property name="controller.dialogueLines" type="list">
     <item value="사냥꾼들이 모두 돌아왔네. 이 늙은이가 무슨 말로 고마움을 다 전하겠나."/>
     <item value="갈대골 사람들은 자네 이름을 오래 기억할 걸세."/>
    </property>
    <property name="controller.scriptId" value="vn-dialogue"/>
    <property name="displayText" value="촌장 미렌"/>
    <property name="type" value="character_elder_gray_hair"/>
    <property name="quest.requiresCompleted" value="q025-swamp-priest"/>
   </properties>
  </object>
  <object id="3" name="odi" type="character" x="1072" y="288" width="32" height="32">
   <properties>
    <property name="blocksMovement" type="bool" value="true"/>
    <property name="controller.dialogueLines" type="list">
     <item value="늪 약초는 독이 되기도 하고 약이 되기도 해요. 필요한 게 있으면 골라 보세요."/>
     <item value="독안개 냄새가 요즘 부쩍 짙어졌어요."/>
    </property>
    <property name="controller.scriptId" value="vn-dialogue"/>
    <property name="displayText" value="약초꾼 오디"/>
    <property name="type" value="character_villager_flower_dress"/>
    <property name="quest.hiddenWhenCompleted" value="q025-swamp-priest"/>
   </properties>
  </object>
  <object id="62" name="odi" type="character" x="1072" y="288" width="32" height="32">
   <properties>
    <property name="blocksMovement" type="bool" value="true"/>
    <property name="controller.dialogueLines" type="list">
     <item value="독안개가 걷히니 숲에서 처음 보는 약초가 올라와요. 렌이랑 같이 캐러 가기로 했어요."/>
     <item value="해독 향이 남았으면 버리지 마세요. 언젠가 또 쓸 일이 있을지 몰라요."/>
    </property>
    <property name="controller.scriptId" value="vn-dialogue"/>
    <property name="displayText" value="약초꾼 오디"/>
    <property name="type" value="character_villager_flower_dress"/>
    <property name="quest.requiresCompleted" value="q025-swamp-priest"/>
   </properties>
  </object>
  <object id="4" name="reed_guard" type="character" x="1296" y="832" width="32" height="32">
   <properties>
    <property name="blocksMovement" type="bool" value="true"/>
    <property name="controller.dialogueLines" type="list">
     <item value="저 문 너머가 가라앉은 숲이다. 숲길은 위험하다."/>
     <item value="촌장님 말씀을 듣고 가라. 개구리 녀석들이 떼로 다닌다."/>
    </property>
    <property name="controller.scriptId" value="vn-dialogue"/>
    <property name="displayText" value="문지기 하르"/>
    <property name="type" value="character_villager_brown_tunic"/>
    <property name="quest.hiddenWhenCompleted" value="q025-swamp-priest"/>
   </properties>
  </object>
  <object id="63" name="reed_guard" type="character" x="1296" y="832" width="32" height="32">
   <properties>
    <property name="blocksMovement" type="bool" value="true"/>
    <property name="controller.dialogueLines" type="list">
     <item value="숲 문은 이제 열어 두었다. 개구리 녀석들도 순해져서 사람을 보면 물로 뛰어든다."/>
     <item value="그래도 밤 숲은 조심해라. 늪은 늪이다."/>
    </property>
    <property name="controller.scriptId" value="vn-dialogue"/>
    <property name="displayText" value="문지기 하르"/>
    <property name="type" value="character_villager_brown_tunic"/>
    <property name="quest.requiresCompleted" value="q025-swamp-priest"/>
   </properties>
  </object>
  <object id="5" name="reed_weaver" type="character" x="784" y="736" width="32" height="32">
   <properties>
    <property name="blocksMovement" type="bool" value="true"/>
    <property name="controller.dialogueLines" type="list">
     <item value="갈대로 지붕을 이고, 갈대로 바구니를 엮지."/>
     <item value="물이 불어나서 갈대밭이 반이나 잠겼어."/>
    </property>
    <property name="controller.scriptId" value="vn-dialogue"/>
    <property name="displayText" value="갈대 엮는 네아"/>
    <property name="type" value="character_villager_flower_dress"/>
    <property name="quest.hiddenWhenCompleted" value="q025-swamp-priest"/>
   </properties>
  </object>
  <object id="64" name="reed_weaver" type="character" x="784" y="736" width="32" height="32">
   <properties>
    <property name="blocksMovement" type="bool" value="true"/>
    <property name="controller.dialogueLines" type="list">
     <item value="잠겼던 갈대밭이 다시 드러났어. 올가을엔 지붕을 새로 일 수 있겠어."/>
     <item value="사냥꾼들 돌아온 날 밤엔 마을이 다 같이 모닥불을 피웠지."/>
    </property>
    <property name="controller.scriptId" value="vn-dialogue"/>
    <property name="displayText" value="갈대 엮는 네아"/>
    <property name="type" value="character_villager_flower_dress"/>
    <property name="quest.requiresCompleted" value="q025-swamp-priest"/>
   </properties>
  </object>
  <object id="6" name="reed_fisher" type="character" x="208" y="544" width="32" height="32">
   <properties>
    <property name="blocksMovement" type="bool" value="true"/>
    <property name="controller.dialogueLines" type="list">
     <item value="요즘은 물고기도 숲 쪽으로 안 가."/>
     <item value="숲에서 종소리가 울리던 밤부터 다들 숨어 버렸지."/>
    </property>
    <property name="controller.scriptId" value="vn-dialogue"/>
    <property name="displayText" value="낚시꾼 베른"/>
    <property name="type" value="character_bearded_apron_man"/>
    <property name="quest.hiddenWhenCompleted" value="q025-swamp-priest"/>
   </properties>
  </object>
  <object id="65" name="reed_fisher" type="character" x="208" y="544" width="32" height="32">
   <properties>
    <property name="blocksMovement" type="bool" value="true"/>
    <property name="controller.dialogueLines" type="list">
     <item value="물고기가 숲 쪽으로 돌아가기 시작했어. 종소리가 멎은 뒤로 말이야."/>
     <item value="그런데 요즘 북쪽에서 부는 바람이 이상하게 차. 늪에선 겪어 본 적 없는 바람이야."/>
    </property>
    <property name="controller.scriptId" value="vn-dialogue"/>
    <property name="displayText" value="낚시꾼 베른"/>
    <property name="type" value="character_bearded_apron_man"/>
    <property name="quest.requiresCompleted" value="q025-swamp-priest"/>
   </properties>
  </object>
  <object id="20" name="reed_village_sign" type="character" x="144" y="512" width="32" height="32">
   <properties>
    <property name="type" value="sign_inn"/>
    <property name="blocksMovement" type="bool" value="false"/>
    <property name="displayText" value="갈대골"/>
   </properties>
  </object>
  <object id="21" name="herb_hut_sign" type="character" x="1104" y="256" width="32" height="32">
   <properties>
    <property name="type" value="sign_inn"/>
    <property name="blocksMovement" type="bool" value="false"/>
    <property name="displayText" value="약초 오두막"/>
   </properties>
  </object>
  <object id="22" name="forest_gate_sign" type="character" x="1328" y="800" width="32" height="32">
   <properties>
    <property name="type" value="sign_inn"/>
    <property name="blocksMovement" type="bool" value="false"/>
    <property name="displayText" value="가라앉은 숲 →"/>
   </properties>
  </object>
  <object id="25" name="ren" type="character" x="560" y="672" width="32" height="32">
   <properties>
    <property name="blocksMovement" type="bool" value="true"/>
    <property name="controller.dialogueLines" type="list">
     <item value="살려 줘서 고마워. 이 은혜는 꼭 갚을게."/>
     <item value="동쪽 유적에서 울리던 종소리… 아직도 귀에 맴돌아."/>
    </property>
    <property name="controller.scriptId" value="vn-dialogue"/>
    <property name="displayText" value="사냥꾼 렌"/>
    <property name="quest.requiresCompleted" value="q020-beyond-the-fog"/>
    <property name="quest.hiddenWhenCompleted" value="q025-swamp-priest"/>
    <property name="type" value="character_ranger_green"/>
   </properties>
  </object>
  <object id="26" name="ren" type="character" x="560" y="672" width="32" height="32">
   <properties>
    <property name="blocksMovement" type="bool" value="true"/>
    <property name="controller.dialogueLines" type="list">
     <item value="다들 돌아왔어! 넷 다 살아서!"/>
     <item value="종소리가 멎자 물 밑 방에 차 있던 물이 빠졌대. 네가 사제를 쓰러뜨린 그때였어."/>
    </property>
    <property name="controller.scriptId" value="vn-dialogue"/>
    <property name="displayText" value="사냥꾼 렌"/>
    <property name="quest.requiresCompleted" value="q025-swamp-priest"/>
    <property name="type" value="character_ranger_green"/>
   </properties>
  </object>
  <object id="70" name="waystone_reed-village" type="character" x="560" y="736" width="32" height="32">
   <properties>
    <property name="blocksMovement" type="bool" value="true"/>
    <property name="displayText" value="귀환 표지석"/>
    <property name="type" value="cave_prop_obelisk_r1c0"/>
   </properties>
  </object>
  <object id="71" name="waystone_reed-village_top" type="character" x="560" y="704" width="32" height="32">
   <properties>
    <property name="blocksMovement" type="bool" value="false"/>
    <property name="type" value="cave_prop_obelisk_r0c0"/>
   </properties>
  </object>
  <object id="27" name="returned_hunter_dar" type="character" x="592" y="768" width="32" height="32">
   <properties>
    <property name="blocksMovement" type="bool" value="true"/>
    <property name="controller.dialogueLines" type="list">
     <item value="석 달 동안 물 밑 방에 갇혀 있었어. 사제는 우리를 가둬 두기만 하고 아무것도 묻지 않더군."/>
     <item value="종이 울릴 때마다 물이 차오르고, 멎으면 빠졌지. 마치 무언가를 붙잡아 두려는 것처럼."/>
    </property>
    <property name="controller.scriptId" value="vn-dialogue"/>
    <property name="displayText" value="사냥꾼 다르"/>
    <property name="type" value="character_ranger_green"/>
    <property name="quest.requiresCompleted" value="q025-swamp-priest"/>
   </properties>
  </object>
  <object id="28" name="returned_hunter_mika" type="character" x="720" y="800" width="32" height="32">
   <properties>
    <property name="blocksMovement" type="bool" value="true"/>
    <property name="controller.dialogueLines" type="list">
     <item value="살아서 갈대골 흙을 밟을 줄은 몰랐어."/>
     <item value="물 밑에서 들은 말이 있어. 사제가 혼잣말로 &quot;북쪽이 깨기 전에&quot;라고 되뇌더군."/>
    </property>
    <property name="controller.scriptId" value="vn-dialogue"/>
    <property name="displayText" value="사냥꾼 미카"/>
    <property name="type" value="character_adventurer_brown_hair"/>
    <property name="quest.requiresCompleted" value="q025-swamp-priest"/>
   </properties>
  </object>
  <object id="30" name="forest_gate_0" type="character" x="1392" y="864" width="32" height="32">
   <properties>
    <property name="blocksMovement" type="bool" value="true"/>
    <property name="controller.dialogueLines" type="list">
     <item value="굵은 밧줄로 단단히 묶인 나무 문이다."/>
     <item value="문지기 하르가 지키고 있다."/>
    </property>
    <property name="controller.scriptId" value="vn-dialogue"/>
    <property name="quest.hiddenWhenCompleted" value="q017-reed-village"/>
    <property name="type" value="town_prop_fence_gate"/>
   </properties>
  </object>
  <object id="31" name="forest_gate_1" type="character" x="1392" y="896" width="32" height="32">
   <properties>
    <property name="blocksMovement" type="bool" value="true"/>
    <property name="controller.dialogueLines" type="list">
     <item value="굵은 밧줄로 단단히 묶인 나무 문이다."/>
     <item value="문지기 하르가 지키고 있다."/>
    </property>
    <property name="controller.scriptId" value="vn-dialogue"/>
    <property name="quest.hiddenWhenCompleted" value="q017-reed-village"/>
    <property name="type" value="town_prop_fence_gate"/>
   </properties>
  </object>
 </objectgroup>
 <objectgroup id="3" name="portals">
  <!-- 서쪽 나루 → 수로 상류길 전망 둑 (33, 14). 상류길의 나룻배(reed_ferry)는 이 맵의 도착 칸 (3, 17) 을 들고 있다. -->
  <object id="42" name="reed_well" type="portal" x="608" y="832" width="32" height="32">
   <properties>
    <property name="appearanceType" value="town_prop_well_open_r1c0"/>
    <property name="targetFacing" value="down"/>
    <property name="targetSceneId" value="reed-well"/>
    <property name="targetSpawnTileX" type="int" value="10"/>
    <property name="targetSpawnTileY" type="int" value="16"/>
   </properties>
  </object>
  <object id="43" name="outskirts_raft" type="portal" x="64" y="576" width="32" height="32">
   <properties>
    <property name="appearanceType" value="swamp_raft"/>
    <property name="quest.requiresCompleted" value="q027-ferry-shortcut"/>
    <property name="targetFacing" value="right"/>
    <property name="targetSceneId" value="ruins-outskirts"/>
    <property name="targetSpawnTileX" type="int" value="7"/>
    <property name="targetSpawnTileY" type="int" value="5"/>
   </properties>
  </object>
  <object id="40" name="ferry_dock" type="portal" x="0" y="544" width="32" height="64">
   <properties>
    <property name="appearanceType" value="swamp_raft"/>
    <property name="targetFacing" value="left"/>
    <property name="targetSceneId" value="upstream-waterway"/>
    <property name="targetSpawnTileX" type="int" value="33"/>
    <property name="targetSpawnTileY" type="int" value="14"/>
   </properties>
  </object>
  <object id="41" name="forest_gate" type="portal" x="1376" y="832" width="32" height="64">
   <properties>
    <property name="appearanceType" value="swamp_deck_h"/>
    <property name="quest.requiresCompleted" value="q017-reed-village"/>
    <property name="targetFacing" value="right"/>
    <property name="targetSceneId" value="sunken-forest"/>
    <property name="targetSpawnTileX" type="int" value="2"/>
    <property name="targetSpawnTileY" type="int" value="22"/>
   </properties>
  </object>
 </objectgroup>
</map>
