<?xml version="1.0" encoding="UTF-8"?>
<map version="1.10" tiledversion="1.12.1" orientation="orthogonal" renderorder="right-down" width="24" height="20" tilewidth="32" tileheight="32" infinite="0" nextlayerid="17" nextobjectid="40">
<!-- scripts/generate-reed-well.py 가 생성한다. 손으로 고치지 말고 스크립트를 고친 뒤 다시 돌릴 것. -->
 <tileset firstgid="1" source="../tilesets/town-32.tsx"/>
 <layer id="10" name="ground" width="24" height="20">
  <data encoding="csv">
660,698,694,694,694,694,694,694,694,694,694,694,694,694,694,694,694,694,694,694,694,702,660,660,
660,696,656,768,764,764,764,764,764,764,764,764,764,764,764,764,764,764,764,772,656,701,660,660,
660,696,659,766,635,936,932,932,940,637,635,635,635,936,932,932,940,637,635,771,656,701,662,660,
660,696,656,766,936,930,895,891,931,940,635,635,936,930,895,891,931,940,635,771,656,701,660,662,
660,696,656,766,934,895,901,900,891,939,635,635,934,895,901,900,891,939,637,771,656,701,660,660,
662,696,658,766,934,889,898,894,888,939,635,635,934,889,898,894,888,939,635,771,656,693,702,660,
662,696,656,766,942,933,889,888,937,943,637,635,942,933,889,888,937,943,635,771,656,658,693,702,
660,696,656,766,635,942,941,941,943,635,638,635,635,942,941,941,943,635,635,763,772,659,656,701,
660,696,659,774,773,773,773,773,765,635,635,635,638,635,635,635,635,635,638,635,763,772,656,701,
660,696,656,658,656,658,658,656,774,765,635,638,635,635,635,635,635,635,635,637,635,771,656,701,
660,704,703,703,695,659,656,656,656,766,635,635,635,635,635,637,638,635,635,635,635,771,656,701,
662,660,660,660,704,695,656,656,656,766,635,635,637,638,635,635,635,635,635,635,635,771,659,701,
662,660,660,663,660,696,656,656,768,762,635,638,638,635,635,635,635,635,635,635,637,771,659,701,
660,662,660,660,662,696,658,768,762,637,635,635,635,635,637,635,635,637,635,635,635,771,656,701,
660,662,660,660,660,696,659,766,635,635,635,635,635,638,635,769,773,773,773,773,773,775,656,701,
660,660,662,660,663,696,656,766,635,635,635,635,635,635,769,775,656,656,659,656,658,656,656,701,
660,660,660,663,662,696,658,766,635,635,635,638,635,635,771,658,659,699,703,703,703,703,703,705,
663,660,663,660,660,696,656,766,638,635,635,635,635,635,771,658,699,705,660,660,660,660,660,663,
662,660,660,663,660,696,656,774,773,773,773,773,773,773,775,656,701,660,660,660,660,660,662,660,
662,663,662,660,660,704,703,703,703,703,703,703,703,703,703,703,705,663,660,663,660,660,663,660
</data>
 </layer>
 <layer id="11" name="shadow_lower" width="24" height="20">
  <data encoding="csv">
0,0,0,0,0,0,0,0,0,0,0,0,0,0,0,0,0,0,0,0,0,0,0,0,
0,0,0,0,0,0,0,0,0,0,0,0,0,0,0,0,0,0,0,0,0,0,0,0,
0,0,0,0,0,0,0,0,0,1107,0,0,0,0,0,0,0,0,0,0,0,0,0,0,
0,0,0,0,0,0,0,0,0,0,0,0,0,0,0,0,0,0,1113,0,0,0,0,0,
0,0,0,0,0,0,0,0,0,0,0,0,0,0,0,0,0,0,0,0,0,0,0,0,
0,0,0,0,0,0,0,0,0,0,0,0,0,0,0,0,0,0,0,0,0,0,0,0,
0,0,0,0,1090,0,0,0,0,0,0,0,0,0,0,0,0,0,0,0,0,0,0,0,
0,0,0,0,0,0,0,0,0,0,0,0,0,0,0,0,0,0,0,0,0,0,0,0,
0,0,0,0,0,0,0,0,0,0,0,0,0,0,0,0,0,0,0,0,0,0,0,0,
0,0,0,0,0,0,0,0,0,0,0,0,0,0,0,0,0,0,0,0,1113,0,0,0,
0,0,0,0,0,0,0,0,0,0,0,0,0,0,0,0,0,0,0,0,0,0,0,0,
0,0,0,0,0,0,0,0,0,0,0,0,0,0,0,0,0,0,0,0,0,0,0,0,
0,0,0,0,0,0,0,0,0,0,0,0,0,0,0,0,0,0,0,0,0,0,0,0,
0,0,0,0,0,0,0,0,0,0,0,0,0,0,0,0,0,0,0,0,0,1108,0,0,
0,0,0,0,0,0,0,0,0,0,0,0,0,1113,0,0,0,0,0,0,0,0,0,0,
0,0,0,0,0,0,0,0,0,0,0,0,0,0,0,0,0,0,0,0,0,0,0,0,
0,0,0,0,0,0,0,0,0,0,0,0,0,0,0,0,0,0,0,0,0,0,0,0,
0,0,0,0,0,0,0,0,1113,0,0,0,0,0,0,0,0,0,0,0,0,0,0,0,
0,0,0,0,0,0,0,0,0,0,0,0,0,0,0,0,0,0,0,0,0,0,0,0,
0,0,0,0,0,0,0,0,0,0,0,0,0,0,0,0,0,0,0,0,0,0,0,0
</data>
 </layer>
 <layer id="12" name="object" width="24" height="20">
  <data encoding="csv">
302,302,302,302,302,302,302,302,302,302,302,302,302,302,302,302,302,302,302,302,302,302,302,302,
302,302,302,0,0,0,0,0,0,0,0,0,0,0,0,0,0,0,0,0,302,302,302,302,
302,302,302,0,0,0,0,0,0,0,0,0,0,0,0,0,0,0,0,0,302,302,302,302,
302,302,302,0,0,0,0,0,0,0,0,0,0,0,0,0,0,0,0,0,302,302,302,302,
302,302,302,0,0,0,302,302,0,0,0,0,0,0,302,302,0,0,0,0,302,302,302,302,
302,302,302,0,0,0,302,302,0,0,0,0,0,0,302,302,0,0,0,0,302,302,302,302,
302,302,302,0,0,0,0,0,0,0,0,0,0,0,0,0,0,0,0,0,302,302,302,302,
302,302,302,0,0,0,0,0,0,0,0,0,0,0,0,0,0,0,0,0,302,302,302,302,
302,302,302,0,0,0,0,0,0,0,0,0,0,0,0,0,0,0,0,0,0,0,302,302,
302,302,302,302,302,302,302,302,302,0,0,0,0,302,0,0,0,0,0,0,0,0,302,302,
302,302,302,302,302,302,302,302,302,0,0,0,0,0,0,0,0,0,0,0,0,0,302,302,
302,302,302,302,302,302,302,302,302,0,0,0,0,0,0,0,0,0,0,0,0,0,302,302,
302,302,302,302,302,302,302,302,302,0,0,0,0,0,0,0,0,0,0,0,0,0,302,302,
302,302,302,302,302,302,302,0,0,0,0,0,0,0,0,1095,0,0,0,0,0,0,302,302,
302,302,302,302,302,302,302,0,0,0,0,0,0,0,0,0,0,0,0,0,0,0,302,302,
302,302,302,302,302,302,302,0,0,0,0,0,0,0,0,302,302,302,302,302,302,302,302,302,
302,302,302,302,302,302,302,0,0,0,0,0,0,0,0,302,302,302,302,302,302,302,302,302,
302,302,302,302,302,302,302,0,0,0,0,0,0,0,0,302,302,302,302,302,302,302,302,302,
302,302,302,302,302,302,302,0,0,0,0,0,0,0,0,302,302,302,302,302,302,302,302,302,
302,302,302,302,302,302,302,302,302,302,302,302,302,302,302,302,302,302,302,302,302,302,302,302
</data>
 </layer>
 <layer id="13" name="shadow_upper" width="24" height="20">
  <data encoding="csv">
0,0,0,0,0,0,0,0,0,0,0,0,0,0,0,0,0,0,0,0,0,0,0,0,
0,0,0,0,0,0,0,0,0,0,0,0,0,0,0,0,0,0,0,0,0,0,0,0,
0,0,0,0,0,0,0,0,0,0,0,0,0,0,0,0,0,0,0,0,0,0,0,0,
0,0,0,0,0,0,0,0,0,0,0,0,0,0,0,0,0,0,0,0,0,0,0,0,
0,0,0,0,0,0,0,0,0,0,0,0,0,0,0,0,0,0,0,0,0,0,0,0,
0,0,0,0,0,0,0,0,0,0,0,0,0,0,0,0,0,0,0,0,0,0,0,0,
0,0,0,0,0,0,0,0,0,0,0,0,0,0,0,0,0,0,0,0,0,0,0,0,
0,0,0,0,0,0,0,0,0,0,0,0,0,0,0,0,0,0,0,0,0,0,0,0,
0,0,0,0,0,0,0,0,0,0,0,0,0,0,0,0,0,0,0,0,0,0,0,0,
0,0,0,0,0,0,0,0,0,0,0,0,0,0,0,0,0,0,0,0,0,0,0,0,
0,0,0,0,0,0,0,0,0,0,0,0,0,0,0,0,0,0,0,0,0,0,0,0,
0,0,0,0,0,0,0,0,0,0,0,0,0,0,0,0,0,0,0,0,0,0,0,0,
0,0,0,0,0,0,0,0,0,0,0,0,0,0,0,0,0,0,0,0,0,0,0,0,
0,0,0,0,0,0,0,0,0,0,0,0,0,0,0,0,0,0,0,0,0,0,0,0,
0,0,0,0,0,0,0,0,0,0,0,0,0,0,0,0,0,0,0,0,0,0,0,0,
0,0,0,0,0,0,0,0,0,0,0,0,0,0,0,0,0,0,0,0,0,0,0,0,
0,0,0,0,0,0,0,0,0,0,0,0,0,0,0,0,0,0,0,0,0,0,0,0,
0,0,0,0,0,0,0,0,0,0,0,0,0,0,0,0,0,0,0,0,0,0,0,0,
0,0,0,0,0,0,0,0,0,0,0,0,0,0,0,0,0,0,0,0,0,0,0,0,
0,0,0,0,0,0,0,0,0,0,0,0,0,0,0,0,0,0,0,0,0,0,0,0
</data>
 </layer>
 <layer id="14" name="object_upper" width="24" height="20">
  <data encoding="csv">
0,0,0,0,0,0,0,0,0,0,0,0,0,0,0,0,0,0,0,0,0,0,0,0,
0,0,0,0,0,0,0,0,0,0,0,0,0,0,0,0,0,0,0,0,0,0,0,0,
0,0,0,0,0,0,0,0,0,0,0,0,0,0,0,0,0,0,0,0,0,0,0,0,
0,0,0,0,0,0,0,0,0,0,0,0,0,0,0,0,0,0,0,0,0,0,0,0,
0,0,0,0,0,0,0,0,0,0,0,0,0,0,0,0,0,0,0,0,0,0,0,0,
0,0,0,0,0,0,0,0,0,0,0,0,0,0,0,0,0,0,0,0,0,0,0,0,
0,0,0,0,0,0,0,0,0,0,0,0,0,0,0,0,0,0,0,0,0,0,0,0,
0,0,0,0,0,0,0,0,0,0,0,0,0,0,0,0,0,0,0,0,0,0,0,0,
0,0,0,0,0,0,0,0,0,0,0,0,0,0,0,0,0,0,0,0,0,0,0,0,
0,0,0,0,0,0,0,0,0,0,0,0,0,0,0,0,0,0,0,0,0,0,0,0,
0,0,0,0,0,0,0,0,0,0,0,0,0,0,0,0,0,0,0,0,0,0,0,0,
0,0,0,0,0,0,0,0,0,0,0,0,0,0,0,0,0,0,0,0,0,0,0,0,
0,0,0,0,0,0,0,0,0,0,0,0,0,0,0,0,0,0,0,0,0,0,0,0,
0,0,0,0,0,0,0,0,0,0,0,0,0,0,0,0,0,0,0,0,0,0,0,0,
0,0,0,0,0,0,0,0,0,0,0,0,0,0,0,0,0,0,0,0,0,0,0,0,
0,0,0,0,0,0,0,0,0,0,0,0,0,0,0,0,0,0,0,0,0,0,0,0,
0,0,0,0,0,0,0,0,0,0,0,0,0,0,0,0,0,0,0,0,0,0,0,0,
0,0,0,0,0,0,0,0,0,0,0,0,0,0,0,0,0,0,0,0,0,0,0,0,
0,0,0,0,0,0,0,0,0,0,0,0,0,0,0,0,0,0,0,0,0,0,0,0,
0,0,0,0,0,0,0,0,0,0,0,0,0,0,0,0,0,0,0,0,0,0,0,0
</data>
 </layer>
 <layer id="15" name="deco" width="24" height="20">
  <data encoding="csv">
0,0,0,0,0,0,0,0,0,0,0,0,0,0,0,0,0,0,0,0,0,0,0,0,
0,0,0,0,0,0,0,0,0,0,0,0,0,0,0,0,0,0,0,0,0,0,0,0,
0,0,0,0,0,0,0,0,0,0,0,0,0,0,0,0,0,0,0,0,0,0,0,0,
0,0,0,0,0,0,0,0,0,0,0,0,0,0,0,0,0,0,0,0,0,0,0,0,
0,0,0,0,0,0,0,0,0,0,0,0,0,0,0,0,0,0,0,0,0,0,0,0,
0,0,0,0,0,0,0,0,0,0,0,0,0,0,0,0,0,0,0,0,0,0,0,0,
0,0,0,0,0,0,0,0,0,0,0,0,0,0,0,0,0,0,0,0,0,0,0,0,
0,0,0,0,0,0,0,0,0,0,0,0,0,0,0,0,0,0,0,0,0,0,0,0,
0,0,0,0,0,0,0,0,0,0,0,0,0,0,0,0,0,0,0,0,0,0,0,0,
0,0,0,0,0,0,0,0,0,0,0,0,0,0,0,0,0,0,0,0,0,0,0,0,
0,0,0,0,0,0,0,0,0,0,0,0,0,0,0,0,0,0,0,0,0,0,0,0,
0,0,0,0,0,0,0,0,0,0,0,0,0,0,0,0,0,0,0,0,0,0,0,0,
0,0,0,0,0,0,0,0,0,0,0,0,0,0,0,0,0,0,0,0,0,0,0,0,
0,0,0,0,0,0,0,0,0,0,0,0,0,0,0,0,0,0,0,0,0,0,0,0,
0,0,0,0,0,0,0,0,0,0,0,0,0,0,0,0,0,0,0,0,0,0,0,0,
0,0,0,0,0,0,0,0,0,0,0,0,0,0,0,0,0,0,0,0,0,0,0,0,
0,0,0,0,0,0,0,0,0,0,0,0,0,0,0,0,0,0,0,0,0,0,0,0,
0,0,0,0,0,0,0,0,0,0,0,0,0,0,0,0,0,0,0,0,0,0,0,0,
0,0,0,0,0,0,0,0,0,0,0,0,0,0,0,0,0,0,0,0,0,0,0,0,
0,0,0,0,0,0,0,0,0,0,0,0,0,0,0,0,0,0,0,0,0,0,0,0
</data>
 </layer>
 <layer id="16" name="roof" width="24" height="20">
  <data encoding="csv">
0,0,0,0,0,0,0,0,0,0,0,0,0,0,0,0,0,0,0,0,0,0,0,0,
0,0,0,0,0,0,0,0,0,0,0,0,0,0,0,0,0,0,0,0,0,0,0,0,
0,0,0,0,0,0,0,0,0,0,0,0,0,0,0,0,0,0,0,0,0,0,0,0,
0,0,0,0,0,0,0,0,0,0,0,0,0,0,0,0,0,0,0,0,0,0,0,0,
0,0,0,0,0,0,0,0,0,0,0,0,0,0,0,0,0,0,0,0,0,0,0,0,
0,0,0,0,0,0,0,0,0,0,0,0,0,0,0,0,0,0,0,0,0,0,0,0,
0,0,0,0,0,0,0,0,0,0,0,0,0,0,0,0,0,0,0,0,0,0,0,0,
0,0,0,0,0,0,0,0,0,0,0,0,0,0,0,0,0,0,0,0,0,0,0,0,
0,0,0,0,0,0,0,0,0,0,0,0,0,0,0,0,0,0,0,0,0,0,0,0,
0,0,0,0,0,0,0,0,0,0,0,0,0,0,0,0,0,0,0,0,0,0,0,0,
0,0,0,0,0,0,0,0,0,0,0,0,0,0,0,0,0,0,0,0,0,0,0,0,
0,0,0,0,0,0,0,0,0,0,0,0,0,0,0,0,0,0,0,0,0,0,0,0,
0,0,0,0,0,0,0,0,0,0,0,0,0,0,0,0,0,0,0,0,0,0,0,0,
0,0,0,0,0,0,0,0,0,0,0,0,0,0,0,0,0,0,0,0,0,0,0,0,
0,0,0,0,0,0,0,0,0,0,0,0,0,0,0,0,0,0,0,0,0,0,0,0,
0,0,0,0,0,0,0,0,0,0,0,0,0,0,0,0,0,0,0,0,0,0,0,0,
0,0,0,0,0,0,0,0,0,0,0,0,0,0,0,0,0,0,0,0,0,0,0,0,
0,0,0,0,0,0,0,0,0,0,0,0,0,0,0,0,0,0,0,0,0,0,0,0,
0,0,0,0,0,0,0,0,0,0,0,0,0,0,0,0,0,0,0,0,0,0,0,0,
0,0,0,0,0,0,0,0,0,0,0,0,0,0,0,0,0,0,0,0,0,0,0,0
</data>
 </layer>
 <objectgroup id="2" name="characters">
  <!-- 막힌 물길(well_clog, q032 대화 목표) / 늪뱀 4(Lv21~22), 늪개구리 전사 2(Lv22) -->
  <object id="10" name="늪뱀-1" type="character" x="336" y="320" width="32" height="32">
   <properties>
    <property name="blocksMovement" type="bool" value="true"/>
    <property name="monster.level" type="int" value="21"/>
    <property name="type" value="monster_snake"/>
   </properties>
  </object>
  <object id="11" name="늪뱀-2" type="character" x="528" y="384" width="32" height="32">
   <properties>
    <property name="blocksMovement" type="bool" value="true"/>
    <property name="monster.level" type="int" value="21"/>
    <property name="type" value="monster_snake"/>
   </properties>
  </object>
  <object id="12" name="늪뱀-3" type="character" x="624" y="416" width="32" height="32">
   <properties>
    <property name="blocksMovement" type="bool" value="true"/>
    <property name="monster.level" type="int" value="22"/>
    <property name="type" value="monster_snake"/>
   </properties>
  </object>
  <object id="13" name="늪뱀-4" type="character" x="144" y="128" width="32" height="32">
   <properties>
    <property name="blocksMovement" type="bool" value="true"/>
    <property name="monster.level" type="int" value="22"/>
    <property name="type" value="monster_snake"/>
   </properties>
  </object>
  <object id="14" name="늪개구리 전사-1" type="character" x="560" y="192" width="32" height="32">
   <properties>
    <property name="blocksMovement" type="bool" value="true"/>
    <property name="monster.level" type="int" value="22"/>
    <property name="type" value="monster_frog"/>
   </properties>
  </object>
  <object id="15" name="늪개구리 전사-2" type="character" x="592" y="352" width="32" height="32">
   <properties>
    <property name="blocksMovement" type="bool" value="true"/>
    <property name="monster.level" type="int" value="22"/>
    <property name="type" value="monster_frog"/>
   </properties>
  </object>
  <object id="1" name="well_clog" type="character" x="368" y="128" width="32" height="32">
   <properties>
    <property name="blocksMovement" type="bool" value="true"/>
    <property name="controller.dialogueLines" type="list">
     <item value="썩은 갈대와 진흙이 엉겨 물길 입구를 틀어막고 있다."/>
    </property>
    <property name="controller.scriptId" value="vn-dialogue"/>
    <property name="displayText" value="막힌 물길"/>
    <property name="type" value="cave_prop_crate_crystal"/>
   </properties>
  </object>
 </objectgroup>
 <objectgroup id="3" name="portals">
  <!-- 남쪽 밧줄 → 갈대골 우물 앞 (19, 27). -->
  <object id="30" name="well_rope" type="portal" x="320" y="544" width="64" height="32">
   <properties>
    <property name="appearanceType" value="stairs_stone_step_base_00"/>
    <property name="targetFacing" value="down"/>
    <property name="targetSceneId" value="reed-village"/>
    <property name="targetSpawnTileX" type="int" value="19"/>
    <property name="targetSpawnTileY" type="int" value="27"/>
   </properties>
  </object>
 </objectgroup>
</map>
