<?xml version="1.0" encoding="UTF-8"?>
<map version="1.10" tiledversion="1.12.1" orientation="orthogonal" renderorder="right-down" width="50" height="40" tilewidth="32" tileheight="32" infinite="0" nextlayerid="17" nextobjectid="60">
<!-- scripts/generate-ruins-outskirts.py 가 생성한다. 손으로 고치지 말고 스크립트를 고친 뒤 다시 돌릴 것. -->
 <tileset firstgid="1" source="../tilesets/town-32.tsx"/>
 <layer id="10" name="ground" width="50" height="40">
  <data encoding="csv">
1354,1354,1353,1353,1353,1354,1353,1353,1354,1354,1353,1353,1354,1354,1353,1353,1354,1353,1353,1353,1354,1354,1353,1353,1354,1353,1353,1353,1354,1353,1353,1353,1354,1353,1353,1353,1354,1353,1353,1353,1354,1353,1353,1353,1354,1353,1353,1353,1354,1353,
1354,1354,639,639,1354,1354,1353,1353,1354,1354,1353,1353,1354,1354,1353,1353,1354,1354,1353,1353,639,639,1353,1353,1354,1354,1353,1353,1354,1354,1353,1353,1354,1354,1353,1353,1354,1354,1353,1353,1353,1354,1353,1353,1353,1354,1353,1353,1353,1353,
639,639,639,639,639,1353,1354,1354,1353,1353,1354,1354,1353,1353,1354,1354,1353,1354,639,639,639,639,639,639,639,1354,1353,1354,1353,1354,1353,1354,1353,1354,1353,1354,1353,1354,1353,1354,1353,1354,1353,1354,1353,1354,1353,1354,1353,1354,
639,639,639,639,639,639,1353,1353,1353,1353,1353,1353,1353,1353,1353,1353,1353,639,639,639,639,639,639,639,639,1353,1353,1354,1353,1353,1353,1354,1353,1353,1353,1354,1353,1353,1353,1354,1353,1353,1353,1354,1353,1353,1353,1354,1353,1354,
639,639,639,639,639,639,1353,1353,1353,1353,1354,1354,1353,1353,1353,1353,1353,639,639,639,639,639,639,639,639,1353,1354,1354,1353,1353,1354,1353,1353,1353,1354,1353,637,637,1354,638,637,636,1354,1353,1353,1353,1354,1353,1353,1354,
639,639,639,639,639,639,1354,1354,1353,1353,1354,1354,1353,1353,1354,1354,1353,1353,639,639,639,639,639,639,639,1353,1353,1354,1353,1353,1354,1354,1353,1353,638,635,637,637,635,638,636,636,638,1354,1353,1353,1354,1353,1353,1353,
639,639,639,639,639,1353,1353,1353,1353,1353,1353,1353,1353,1353,1353,1353,1353,1353,1353,1353,639,639,1353,1353,1354,1353,1353,1353,1353,1353,1353,1353,1354,637,636,637,636,638,637,637,635,637,636,637,636,1353,1353,1353,1354,1353,
1354,1353,639,639,1353,1354,1353,1353,1354,1353,1354,1353,1353,1354,1353,1353,1354,1353,1354,1353,1353,1354,1353,1353,1354,1353,1354,1353,1353,1354,1353,1353,1354,638,635,638,636,638,636,637,635,637,635,638,636,638,1353,1353,1354,1353,
1354,1353,1353,1353,1353,1354,1353,1353,1353,1354,1353,1353,1354,1353,1353,1353,1354,1353,1353,1353,1353,1354,1353,1353,1353,1354,1353,1354,1354,1353,1353,1354,638,637,638,637,636,635,636,637,636,635,636,635,638,637,1353,1354,1353,1353,
1353,1353,1353,1353,1353,1353,1353,1353,1354,1353,1353,1353,1353,1353,1353,1353,1353,1353,1353,1353,1354,1353,1353,1353,1354,1354,1353,1353,1353,1353,1353,1353,638,638,637,637,635,636,636,637,635,635,636,636,638,638,1353,1353,1353,1353,
1353,1354,1354,1353,1354,1353,1353,1353,1354,1353,1353,1354,1353,1354,1354,1354,1353,1354,1354,1353,1354,1353,1353,1353,1354,1353,1353,1353,1353,1354,1354,1353,637,635,635,636,635,636,638,636,638,636,637,638,637,638,1354,1353,1353,1353,
1353,1353,1354,1353,1354,1353,1353,1353,1354,1353,1360,1360,1360,1354,1354,1354,1353,1354,1354,1353,1353,1353,1353,1353,1353,1353,1353,1354,1353,1354,1354,1354,637,635,635,636,638,637,637,636,638,636,637,635,637,635,1353,1354,1353,1354,
1353,1354,1353,1353,1354,1353,1354,1354,1353,1353,1360,1360,1360,1353,1353,1353,1353,1354,1354,1354,1354,1353,1354,1354,1353,1353,1353,1353,1353,1353,1353,1353,1353,635,636,635,638,637,635,638,637,636,638,638,637,636,1353,1353,1353,1354,
1353,1353,1354,1353,1353,1353,1354,1353,1353,1360,1360,1360,1360,1353,1353,1353,1354,1353,1354,1353,1353,1353,1354,1354,1353,1353,1353,1353,1353,1353,1353,1353,1360,636,635,636,638,638,638,635,637,637,637,638,636,1353,1354,1353,1354,1354,
1354,1353,1353,1354,1353,1354,1353,1353,1353,1360,1360,1360,1353,1353,1353,1353,1354,1353,1353,1353,1353,1354,1353,1353,1353,1353,1354,1353,1353,1353,1360,1360,1360,1360,1360,638,637,635,636,637,636,638,635,636,1354,1353,1353,1353,1353,1353,
1354,1353,1353,1354,1353,1354,1353,1353,1353,1360,1360,1360,1354,1353,1353,1353,1354,1353,1353,1354,1353,1354,1354,1353,1353,1353,1354,1353,1360,1360,1360,1360,1360,1360,1353,1354,636,635,635,638,636,638,1353,1353,1354,1353,1353,1353,1353,1353,
1353,1353,1354,1354,1353,1353,1353,1353,1360,1360,1360,1353,1353,1353,1353,1354,1353,1353,1353,1353,1353,1353,1354,1354,1353,1353,1360,1360,1360,1360,1360,1360,1353,1354,1354,1354,1353,1353,1354,1353,1353,1354,1354,1353,1353,1353,1354,1354,1353,1353,
1353,1353,1354,1353,1353,1353,1354,1354,1360,1360,1360,1354,1353,1353,1354,1354,1353,1353,1354,1353,1353,1353,1353,1360,1360,1360,1360,1360,1360,1360,1353,1353,1353,1353,1353,1354,1353,1353,1354,1353,1353,1353,1354,1353,1353,1353,1354,1354,1353,1353,
1360,1360,1360,1360,1360,1360,1360,1360,1360,1360,1360,1360,1360,1360,1360,1360,1360,1360,1360,1360,1353,1360,1360,1360,1360,1360,1360,1360,1360,1353,1353,1353,1353,1353,1353,1353,1353,1353,1353,1353,1353,1353,1353,1353,1354,1353,1353,1353,1354,1353,
1360,1360,1360,1360,1360,1360,1360,1360,1360,1360,1360,1360,1360,1360,1360,1360,1360,1360,1360,1360,1360,1360,1360,1360,1360,1360,1354,1353,1353,1353,1354,1353,1353,1353,1354,1353,1353,1353,1353,1353,1353,1353,1353,1353,1354,1353,1353,1353,1354,1353,
1360,1360,1360,1360,1360,1360,1360,1360,1360,1353,1353,1353,1354,1360,1360,1360,1360,1360,1360,1360,1360,1360,1360,1360,1353,1353,1353,1353,1353,1353,1353,1354,1354,1353,1353,1353,1353,1353,1353,1354,1354,1353,1353,1353,1354,1354,1353,1353,1353,1353,
1354,1353,1353,1353,1353,1354,1353,1353,1354,1353,1353,1353,1354,1353,1353,1353,1353,1354,1353,1353,1360,1360,1360,1360,1353,1354,1353,1353,1354,1354,1353,1353,1354,1353,1354,1353,1354,1354,1353,1353,1353,1353,1353,1353,1353,1354,1353,1353,1353,1354,
1354,1354,1353,1353,1354,1353,1353,1354,1353,1354,1354,1354,1353,1353,1354,1354,1353,1353,1354,1354,1353,1360,1360,1360,1353,1354,1353,1353,1354,1354,1353,1353,639,639,639,639,1354,1354,1354,1353,1353,1353,1353,1354,1353,1353,1354,1354,1353,1354,
1353,1354,1353,1353,1354,1353,1354,1354,1353,1354,1353,1353,1353,1353,1354,1353,1353,1353,1353,1354,1353,1360,1360,1360,1360,1353,1353,1353,1353,1353,1353,639,639,639,639,639,639,1353,1354,1354,1353,1354,1353,1354,1353,1353,1353,1354,1353,1353,
1353,1354,1353,1353,1354,1353,1354,1354,1354,1353,1354,1353,1353,1353,1353,1353,1353,1353,1353,1354,1353,638,638,636,637,637,638,1353,1353,1354,639,639,639,639,639,639,639,639,1354,1353,1353,1353,1354,1353,1353,1353,1353,1353,1354,1354,
1353,1353,1354,1353,1353,1353,1354,1354,1353,1353,1354,1353,1353,1353,1353,1354,1354,1353,1353,1354,637,638,638,636,637,638,637,635,1353,1354,639,639,639,639,639,639,639,639,1353,1354,1353,1353,1353,1353,1354,1353,1353,1353,1354,1353,
1353,1353,1353,1354,1353,1353,1353,1353,1353,1353,1353,1353,1354,1353,1353,1353,1354,1353,638,638,637,635,635,638,636,635,635,637,636,1353,1353,639,639,639,639,639,639,1353,1353,1353,1353,1353,1353,1354,1354,1353,1353,1353,1353,1353,
1354,1353,1353,1354,1353,1354,639,639,639,639,1353,1353,1354,1353,1353,1353,1353,1353,637,638,636,636,635,635,636,635,635,637,635,1353,1353,1353,639,639,639,639,639,1353,1354,1353,1353,1353,1354,1353,1353,1353,1353,1353,1353,1353,
1354,1353,1353,1353,639,639,639,639,639,639,639,639,1354,1354,1354,1353,1353,1353,638,637,636,636,636,637,635,635,636,636,635,1353,1353,1354,1354,1353,1353,1353,1353,1354,1353,1353,1353,1353,1353,1354,1353,1353,1354,1354,1353,1353,
1353,1353,1353,639,639,639,639,639,639,639,639,639,639,1354,1354,1353,1353,1353,638,638,636,637,636,638,638,636,635,637,635,638,1353,1354,1353,1353,1353,1353,1353,1354,1353,1353,1354,1353,1353,639,639,639,639,639,1353,1353,
1353,1353,1354,639,639,639,639,639,639,639,639,639,639,1353,1353,1354,1353,1354,635,636,635,637,638,636,638,636,637,635,638,635,1354,1353,1353,1353,1353,1353,1354,1353,1353,1354,1354,1354,639,639,639,639,639,639,639,1353,
1353,1354,1353,639,639,639,639,639,639,639,639,639,639,1353,1353,1354,1353,1354,1354,636,638,638,637,637,637,637,636,636,638,1354,1353,1353,1353,1353,1353,1353,1354,1353,1353,1354,1353,639,639,639,639,639,639,639,639,639,
1354,1353,1353,639,639,639,639,639,639,639,639,639,639,1353,1353,1353,1353,1354,1353,637,635,636,638,636,636,637,636,637,638,1353,1353,1353,1353,1354,1353,1354,1353,1354,1353,1354,1353,639,639,639,639,639,639,639,639,639,
1353,1353,1353,1353,639,639,639,639,639,639,639,639,1353,1353,1353,1353,1353,1353,1353,1353,1353,636,638,636,636,638,1354,1353,1353,1353,1353,1353,1354,1354,1353,1353,1354,1353,1354,1353,1353,639,639,639,639,639,639,639,639,639,
1353,1354,1353,1353,1353,1354,639,639,639,639,1353,1353,1354,1354,1353,1353,1353,1353,1354,1353,1353,1353,1354,1353,1354,1353,1353,1353,1353,1354,1353,1353,1354,1353,1354,1353,1354,1353,1353,1353,1353,639,639,639,639,639,639,639,639,639,
1353,1354,1353,1353,1353,1354,1354,1353,1354,1353,1353,1354,1354,1354,1353,1353,1353,1353,1354,1353,1353,1353,1354,1354,1354,1354,1353,1353,1353,1354,1353,1353,1353,1353,1354,1353,1353,1353,1353,1354,1353,1354,639,639,639,639,639,639,639,1354,
1353,1354,1353,1353,1353,1353,1353,1354,1353,1353,1353,1353,1354,1353,1354,1354,1353,1353,1353,1353,1353,1353,1353,1353,1353,1354,1353,1354,1353,1353,1354,1354,1353,1353,1354,1353,1354,1353,1353,1353,1354,1354,639,639,639,639,639,639,1353,1354,
1354,1353,1353,1353,1353,1353,1353,1353,1353,1353,1353,1354,1353,1353,1353,1353,1354,1353,1354,1353,1353,1353,1353,1353,1353,1354,1353,1353,1353,1353,1353,1354,1353,1353,1354,1353,1353,1353,1353,1353,1354,1354,1354,1353,1353,1353,1353,1353,1353,1354,
1354,1353,1354,1354,1353,1353,1353,1353,1353,1353,1354,1353,1353,1353,1353,1353,1354,1353,1353,1354,1354,1354,1353,1353,1353,1353,1354,1353,1354,1353,1353,1353,1353,1353,1353,1353,1353,1354,1353,1354,1353,1353,1353,1353,1354,1354,1353,1354,1353,1354,
1354,1353,1354,1354,1354,1353,1353,1354,1353,1354,1354,1353,1353,1353,1354,1354,1353,1354,1353,1354,1354,1354,1353,1353,1353,1353,1353,1354,1354,1353,1354,1353,1353,1354,1353,1353,1353,1354,1354,1353,1353,1353,1353,1354,1354,1354,1353,1353,1353,1353
</data>
 </layer>
 <layer id="11" name="shadow_lower" width="50" height="40">
  <data encoding="csv">
0,0,0,0,0,0,0,1357,0,0,0,0,0,0,0,0,0,1357,0,0,0,1355,0,0,0,0,0,0,0,0,0,0,0,0,0,0,0,0,0,0,0,0,0,0,0,0,0,1359,0,0,
0,0,1407,1435,0,0,0,0,0,0,0,0,0,0,0,0,0,0,0,0,1413,1443,1355,0,0,0,0,0,0,0,0,0,0,0,0,0,0,0,0,0,0,0,0,0,0,0,0,0,0,0,
1386,1387,1363,1371,1439,0,0,1358,0,0,0,0,0,0,0,0,0,1359,1413,1384,1362,1377,1386,1384,1439,0,0,0,1355,0,0,0,0,0,0,1358,0,0,0,0,0,0,0,0,0,0,0,0,0,0,
0,0,0,0,1373,1441,0,0,0,0,0,0,0,0,0,0,0,1411,1362,0,1606,0,1608,0,1430,1357,0,0,0,0,0,0,0,0,0,0,0,0,1356,0,1624,1625,0,1627,1628,0,1606,0,1608,0,
1674,1675,0,1677,1678,1434,0,0,0,0,0,0,0,0,1358,0,0,1458,1390,0,0,0,0,0,1430,1357,0,1694,1695,0,1697,1698,0,0,0,0,1518,1548,0,1517,1495,1550,0,0,0,0,0,0,0,0,
1394,0,0,0,1421,1469,0,0,1359,0,0,0,1719,1720,1355,1722,1723,0,1455,1446,1394,1423,1452,1446,1465,0,0,0,0,0,0,0,0,0,1524,1491,1474,1485,1494,1472,0,1484,1552,0,0,1739,1740,0,1742,1743,
1460,1445,1394,1416,1468,0,0,0,0,0,0,0,0,0,0,0,0,0,0,1359,1460,1466,1358,1357,0,0,0,0,0,0,0,0,0,1523,1476,0,0,0,0,0,0,0,1486,1489,1551,0,0,0,0,0,
0,1357,1460,1463,0,0,0,0,0,0,0,0,0,0,0,0,0,0,0,0,0,0,1624,1625,0,1627,1628,0,0,0,0,0,0,1507,0,0,0,0,0,0,0,0,0,0,1487,1546,1355,1606,0,1608,
0,1674,1675,0,1677,1678,0,0,0,0,0,0,0,0,0,0,0,0,0,0,0,0,0,1357,0,0,0,0,0,0,0,0,1520,1472,0,0,0,0,0,0,0,0,0,0,0,1536,0,0,0,0,
0,0,0,0,0,0,0,0,0,0,0,0,0,0,0,0,0,0,0,0,0,0,0,0,0,0,0,0,0,0,0,0,1507,0,0,0,0,0,0,0,0,0,0,0,0,1536,0,0,0,0,
1719,1720,0,1722,1723,0,0,0,0,0,0,0,0,0,0,0,0,0,1694,1695,0,1697,1698,0,0,1359,0,0,0,0,0,0,1508,0,0,0,0,0,0,0,0,0,0,0,0,1538,0,1358,0,1359,
0,0,0,0,0,0,0,0,0,0,1523,1491,1551,0,0,0,0,0,0,0,0,0,1739,1740,0,1742,1743,0,0,0,0,0,1568,1506,0,0,0,0,0,0,0,0,0,0,0,1544,0,0,0,1356,
0,0,0,0,0,0,0,0,0,0,1508,0,1544,0,0,0,0,0,0,0,0,0,0,0,0,0,0,0,0,0,1358,0,0,1514,0,0,0,0,0,0,0,0,0,0,1534,1580,0,0,0,0,
1624,1625,0,1627,1628,0,0,0,0,1520,1475,1527,1578,0,0,0,0,0,0,0,0,0,0,0,0,0,0,0,0,0,0,0,1525,1476,1533,1500,0,0,0,0,0,0,0,1527,1578,1359,0,0,0,0,
0,0,0,0,0,0,0,0,0,1507,0,1540,0,0,0,0,0,0,0,0,0,0,0,0,1358,0,0,0,0,0,1519,1495,1479,1526,1575,1563,1504,0,0,0,1090,1534,1556,1575,0,1674,1675,0,1677,1678,
0,0,0,0,0,0,0,1356,0,1509,1529,1576,0,0,0,0,0,1694,1695,0,1697,1698,0,0,0,0,0,0,1521,1490,1477,1529,1555,1572,0,0,1571,1562,1559,1561,1559,1579,0,0,0,0,0,0,0,0,
1719,1720,0,1722,1723,0,0,0,1518,1477,1536,0,0,0,0,0,0,0,0,0,0,0,0,0,0,0,1525,1494,1475,1533,1559,1573,0,0,0,0,0,0,0,0,0,0,0,0,0,0,0,0,0,0,
0,0,0,0,0,0,0,0,1512,0,1538,0,0,0,0,0,0,1090,0,0,0,0,0,1518,1492,1493,1478,0,1528,1575,0,0,0,0,0,0,1359,1356,0,0,0,0,0,0,1355,1356,0,0,0,0,
1492,1490,1492,1490,1492,1493,1490,1489,1477,0,1486,1495,1494,1490,1492,1496,1494,1490,1489,1545,0,1518,1492,1475,0,1532,1559,1555,1578,0,0,0,0,0,0,0,0,0,0,1358,0,1355,0,0,0,0,0,0,0,0,
0,0,0,0,0,0,0,0,1531,1555,1557,1561,1562,1503,0,0,0,0,0,1482,1497,1476,0,1533,1559,1573,0,0,0,0,0,0,1649,1650,0,1652,1653,0,0,0,0,0,0,0,0,1624,1625,0,1627,1628,
1559,1555,1557,1555,1557,1558,1561,1562,1580,0,0,0,0,1567,1555,1557,1558,1558,1555,1560,1500,0,1527,1575,0,0,0,0,0,0,0,0,0,0,0,0,0,0,0,0,1606,0,1608,0,0,0,0,0,0,0,
0,0,0,0,0,0,0,0,0,0,0,0,0,0,0,0,0,0,0,0,1565,1500,1483,1551,0,0,1694,1695,0,1697,1698,0,0,1674,1675,0,1677,1678,0,0,0,0,0,0,1719,1720,0,1722,1723,0,
1739,1740,0,1742,1743,0,1649,1650,0,1652,1653,1356,1358,0,0,0,0,0,0,0,0,1509,0,1544,0,0,0,0,0,0,0,0,1410,1383,1386,1443,0,0,0,0,0,1624,1625,0,1627,1628,0,0,0,0,
0,0,0,0,0,0,0,0,0,0,0,0,0,0,0,0,0,0,0,0,0,1570,1502,1486,1548,0,0,0,0,0,0,1412,1362,0,0,1377,1436,0,0,0,0,0,0,1357,0,0,1606,1359,1608,0,
0,0,0,0,0,0,0,0,0,1128,0,0,0,0,0,1694,1695,0,1697,1698,0,1521,1475,0,1484,1493,1546,0,0,0,1408,1367,0,0,0,0,1370,1435,1357,0,0,0,0,0,0,0,0,0,0,0,
0,0,0,0,0,0,0,0,0,0,0,0,0,0,1357,0,0,0,0,0,1521,1475,0,0,0,0,1481,1552,0,0,1457,1389,0,0,0,0,1417,1462,0,0,0,1359,0,0,1719,1720,0,1722,1723,0,
0,1649,1650,0,1652,1653,0,0,1356,0,0,0,0,0,0,0,0,0,1522,1490,1474,0,0,0,0,0,0,1488,1547,0,0,1455,1396,0,0,0,1431,0,0,0,0,0,0,0,0,0,0,0,0,0,
1606,0,1608,0,0,1359,1411,1380,1382,1436,1359,0,0,0,0,0,1355,0,1514,0,0,0,0,0,0,0,0,0,1537,0,0,0,1459,1450,1452,1446,1468,1624,1625,1355,1627,1628,0,0,0,0,0,1356,0,0,
0,0,0,0,1413,1384,1365,0,0,1370,1385,1440,0,0,0,0,0,0,1511,0,0,0,0,0,0,0,0,0,1540,0,0,0,0,1358,0,0,1357,0,0,0,0,0,0,0,0,1357,1359,0,0,0,
0,1358,0,1409,1361,0,1694,1695,0,1697,1698,1374,1439,0,0,0,0,0,1510,0,0,0,0,0,0,0,0,0,1484,1546,0,0,0,1739,1740,0,1742,1743,1694,1695,0,1697,1698,1412,1386,1384,1380,1441,0,0,
0,1355,0,1405,0,0,0,0,0,0,0,0,1430,0,0,0,0,0,1565,1503,0,0,0,0,0,0,0,1128,1534,1574,0,0,0,0,0,0,0,0,0,0,0,0,1411,1368,0,0,0,1376,1438,0,
0,0,0,1404,0,0,0,0,0,0,0,0,1431,1359,0,0,0,0,1357,1511,0,0,1128,0,0,0,0,0,1542,0,0,0,1359,0,0,0,0,0,0,0,0,1408,1364,1719,1720,0,1722,1723,1375,1443,
0,0,0,1458,1396,0,1739,1740,0,1742,1743,1417,1468,0,0,1355,0,0,0,1567,1561,1506,0,0,0,1528,1554,1557,1573,0,0,0,0,0,0,0,0,0,0,0,0,1400,0,0,0,0,0,0,0,1433,
0,0,0,0,1460,1448,1392,0,0,1424,1446,1465,0,0,0,0,0,0,0,1358,0,1570,1555,1560,1559,1579,0,0,0,0,0,0,0,0,0,0,0,0,0,0,0,1397,0,0,0,0,0,0,0,1430,
1624,1625,0,1627,1628,1355,1456,1450,1446,1468,0,0,0,0,0,0,0,0,0,0,0,0,0,0,0,0,0,0,0,1358,0,0,0,0,0,0,0,0,0,0,0,1455,1396,1649,1650,0,1652,1653,1420,1466,
0,0,0,0,0,0,0,1355,0,0,0,0,0,0,1694,1695,0,1697,1698,0,0,0,0,0,0,0,0,0,0,0,0,0,1719,1720,0,1722,1723,1356,1356,0,0,0,1405,0,0,0,0,1421,1466,0,
0,0,0,0,0,0,0,0,0,1739,1740,0,1742,1743,0,0,0,0,0,0,0,0,0,0,0,0,0,0,1355,1649,1650,0,1652,1653,0,0,0,0,0,0,0,0,1461,1446,1447,1445,1444,1468,0,0,
0,0,0,0,0,0,1719,1720,0,1722,1723,0,0,1674,1675,0,1677,1678,0,1624,1625,0,1627,1628,0,0,0,0,0,0,0,0,1355,0,0,0,0,0,0,1649,1650,0,1652,1653,1694,1695,0,1697,1698,0,
0,0,0,0,1739,1740,1357,1742,1743,0,0,0,0,0,0,0,0,0,0,1358,0,0,0,1624,1625,0,1627,1628,0,0,0,0,0,0,0,0,1694,1695,0,1697,1698,1674,1675,0,1677,1678,1359,0,1356,0,
0,0,0,0,0,0,0,1356,0,0,0,0,1606,0,1608,0,1649,1650,0,1652,1653,0,0,0,0,1624,1625,0,1627,1628,0,0,0,0,0,0,0,0,0,0,0,0,0,1359,0,0,0,0,0,0
</data>
 </layer>
 <layer id="12" name="object" width="50" height="40">
  <data encoding="csv">
302,302,302,302,302,302,302,302,1151,528,1151,1151,302,302,302,1151,1150,302,302,302,302,302,302,1151,1150,302,302,302,302,302,302,1150,463,1150,1151,302,302,302,527,1150,302,302,302,302,302,302,302,302,302,1150,
302,0,0,0,0,0,0,0,0,0,0,1150,0,0,0,0,0,1594,1595,1596,1150,1150,302,302,1158,1594,1595,1596,0,0,0,0,1152,1150,0,1594,1595,1596,0,1151,0,0,0,1594,1595,1596,0,0,0,463,
302,302,302,302,0,1594,1595,1596,0,0,0,0,0,0,0,0,0,0,0,302,302,302,302,302,1158,0,0,0,1594,1595,1596,0,0,0,0,0,0,0,0,0,0,0,0,0,0,0,0,0,0,302,
302,302,302,302,302,0,0,0,0,0,0,0,1594,1595,1596,0,0,0,302,302,302,1607,302,302,302,0,0,0,0,0,0,0,0,0,0,0,0,0,0,0,0,0,1626,0,0,0,0,1607,0,302,
302,302,1676,302,302,302,0,0,0,0,0,0,0,0,0,0,0,0,302,302,302,302,302,302,302,0,0,0,0,1696,0,0,0,0,0,0,0,0,0,0,0,0,0,0,0,0,0,0,0,302,
302,302,302,302,302,0,0,0,0,0,0,0,0,0,1721,0,0,0,0,302,302,302,302,302,0,0,0,0,0,0,0,0,0,0,0,0,0,528,527,528,527,0,0,0,0,0,0,1741,0,302,
302,302,302,302,1594,1595,1596,0,0,0,0,0,0,0,0,0,0,0,0,0,0,0,0,0,0,0,0,0,0,0,0,0,0,0,0,0,0,0,0,0,0,0,0,0,0,0,0,0,0,302,
302,0,0,0,0,0,0,0,0,0,0,0,0,0,0,0,0,0,0,0,0,0,0,0,1626,0,0,0,0,0,0,0,0,1105,1106,0,1132,0,0,0,0,1132,0,0,1105,1106,0,0,1607,527,
302,0,0,1676,0,0,0,0,1095,1095,0,0,1189,0,1155,1156,0,0,0,0,0,0,0,0,0,0,0,0,0,0,0,0,0,0,0,0,0,0,0,0,0,0,0,0,0,0,0,0,0,1151,
302,0,0,0,0,0,0,0,0,0,0,1092,0,0,0,0,0,0,0,0,0,0,0,0,0,0,0,0,0,0,0,0,0,0,1119,0,0,0,0,0,0,0,0,0,1119,0,0,0,0,463,
302,0,1721,0,0,0,0,0,0,0,1189,0,0,0,0,0,0,0,0,0,1696,0,0,0,0,0,0,0,0,0,0,0,0,0,0,0,0,0,0,0,0,0,0,0,0,0,0,0,0,302,
302,0,0,0,1594,1595,1596,0,0,0,0,0,0,0,0,0,0,0,0,0,0,0,0,0,1741,0,0,0,0,0,0,0,0,0,0,1115,0,0,0,0,0,0,0,1115,0,0,0,0,0,302,
302,0,0,0,0,0,0,0,0,0,0,0,0,0,0,0,0,0,0,0,0,0,0,0,0,0,0,0,0,0,0,0,0,0,0,0,0,0,0,0,0,0,0,0,0,0,527,0,0,302,
302,0,1626,0,0,0,1132,0,0,0,0,0,0,0,0,0,0,0,0,0,0,0,0,0,0,1594,1595,1596,0,0,0,0,0,0,1119,0,0,0,0,0,0,0,0,0,1119,0,0,0,0,302,
302,0,0,0,0,0,0,0,0,0,0,0,0,0,0,0,0,0,0,0,0,0,0,0,0,0,0,0,0,0,0,0,0,0,0,0,0,0,0,0,0,0,0,0,0,0,0,1676,0,1151,
302,0,0,0,0,0,0,0,0,0,0,0,0,0,0,0,0,0,0,1696,0,0,0,0,0,0,0,0,0,0,0,0,0,0,0,0,0,0,0,0,0,0,0,0,0,0,0,0,0,1151,
1150,1152,1721,0,0,1594,1595,1596,0,0,0,0,0,0,0,0,0,0,0,0,0,0,0,0,0,0,0,1115,0,0,0,0,0,0,0,0,0,0,0,0,528,0,0,0,0,0,0,0,0,302,
464,0,0,0,0,0,0,0,0,0,0,0,0,0,0,0,0,0,0,0,0,0,0,0,0,0,0,0,0,0,0,0,0,0,0,0,0,0,0,0,0,0,0,0,0,0,0,0,0,302,
0,0,0,0,0,0,0,0,0,0,0,0,0,0,0,0,0,0,0,0,0,0,0,0,0,0,0,0,0,0,527,0,0,0,0,0,0,0,0,0,0,0,0,0,0,0,0,0,0,302,
0,0,0,0,0,0,0,0,0,0,0,0,0,0,0,0,0,0,0,0,0,0,0,0,0,0,0,0,0,0,0,0,0,0,1651,0,0,0,0,0,0,0,0,0,0,0,0,1626,0,463,
0,0,0,0,0,0,0,0,0,0,0,0,0,0,0,0,0,0,0,0,0,0,0,0,0,0,0,0,0,0,0,0,0,0,0,0,0,0,0,0,0,1607,0,0,0,0,0,0,0,464,
302,0,0,0,0,0,0,0,0,0,0,0,0,0,0,0,0,0,527,0,0,0,0,0,0,0,528,0,1696,0,0,1132,0,0,0,1676,0,0,0,0,0,0,0,0,0,0,1721,0,0,527,
302,0,1741,0,0,528,0,0,1651,0,0,0,528,0,0,0,0,0,0,0,0,0,0,0,0,0,0,0,0,0,0,0,0,302,302,0,0,0,0,0,0,0,0,1626,0,0,0,0,0,1150,
302,0,0,0,0,0,0,0,0,0,0,0,0,0,0,0,1132,0,0,0,0,0,0,0,0,0,0,0,0,0,0,1158,302,302,302,302,1158,0,0,0,0,0,0,0,0,0,0,1607,0,302,
1594,1595,1596,0,0,0,0,0,0,0,0,0,0,0,0,0,0,1696,0,0,0,0,0,0,0,0,0,0,0,0,1158,302,302,302,302,302,302,0,0,0,0,0,0,0,0,0,0,0,0,302,
302,0,0,0,0,0,0,0,0,0,0,0,0,0,528,0,0,0,0,0,0,0,0,0,0,0,0,0,0,0,0,302,302,302,302,302,302,0,0,0,0,0,0,0,0,0,1721,0,0,302,
302,0,0,1651,0,0,0,0,0,0,0,0,0,0,0,0,0,0,0,0,0,0,0,0,0,0,0,0,0,0,0,0,302,302,302,302,302,0,0,0,0,0,0,0,0,0,0,1594,1595,1596,
1151,1607,0,0,0,1158,0,302,302,0,0,0,0,0,0,0,0,0,0,1119,0,0,0,0,0,0,0,0,0,1119,0,0,0,302,302,302,0,0,0,1626,0,0,0,0,0,0,0,0,0,463,
463,0,0,0,1158,302,302,302,302,302,302,1158,1594,1595,1596,0,0,0,0,0,0,0,0,302,302,0,0,0,0,0,0,0,0,0,0,0,0,0,0,0,0,0,0,0,0,0,0,0,0,528,
302,1594,1595,1596,302,302,302,302,1696,302,302,302,0,0,0,0,0,0,0,0,0,0,0,0,0,0,0,0,0,0,0,0,527,0,0,1741,0,0,0,0,1696,0,0,0,302,302,302,0,0,463,
302,302,1150,302,302,302,302,302,302,302,302,302,302,0,0,0,0,0,0,0,0,0,0,0,0,0,0,0,0,0,0,0,0,0,0,0,0,0,0,0,0,0,1158,302,302,302,302,302,0,464,
302,1152,302,302,302,302,302,302,302,302,302,302,302,0,0,0,0,0,0,0,0,0,0,0,0,0,0,0,0,0,0,0,0,0,0,0,0,0,0,0,0,0,302,302,302,1721,302,302,302,463,
1594,1595,1596,0,302,302,302,302,1741,302,302,302,0,0,0,0,0,0,0,1119,0,0,0,0,0,0,0,0,0,1119,0,0,0,0,0,0,0,0,0,0,0,302,302,302,302,302,302,302,302,302,
302,0,0,0,0,302,302,302,302,302,302,0,0,0,0,0,0,0,0,0,0,0,0,0,0,0,0,0,0,0,0,0,0,0,0,0,0,0,0,0,0,302,302,302,302,302,302,302,302,302,
463,0,1626,0,0,0,0,302,302,0,0,0,0,0,0,0,0,0,0,0,0,0,0,0,1119,0,0,0,0,0,0,0,0,0,0,0,0,0,0,0,0,0,302,302,302,1651,302,302,302,302,
1151,0,0,0,1594,1595,1596,0,0,0,0,0,0,0,0,0,1696,0,0,0,0,0,0,0,0,0,0,0,527,0,0,0,0,0,1721,0,1594,1595,1596,0,0,0,302,302,302,302,302,302,302,302,
1151,0,0,0,0,0,0,0,0,0,0,1741,0,0,0,0,0,0,0,0,0,0,0,0,0,0,0,0,0,0,0,1651,0,0,0,0,0,0,0,0,0,0,0,302,302,302,302,302,302,302,
1151,0,1594,1595,1596,0,0,0,1721,0,0,0,0,0,0,1676,0,0,0,0,0,1626,0,0,0,0,0,0,0,0,0,0,0,0,0,0,0,0,0,0,0,1651,0,0,0,0,1696,1594,1595,1596,
463,0,0,0,1150,0,1741,1150,0,0,1150,0,0,0,0,1150,0,0,0,0,0,1150,0,0,0,1626,0,0,0,0,1151,1594,1595,1596,0,1594,1595,1596,1696,1151,0,0,1150,1676,1150,1150,302,1150,302,1151,
528,1594,1595,1596,1150,527,1151,1150,1151,463,1150,527,1151,1607,1151,1150,528,1150,1651,1150,464,1150,528,1151,1151,1151,1150,1626,1150,1151,1151,527,1151,1594,1595,1596,1151,1151,1150,1150,464,1151,1150,463,1150,1150,1151,1150,1151,1151
</data>
 </layer>
 <layer id="13" name="shadow_upper" width="50" height="40">
  <data encoding="csv">
0,0,0,0,0,0,0,0,0,0,0,0,0,0,0,0,0,0,0,0,0,0,0,0,0,0,0,0,0,0,0,0,0,0,0,0,0,0,0,0,0,0,0,0,0,0,0,0,0,0,
0,0,0,0,0,0,0,0,0,0,0,0,0,0,0,0,0,0,0,0,0,0,0,0,0,0,0,0,0,0,0,0,0,0,0,0,0,0,0,0,0,0,0,0,0,0,0,0,0,0,
0,0,0,0,0,0,0,0,0,0,0,0,0,0,0,0,0,0,0,0,0,0,0,0,0,0,0,0,0,0,0,0,0,0,0,0,0,0,0,0,0,0,0,0,0,0,0,0,0,0,
0,0,0,0,0,0,0,0,0,0,0,0,0,0,0,0,0,0,0,0,0,0,0,0,0,0,0,0,0,0,0,0,0,0,0,0,0,0,0,0,0,0,0,0,0,0,0,0,0,0,
0,0,0,0,0,0,0,0,0,0,0,0,0,0,0,0,0,0,0,0,0,0,0,0,0,0,0,0,0,0,0,0,0,0,0,0,0,0,0,0,0,0,0,0,0,0,0,0,0,0,
0,0,0,0,0,0,0,0,0,0,0,0,0,0,0,0,0,0,0,0,0,0,0,0,0,0,0,0,0,0,0,0,0,0,0,0,0,0,0,0,0,0,0,0,0,0,0,0,0,0,
0,0,0,0,0,0,0,0,0,0,0,0,0,0,0,0,0,0,0,0,0,0,0,0,0,0,0,0,0,0,0,0,0,0,0,0,0,0,0,0,0,0,0,0,0,0,0,0,0,0,
0,0,0,0,0,0,0,0,0,0,0,0,0,0,0,0,0,0,0,0,0,0,0,0,0,0,0,0,0,0,0,0,0,0,0,0,0,0,0,0,0,0,0,0,0,0,0,0,0,0,
0,0,0,0,0,0,0,0,0,0,0,0,0,0,0,0,0,0,0,0,0,0,0,0,0,0,0,0,0,0,0,0,0,0,0,0,0,0,0,0,0,0,0,0,0,0,0,0,0,0,
0,0,0,0,0,0,0,0,0,0,0,0,0,0,0,0,0,0,0,0,0,0,0,0,0,0,0,0,0,0,0,0,0,0,0,0,0,0,0,0,0,0,0,0,0,0,0,0,0,0,
0,0,0,0,0,0,0,0,0,0,0,0,0,0,0,0,0,0,0,0,0,0,0,0,0,0,0,0,0,0,0,0,0,0,0,0,0,0,0,0,0,0,0,0,0,0,0,0,0,0,
0,0,0,0,0,0,0,0,0,0,0,0,0,0,0,0,0,0,0,0,0,0,0,0,0,0,0,0,0,0,0,0,0,0,0,0,0,0,0,0,0,0,0,0,0,0,0,0,0,0,
0,0,0,0,0,0,0,0,0,0,0,0,0,0,0,0,0,0,0,0,0,0,0,0,0,0,0,0,0,0,0,0,0,0,0,0,0,0,0,0,0,0,0,0,0,0,0,0,0,0,
0,0,0,0,0,0,0,0,0,0,0,0,0,0,0,0,0,0,0,0,0,0,0,0,0,0,0,0,0,0,0,0,0,0,0,0,0,0,0,0,0,0,0,0,0,0,0,0,0,0,
0,0,0,0,0,0,0,0,0,0,0,0,0,0,0,0,0,0,0,0,0,0,0,0,0,0,0,0,0,0,0,0,0,0,0,0,0,0,0,0,0,0,0,0,0,0,0,0,0,0,
0,0,0,0,0,0,0,0,0,0,0,0,0,0,0,0,0,0,0,0,0,0,0,0,0,0,0,0,0,0,0,0,0,0,0,0,0,0,0,0,0,0,0,0,0,0,0,0,0,0,
0,0,0,0,0,0,0,0,0,0,0,0,0,0,0,0,0,0,0,0,0,0,0,0,0,0,0,0,0,0,0,0,0,0,0,0,0,0,0,0,0,0,0,0,0,0,0,0,0,0,
0,0,0,0,0,0,0,0,0,0,0,0,0,0,0,0,0,0,0,0,0,0,0,0,0,0,0,0,0,0,0,0,0,0,0,0,0,0,0,0,0,0,0,0,0,0,0,0,0,0,
0,0,0,0,0,0,0,0,0,0,0,0,0,0,0,0,0,0,0,0,0,0,0,0,0,0,0,0,0,0,0,0,0,0,0,0,0,0,0,0,0,0,0,0,0,0,0,0,0,0,
0,0,0,0,0,0,0,0,0,0,0,0,0,0,0,0,0,0,0,0,0,0,0,0,0,0,0,0,0,0,0,0,0,0,0,0,0,0,0,0,0,0,0,0,0,0,0,0,0,0,
0,0,0,0,0,0,0,0,0,0,0,0,0,0,0,0,0,0,0,0,0,0,0,0,0,0,0,0,0,0,0,0,0,0,0,0,0,0,0,0,0,0,0,0,0,0,0,0,0,0,
0,0,0,0,0,0,0,0,0,0,0,0,0,0,0,0,0,0,0,0,0,0,0,0,0,0,0,0,0,0,0,0,0,0,0,0,0,0,0,0,0,0,0,0,0,0,0,0,0,0,
0,0,0,0,0,0,0,0,0,0,0,0,0,0,0,0,0,0,0,0,0,0,0,0,0,0,0,0,0,0,0,0,0,0,0,0,0,0,0,0,0,0,0,0,0,0,0,0,0,0,
0,0,0,0,0,0,0,0,0,0,0,0,0,0,0,0,0,0,0,0,0,0,0,0,0,0,0,0,0,0,0,0,0,0,0,0,0,0,0,0,0,0,0,0,0,0,0,0,0,0,
0,0,0,0,0,0,0,0,0,0,0,0,0,0,0,0,0,0,0,0,0,0,0,0,0,0,0,0,0,0,0,0,0,0,0,0,0,0,0,0,0,0,0,0,0,0,0,0,0,0,
0,0,0,0,0,0,0,0,0,0,0,0,0,0,0,0,0,0,0,0,0,0,0,0,0,0,0,0,0,0,0,0,0,0,0,0,0,0,0,0,0,0,0,0,0,0,0,0,0,0,
0,0,0,0,0,0,0,0,0,0,0,0,0,0,0,0,0,0,0,0,0,0,0,0,0,0,0,0,0,0,0,0,0,0,0,0,0,0,0,0,0,0,0,0,0,0,0,0,0,0,
0,0,0,0,0,0,0,0,0,0,0,0,0,0,0,0,0,0,0,0,0,0,0,0,0,0,0,0,0,0,0,0,0,0,0,0,0,0,0,0,0,0,0,0,0,0,0,0,0,0,
0,0,0,0,0,0,0,0,0,0,0,0,0,0,0,0,0,0,0,0,0,0,0,0,0,0,0,0,0,0,0,0,0,0,0,0,0,0,0,0,0,0,0,0,0,0,0,0,0,0,
0,0,0,0,0,0,0,0,0,0,0,0,0,0,0,0,0,0,0,0,0,0,0,0,0,0,0,0,0,0,0,0,0,0,0,0,0,0,0,0,0,0,0,0,0,0,0,0,0,0,
0,0,0,0,0,0,0,0,0,0,0,0,0,0,0,0,0,0,0,0,0,0,0,0,0,0,0,0,0,0,0,0,0,0,0,0,0,0,0,0,0,0,0,0,0,0,0,0,0,0,
0,0,0,0,0,0,0,0,0,0,0,0,0,0,0,0,0,0,0,0,0,0,0,0,0,0,0,0,0,0,0,0,0,0,0,0,0,0,0,0,0,0,0,0,0,0,0,0,0,0,
0,0,0,0,0,0,0,0,0,0,0,0,0,0,0,0,0,0,0,0,0,0,0,0,0,0,0,0,0,0,0,0,0,0,0,0,0,0,0,0,0,0,0,0,0,0,0,0,0,0,
0,0,0,0,0,0,0,0,0,0,0,0,0,0,0,0,0,0,0,0,0,0,0,0,0,0,0,0,0,0,0,0,0,0,0,0,0,0,0,0,0,0,0,0,0,0,0,0,0,0,
0,0,0,0,0,0,0,0,0,0,0,0,0,0,0,0,0,0,0,0,0,0,0,0,0,0,0,0,0,0,0,0,0,0,0,0,0,0,0,0,0,0,0,0,0,0,0,0,0,0,
0,0,0,0,0,0,0,0,0,0,0,0,0,0,0,0,0,0,0,0,0,0,0,0,0,0,0,0,0,0,0,0,0,0,0,0,0,0,0,0,0,0,0,0,0,0,0,0,0,0,
0,0,0,0,0,0,0,0,0,0,0,0,0,0,0,0,0,0,0,0,0,0,0,0,0,0,0,0,0,0,0,0,0,0,0,0,0,0,0,0,0,0,0,0,0,0,0,0,0,0,
0,0,0,0,0,0,0,0,0,0,0,0,0,0,0,0,0,0,0,0,0,0,0,0,0,0,0,0,0,0,0,0,0,0,0,0,0,0,0,0,0,0,0,0,0,0,0,0,0,0,
0,0,0,0,0,0,0,0,0,0,0,0,0,0,0,0,0,0,0,0,0,0,0,0,0,0,0,0,0,0,0,0,0,0,0,0,0,0,0,0,0,0,0,0,0,0,0,0,0,0,
0,0,0,0,0,0,0,0,0,0,0,0,0,0,0,0,0,0,0,0,0,0,0,0,0,0,0,0,0,0,0,0,0,0,0,0,0,0,0,0,0,0,0,0,0,0,0,0,0,0
</data>
 </layer>
 <layer id="14" name="object_upper" width="50" height="40">
  <data encoding="csv">
1654,1655,1656,1657,1658,1588,1589,1590,0,0,0,0,1585,1586,1587,0,0,1591,1592,1593,1597,1598,1599,0,1157,1591,1592,1593,1588,1589,1590,0,0,0,0,1591,1592,1593,0,0,1609,1610,1611,1591,1592,1593,1597,1598,1599,0,
1659,1660,1661,1662,1663,1591,1592,1593,0,0,0,0,1588,1589,1590,1702,1703,0,0,0,1600,1601,1602,0,1157,0,0,1679,1591,1592,1593,1683,0,0,0,0,0,0,0,0,1614,1615,1616,1617,1618,0,1600,1601,1602,0,
1664,1665,1666,1667,1668,0,0,0,0,0,0,0,1591,1592,1593,1707,1708,0,0,0,1603,1604,1605,0,0,0,0,1684,1685,1686,1687,1688,0,0,0,0,0,0,0,0,1619,1620,1621,1622,1623,1724,1603,1604,1605,1728,
1669,1670,1671,1672,1585,1586,1587,0,0,0,0,0,1709,1710,1711,1712,1713,0,0,0,0,0,0,0,0,0,0,1689,1690,1691,1692,1693,0,0,0,0,0,0,0,0,0,0,0,0,0,1729,1730,1731,1732,1733,
0,1654,1655,1656,1588,1589,1590,0,0,0,0,0,1714,1715,1716,1717,1718,0,0,0,0,0,1609,1610,1611,1612,1613,0,0,0,0,0,0,0,0,0,0,0,0,0,0,0,0,0,0,1734,1735,1736,1737,1738,
0,1659,1660,1661,1591,1592,1593,0,0,0,0,0,0,0,0,0,0,0,0,0,0,0,1614,1615,1616,1617,1618,0,0,0,0,0,0,0,0,0,0,0,0,0,0,0,0,0,0,0,0,1600,1601,1602,
1699,1664,1665,1666,1667,1668,0,0,0,0,0,0,0,0,0,0,0,0,0,0,0,0,1619,1620,1621,1622,1623,0,0,0,0,0,0,1103,1104,0,1131,0,0,0,0,1131,0,0,1103,1104,0,1603,1604,1605,
1704,1669,1670,1671,1672,1673,0,0,0,0,0,0,0,0,1153,1154,0,0,1679,1680,1681,1682,1683,0,0,0,0,0,0,0,0,0,0,0,1117,0,0,0,0,0,0,0,0,0,1117,0,0,0,0,0,
1709,1710,1711,1712,1713,1586,1587,0,0,0,0,0,0,0,0,0,0,0,1684,1685,1686,1687,1688,1725,1726,1727,1728,0,0,0,0,0,0,0,1118,0,0,0,0,0,0,0,0,0,1118,0,0,0,0,0,
1714,1715,1716,1717,1718,1589,1590,0,0,0,0,0,0,0,0,0,0,0,1689,1690,1691,1692,1693,1730,1731,1732,1733,0,0,0,0,0,0,0,0,0,0,0,0,0,0,0,0,0,0,0,0,0,0,0,
1609,1610,1611,1612,1591,1592,1593,0,0,0,0,0,0,0,0,0,0,0,0,0,0,0,1734,1735,1736,1737,1738,1587,0,0,0,0,0,0,0,1114,0,0,0,0,0,0,0,1114,0,1654,1655,1656,1657,1658,
1614,1615,1616,1617,1618,0,0,0,0,0,0,0,0,0,0,0,0,0,0,0,0,0,0,0,0,1588,1589,1590,0,0,0,0,0,0,0,0,0,0,0,0,0,0,0,0,1117,1659,1660,1661,1662,1663,
1619,1620,1621,1622,1623,0,1131,0,0,0,0,0,0,0,0,0,0,1679,1680,1681,1682,1683,0,0,0,1591,1592,1593,0,0,0,0,0,0,0,0,0,0,0,0,0,0,0,0,1118,1664,1665,1666,1667,1668,
1704,1705,1706,1707,1708,1585,1586,1587,0,0,0,0,0,0,0,0,0,1684,1685,1686,1687,1688,0,0,0,0,0,0,0,0,0,0,0,0,0,0,0,0,0,0,0,0,0,0,0,1669,1670,1671,1672,1673,
1709,1710,1711,1712,1713,1588,1589,1590,0,0,0,0,0,0,0,0,0,1689,1690,1691,1692,1693,0,0,0,0,0,0,0,0,0,0,0,0,0,0,0,0,0,0,0,0,0,0,0,0,0,0,0,0,
1714,1715,1716,1717,1718,1591,1592,1593,0,0,0,0,0,0,0,0,0,0,0,0,0,0,0,0,0,0,0,1114,0,0,0,0,1629,1630,1631,1632,1633,0,0,0,0,0,0,0,0,0,0,0,0,0,
0,0,0,0,0,0,0,0,0,0,0,0,0,0,0,0,0,0,0,0,0,0,0,0,0,0,0,0,0,0,0,0,1634,1635,1636,1637,1638,0,0,0,0,0,0,0,0,1609,1610,1611,1612,1613,
0,0,0,0,0,0,0,0,0,0,0,0,0,0,0,0,0,0,0,0,0,0,0,0,0,0,0,0,0,0,0,0,1639,1640,1641,1642,1643,1658,0,0,1597,1598,1599,0,1699,1614,1615,1616,1617,1618,
0,0,0,0,0,0,1629,1630,1631,1632,1633,0,0,0,0,0,0,0,0,0,0,0,0,0,0,0,1679,1680,1681,1682,1683,0,1644,1645,1646,1647,1648,1663,0,0,1600,1601,1602,0,1704,1619,1620,1621,1622,1623,
1724,1725,1726,1727,1728,0,1634,1635,1636,1637,1638,0,0,0,0,0,0,0,0,0,0,0,0,0,0,0,1684,1685,1686,1687,1688,0,0,1664,1665,1666,1667,1668,0,0,1603,1604,1605,1611,1709,1710,1711,1712,1713,0,
1729,1730,1731,1732,1733,0,1639,1640,1641,1642,1643,0,0,0,0,0,0,0,0,0,0,0,0,0,0,0,1689,1690,1691,1692,1693,1131,0,1669,1670,1671,1672,1673,0,0,0,1614,1615,1616,1714,1715,1716,1717,1718,0,
1734,1735,1736,1737,1738,0,1644,1645,1646,1647,1648,0,0,0,0,1679,1680,1681,1682,1683,0,0,0,0,0,0,0,0,0,0,0,0,0,0,0,0,0,0,0,0,0,1619,1620,1621,1622,1623,1600,1601,1602,0,
1588,1589,1590,1631,1632,1633,0,0,0,0,0,0,0,0,0,1684,1131,1686,1687,1688,0,0,0,0,0,0,0,0,0,0,0,1157,0,0,0,0,1157,0,0,0,0,0,0,0,1704,1705,1603,1604,1605,0,
1591,1592,1593,1636,1637,1638,0,0,0,0,0,0,0,0,0,1689,1690,1691,1692,1693,0,0,0,0,0,0,0,0,0,0,1157,0,0,0,0,0,0,0,0,0,0,0,0,0,1709,1710,1711,1712,1713,1587,
1597,1639,1640,1641,1642,1643,0,0,0,0,0,0,0,0,0,0,0,0,0,0,0,0,0,0,0,0,0,0,0,0,0,0,0,0,0,0,0,1609,1610,1611,1612,1613,0,0,1714,1715,1716,1717,1718,1590,
1600,1644,1645,1646,1647,1648,0,0,0,0,0,0,1585,1586,1587,0,0,0,0,1117,0,0,0,0,0,0,0,0,0,0,0,0,0,0,0,0,0,1614,1615,1616,1617,1618,0,0,0,0,0,1591,1592,1593,
1603,1604,1605,1587,0,1157,1679,1680,1681,1682,1683,0,1588,1589,1590,0,0,0,0,1118,0,0,0,0,0,0,0,0,0,0,0,0,0,1724,1725,1726,1727,1619,1620,1621,1622,1623,1683,0,0,0,0,0,0,0,
0,1588,1589,1590,1157,0,1684,1685,1686,1687,1688,1157,1591,1592,1593,0,0,0,0,0,0,0,0,0,0,0,0,0,0,0,0,0,0,1729,1730,1731,1732,1733,1684,1685,1686,1687,1688,1699,1700,1701,1702,1703,0,0,
0,1591,1592,1593,0,0,1689,1690,1691,1692,1693,0,0,0,0,0,0,0,0,0,0,0,0,0,0,0,0,0,0,0,0,0,0,1734,1735,1736,1737,1738,1689,1690,1691,1692,1693,1704,1705,1706,1707,1708,0,0,
1585,1586,1587,0,0,0,1724,1725,1726,1727,1728,0,0,0,0,0,0,0,0,0,0,0,0,0,0,0,0,0,0,0,0,0,0,0,0,0,0,0,0,0,0,0,1157,1709,1710,1711,1712,1713,0,0,
1588,1589,1590,0,0,0,1729,1730,1731,1732,1733,0,0,0,0,0,0,0,0,0,0,0,0,0,0,0,0,0,0,1117,0,0,0,0,0,0,0,0,0,0,0,0,0,1714,1715,1716,1717,1718,0,0,
1591,1592,1593,1612,1613,0,1734,1735,1736,1737,1738,0,0,0,0,0,0,0,0,0,0,0,0,0,0,0,0,0,0,1118,0,0,1699,1700,1701,1702,1703,0,0,0,0,0,0,1634,1635,1636,1637,1638,0,0,
1614,1615,1616,1617,1618,1586,1587,0,0,0,0,0,0,0,1679,1680,1681,1682,1683,0,0,0,0,0,0,0,0,0,0,1629,1630,1631,1704,1705,1706,1707,1585,1586,1587,0,0,0,0,1639,1640,1641,1642,1643,0,0,
1619,1620,1621,1622,1623,1589,1590,1700,1701,1724,1725,1726,1727,1728,1684,1685,1686,1687,1688,0,0,0,0,0,0,0,0,0,0,1634,1635,1636,1709,1710,1711,1712,1588,1589,1590,1629,1630,1631,1632,1633,1645,1646,1647,1648,0,0,
0,0,1585,1586,1591,1592,1593,1705,1706,1729,1730,1731,1732,1733,1689,1690,1691,1692,1693,1609,1610,1611,1612,1613,0,0,0,0,0,1639,1640,1641,1714,1715,1716,1717,1591,1592,1593,1634,1635,1636,1637,1638,1679,1680,1681,1682,1683,1587,
0,0,1588,1589,1590,1725,1709,1710,1711,1734,1735,1736,1737,1738,1665,1666,1667,1668,1631,1614,1615,1616,1617,1618,1610,1611,1612,1613,0,1644,1645,1646,1647,1648,0,1585,1679,1680,1681,1639,1640,1641,1642,1643,1684,1685,1686,1687,1688,1590,
0,1585,1591,1592,1593,1730,1714,1715,1716,1717,1718,0,1597,1669,1670,1671,1672,1673,1636,1619,1620,1621,1622,1623,1615,1616,1617,1618,1612,1613,0,1588,1589,1590,1586,1588,1684,1685,1686,1644,1645,1646,1647,1648,1689,1690,1691,1692,1693,1593,
0,1588,1589,1590,1734,1735,1736,1737,1738,0,0,0,1600,1601,1602,0,1639,1640,1641,1642,1643,0,0,1619,1620,1621,1622,1623,1617,1618,0,1591,1592,1593,1589,1591,1689,1690,1691,1692,1693,1669,1670,1671,1672,1673,0,0,0,0,
0,1591,1592,1593,0,0,0,0,0,0,0,0,1603,1604,1605,0,1644,1645,1646,1647,1648,0,0,0,0,1619,1620,1621,1622,1623,0,0,0,1591,1592,1593,0,0,0,0,0,0,0,0,0,0,0,0,0,0,
0,0,0,0,0,0,0,0,0,0,0,0,0,0,0,0,0,0,0,0,0,0,0,0,0,0,0,0,0,0,0,0,0,0,0,0,0,0,0,0,0,0,0,0,0,0,0,0,0,0
</data>
 </layer>
 <layer id="15" name="deco" width="50" height="40">
  <data encoding="csv">
0,0,0,0,0,0,0,0,0,0,0,0,0,0,0,0,0,0,0,0,0,0,0,0,0,0,0,0,0,0,0,0,0,0,0,0,0,0,0,0,0,0,0,1612,1613,0,0,0,0,0,
0,0,0,0,0,0,0,0,0,0,0,0,1699,1700,1701,0,0,0,0,0,0,0,0,0,0,0,0,0,1680,1681,1682,0,0,0,0,0,0,0,0,0,0,0,0,0,0,0,0,0,0,0,
0,0,0,0,0,0,0,0,0,0,0,0,1704,1705,1706,0,0,0,0,0,0,0,0,0,0,0,0,0,0,0,0,0,0,0,0,0,0,0,0,0,0,0,0,0,0,0,1725,1726,1727,0,
0,0,0,0,1673,0,0,0,0,0,0,0,0,0,0,0,0,0,0,0,0,0,0,0,0,0,0,0,0,0,0,0,0,0,0,0,0,0,0,0,0,0,0,0,0,0,0,0,0,0,
0,0,0,0,1657,1658,0,0,0,0,0,0,0,0,0,0,0,0,0,0,0,0,0,0,0,0,0,0,0,0,0,0,0,0,0,0,0,0,0,0,0,0,0,0,0,0,0,1597,1598,1599,
0,0,0,0,1662,1663,0,0,0,0,0,0,0,0,0,0,0,0,0,0,0,0,0,0,0,0,0,0,0,0,0,0,0,0,0,0,0,0,0,0,0,0,0,0,0,0,0,0,0,0,
0,1700,1701,1702,1703,0,0,0,0,0,0,0,0,0,0,0,0,0,0,0,0,0,0,0,0,0,0,0,0,0,0,0,0,0,0,0,0,0,0,0,0,0,0,0,0,0,0,0,0,0,
0,1705,1706,1707,1708,0,0,0,0,0,0,0,0,0,0,0,0,0,0,0,0,0,0,0,0,0,0,0,0,0,0,0,0,0,0,0,0,0,0,0,0,0,0,0,0,0,0,0,0,0,
0,0,0,0,1585,0,0,0,0,0,0,0,0,0,0,0,0,0,0,0,0,0,1724,0,0,0,0,0,0,0,0,0,0,0,0,0,0,0,0,0,0,0,0,0,0,0,0,0,0,0,
0,0,0,0,1588,0,0,0,0,0,0,0,0,0,0,0,0,0,0,0,0,0,1729,0,0,0,0,0,0,0,0,0,0,0,0,0,0,0,0,0,0,0,0,0,0,0,0,0,0,0,
0,0,0,0,1613,0,0,0,0,0,0,0,0,0,0,0,0,0,0,0,0,0,0,0,0,1585,1586,0,0,0,0,0,0,0,0,0,0,0,0,0,0,0,0,0,0,0,0,0,0,0,
0,0,0,0,0,0,0,0,0,0,0,0,0,0,0,0,0,0,0,0,0,0,0,0,0,0,0,0,0,0,0,0,0,0,0,0,0,0,0,0,0,0,0,0,0,0,0,0,0,0,
1699,1700,1701,1702,1703,0,0,0,0,0,0,0,0,0,0,0,0,0,0,0,0,0,0,0,0,0,0,0,0,0,0,0,0,0,0,0,0,0,0,0,0,0,0,0,0,0,0,0,0,0,
0,0,0,0,0,0,0,0,0,0,0,0,0,0,0,0,0,0,0,0,0,0,0,0,0,0,0,0,0,0,0,0,0,0,0,0,0,0,0,0,0,0,0,0,0,0,0,0,0,0,
0,0,0,0,0,0,0,0,0,0,0,0,0,0,0,0,0,0,0,0,0,0,0,0,0,0,0,0,0,0,0,0,0,0,0,0,0,0,0,0,0,0,0,0,0,0,0,0,0,0,
0,0,0,0,0,0,0,0,0,0,0,0,0,0,0,0,0,0,0,0,0,0,0,0,0,0,0,0,0,0,0,0,0,0,0,0,0,0,0,0,0,0,0,0,0,0,0,0,0,0,
0,0,0,0,0,0,0,0,0,0,0,0,0,0,0,0,0,0,0,0,0,0,0,0,0,0,0,0,0,0,0,0,0,0,0,0,0,0,0,0,0,0,0,0,0,0,0,0,0,0,
0,0,0,0,0,0,0,0,0,0,0,0,0,0,0,0,0,0,0,0,0,0,0,0,0,0,0,0,0,0,0,0,0,1654,1655,1656,1657,0,0,0,0,0,0,0,0,1700,1701,1702,1703,0,
0,0,0,0,0,0,0,0,0,0,0,0,0,0,0,0,0,0,0,0,0,0,0,0,0,0,0,0,0,0,0,0,0,1659,1660,1661,1662,0,0,0,0,0,0,0,0,1705,1706,1707,1708,0,
0,0,0,0,0,0,0,0,0,0,0,0,0,0,0,0,0,0,0,0,0,0,0,0,0,0,0,0,0,0,0,0,0,0,0,0,0,0,0,0,0,1609,1610,0,1612,1613,0,0,0,0,
0,0,0,0,0,0,0,0,0,0,0,0,0,0,0,0,0,0,0,0,0,0,0,0,0,0,0,0,0,0,0,0,0,0,0,0,0,0,0,0,0,0,0,0,1617,1618,1597,1598,1599,0,
1585,1586,1587,0,0,0,0,0,0,0,0,0,0,0,0,0,0,0,0,0,0,0,0,0,0,0,0,0,0,0,0,0,0,0,0,0,0,0,0,0,0,0,0,0,1699,1700,1701,1702,1703,0,
0,1629,1630,0,0,0,0,0,0,0,0,0,0,0,0,0,1685,0,0,0,0,0,0,0,0,0,0,0,0,0,0,0,0,0,0,0,0,0,0,0,0,0,0,0,0,0,1706,1707,1708,0,
0,1634,1635,0,0,0,0,0,0,0,0,0,0,0,0,0,0,0,0,0,0,0,0,0,0,0,0,0,0,0,0,0,0,0,0,0,0,0,0,0,0,0,0,0,0,0,0,1585,1586,0,
0,1598,1599,0,0,0,0,0,0,0,0,0,0,0,0,0,0,0,0,0,0,0,0,0,0,0,0,0,0,0,0,0,0,0,0,0,0,0,0,0,0,0,0,0,0,0,0,1588,1589,0,
0,1601,1602,0,0,0,0,0,0,0,0,0,0,0,0,0,0,0,0,0,0,0,0,0,0,0,0,0,0,0,0,0,0,0,0,0,0,0,0,0,0,0,0,0,0,0,0,0,0,0,
0,1585,1586,0,0,0,0,0,0,0,0,0,0,0,0,0,0,0,0,0,0,0,0,0,0,0,0,0,0,0,0,0,0,0,0,0,0,1728,1679,1680,1681,1682,0,0,0,0,0,0,0,0,
0,0,0,0,0,0,0,0,0,0,0,0,0,0,0,0,0,0,0,0,0,0,0,0,0,0,0,0,0,0,0,0,0,0,0,0,0,0,0,0,0,0,0,0,0,0,0,0,0,0,
0,0,0,0,0,0,0,0,0,0,0,0,0,0,0,0,0,0,0,0,0,0,0,0,0,0,0,0,0,0,0,0,0,0,0,0,0,0,0,0,0,0,0,0,0,0,0,0,0,0,
0,0,0,0,0,0,0,0,0,0,0,0,0,0,0,0,0,0,0,0,0,0,0,0,0,0,0,0,0,0,0,0,0,0,0,0,0,0,0,0,0,0,0,0,0,0,0,0,0,0,
0,0,0,0,0,0,0,0,0,0,0,0,0,0,0,0,0,0,0,0,0,0,0,0,0,0,0,0,0,0,0,0,0,0,0,0,0,0,0,0,0,0,0,1629,1630,1631,1632,1633,0,0,
1609,1610,1611,0,0,0,0,0,0,0,0,0,0,0,0,0,0,0,0,0,0,0,0,0,0,0,0,0,0,0,0,0,0,0,0,0,0,0,0,0,0,0,0,0,0,0,0,0,0,0,
0,0,0,0,1585,0,0,0,0,0,0,0,0,0,0,0,0,0,0,0,0,0,0,0,0,0,0,0,0,0,0,0,1632,1633,0,0,1708,0,0,0,0,0,0,0,0,0,0,0,0,0,
0,0,0,0,1588,0,1699,0,0,1702,1703,0,0,1654,1655,1656,1657,1658,0,0,0,0,0,0,0,0,0,0,0,0,0,0,1637,1638,0,0,1713,0,0,0,0,0,0,1644,0,0,0,0,0,0,
0,0,0,0,1587,0,1704,0,0,1707,1708,0,0,1659,1660,1661,1662,1663,0,0,0,0,0,0,0,0,0,0,0,0,0,0,1642,1643,0,0,1718,0,0,0,0,1654,1655,1656,1657,1658,0,1585,1586,0,
0,0,0,0,1724,0,1726,1727,1728,1712,1713,0,0,1664,0,0,1629,1630,0,1632,1633,0,0,1609,0,0,0,0,0,0,0,1585,1586,1587,0,0,1586,1587,0,1682,1683,1659,1660,1661,1662,1663,0,1588,1589,0,
0,0,1586,1587,1729,0,1731,1732,1733,0,0,0,0,1598,1599,0,1634,1635,0,1637,1638,0,0,1614,0,1609,1610,1611,0,0,0,0,0,1585,0,1587,1589,1590,0,1687,1688,1664,1665,1666,1667,1668,0,1591,1592,0,
0,0,0,0,0,0,0,0,0,0,0,0,0,0,0,0,0,0,0,0,0,0,0,0,0,1614,1615,1616,0,0,0,0,0,1588,0,1590,1592,1593,0,0,0,0,0,0,0,0,0,0,0,0,
0,0,0,0,0,0,0,0,0,0,0,0,0,0,0,0,0,0,0,0,0,0,0,0,0,0,0,0,0,0,0,0,0,0,0,0,0,0,0,0,0,0,0,0,0,0,0,0,0,0,
0,0,0,0,0,0,0,0,0,0,0,0,0,0,0,0,0,0,0,0,0,0,0,0,0,0,0,0,0,0,0,0,0,0,0,0,0,0,0,0,0,0,0,0,0,0,0,0,0,0
</data>
 </layer>
 <layer id="16" name="roof" width="50" height="40">
  <data encoding="csv">
0,0,0,0,0,0,0,0,0,0,0,0,0,0,0,0,0,0,0,0,0,0,0,0,0,0,0,0,0,0,0,0,0,0,0,0,0,0,0,0,0,0,0,0,0,0,0,0,0,0,
0,0,0,0,0,0,0,0,0,0,0,0,0,0,0,0,0,0,0,0,0,0,0,0,0,0,0,0,0,0,0,0,0,0,0,0,0,0,0,0,0,0,0,0,0,0,0,0,0,0,
0,0,0,0,0,0,0,0,0,0,0,0,0,0,0,0,0,0,0,0,0,0,0,0,0,0,0,0,0,0,0,0,0,0,0,0,0,0,0,0,0,0,0,0,0,0,0,0,0,0,
0,0,0,0,0,0,0,0,0,0,0,0,0,0,0,0,0,0,0,0,0,0,0,0,0,0,0,0,0,0,0,0,0,0,0,0,0,0,0,0,0,0,0,0,0,0,0,0,0,0,
0,0,0,0,0,0,0,0,0,0,0,0,0,0,0,0,0,0,0,0,0,0,0,0,0,0,0,0,0,0,0,0,0,0,0,0,0,0,0,0,0,0,0,0,0,0,0,0,0,0,
0,0,0,0,0,0,0,0,0,0,0,0,0,0,0,0,0,0,0,0,0,0,0,0,0,0,0,0,0,0,0,0,0,0,0,0,0,0,0,0,0,0,0,0,0,0,0,0,0,0,
0,0,0,0,0,0,0,0,0,0,0,0,0,0,0,0,0,0,0,0,0,0,0,0,0,0,0,0,0,0,0,0,0,0,0,0,0,0,0,0,0,0,0,0,0,0,0,0,0,0,
0,0,0,0,0,0,0,0,0,0,0,0,0,0,0,0,0,0,0,0,0,0,0,0,0,0,0,0,0,0,0,0,0,0,0,0,0,0,0,0,0,0,0,0,0,0,0,0,0,0,
0,0,0,0,0,0,0,0,0,0,0,0,0,0,0,0,0,0,0,0,0,0,0,0,0,0,0,0,0,0,0,0,0,0,0,0,0,0,0,0,0,0,0,0,0,0,0,0,0,0,
0,0,0,0,0,0,0,0,0,0,0,0,0,0,0,0,0,0,0,0,0,0,0,0,0,0,0,0,0,0,0,0,0,0,0,0,0,0,0,0,0,0,0,0,0,0,0,0,0,0,
0,0,0,0,0,0,0,0,0,0,0,0,0,0,0,0,0,0,0,0,0,0,0,0,0,0,0,0,0,0,0,0,0,0,0,0,0,0,0,0,0,0,0,0,0,0,0,0,0,0,
0,0,0,0,0,0,0,0,0,0,0,0,0,0,0,0,0,0,0,0,0,0,0,0,0,0,0,0,0,0,0,0,0,0,0,0,0,0,0,0,0,0,0,0,0,0,0,0,0,0,
0,0,0,0,0,0,0,0,0,0,0,0,0,0,0,0,0,0,0,0,0,0,0,0,0,0,0,0,0,0,0,0,0,0,0,0,0,0,0,0,0,0,0,0,0,0,0,0,0,0,
0,0,0,0,0,0,0,0,0,0,0,0,0,0,0,0,0,0,0,0,0,0,0,0,0,0,0,0,0,0,0,0,0,0,0,0,0,0,0,0,0,0,0,0,0,0,0,0,0,0,
0,0,0,0,0,0,0,0,0,0,0,0,0,0,0,0,0,0,0,0,0,0,0,0,0,0,0,0,0,0,0,0,0,0,0,0,0,0,0,0,0,0,0,0,0,0,0,0,0,0,
0,0,0,0,0,0,0,0,0,0,0,0,0,0,0,0,0,0,0,0,0,0,0,0,0,0,0,0,0,0,0,0,0,0,0,0,0,0,0,0,0,0,0,0,0,0,0,0,0,0,
0,0,0,0,0,0,0,0,0,0,0,0,0,0,0,0,0,0,0,0,0,0,0,0,0,0,0,0,0,0,0,0,0,0,0,0,0,0,0,0,0,0,0,0,0,0,0,0,0,0,
0,0,0,0,0,0,0,0,0,0,0,0,0,0,0,0,0,0,0,0,0,0,0,0,0,0,0,0,0,0,0,0,0,0,0,0,0,0,0,0,0,0,0,0,0,0,0,0,0,0,
0,0,0,0,0,0,0,0,0,0,0,0,0,0,0,0,0,0,0,0,0,0,0,0,0,0,0,0,0,0,0,0,0,0,0,0,0,0,0,0,0,0,0,0,0,0,0,0,0,0,
0,0,0,0,0,0,0,0,0,0,0,0,0,0,0,0,0,0,0,0,0,0,0,0,0,0,0,0,0,0,0,0,0,0,0,0,0,0,0,0,0,0,0,0,0,0,0,0,0,0,
0,0,0,0,0,0,0,0,0,0,0,0,0,0,0,0,0,0,0,0,0,0,0,0,0,0,0,0,0,0,0,0,0,0,0,0,0,0,0,0,0,0,0,0,0,0,0,0,0,0,
0,0,0,0,0,0,0,0,0,0,0,0,0,0,0,0,0,0,0,0,0,0,0,0,0,0,0,0,0,0,0,0,0,0,0,0,0,0,0,0,0,0,0,0,0,0,0,0,0,0,
0,0,0,0,0,0,0,0,0,0,0,0,0,0,0,0,0,0,0,0,0,0,0,0,0,0,0,0,0,0,0,0,0,0,0,0,0,0,0,0,0,0,0,0,0,0,0,0,0,0,
0,0,0,0,0,0,0,0,0,0,0,0,0,0,0,0,0,0,0,0,0,0,0,0,0,0,0,0,0,0,0,0,0,0,0,0,0,0,0,0,0,0,0,0,0,0,0,0,0,0,
0,0,0,0,0,0,0,0,0,0,0,0,0,0,0,0,0,0,0,0,0,0,0,0,0,0,0,0,0,0,0,0,0,0,0,0,0,0,0,0,0,0,0,0,0,0,0,0,0,0,
0,0,0,0,0,0,0,0,0,0,0,0,0,0,0,0,0,0,0,0,0,0,0,0,0,0,0,0,0,0,0,0,0,0,0,0,0,0,0,0,0,0,0,0,0,0,0,0,0,0,
0,0,0,0,0,0,0,0,0,0,0,0,0,0,0,0,0,0,0,0,0,0,0,0,0,0,0,0,0,0,0,0,0,0,0,0,0,0,0,0,0,0,0,0,0,0,0,0,0,0,
0,0,0,0,0,0,0,0,0,0,0,0,0,0,0,0,0,0,0,0,0,0,0,0,0,0,0,0,0,0,0,0,0,0,0,0,0,0,0,0,0,0,0,0,0,0,0,0,0,0,
0,0,0,0,0,0,0,0,0,0,0,0,0,0,0,0,0,0,0,0,0,0,0,0,0,0,0,0,0,0,0,0,0,0,0,0,0,0,0,0,0,0,0,0,0,0,0,0,0,0,
0,0,0,0,0,0,0,0,0,0,0,0,0,0,0,0,0,0,0,0,0,0,0,0,0,0,0,0,0,0,0,0,0,0,0,0,0,0,0,0,0,0,0,0,0,0,0,0,0,0,
0,0,0,0,0,0,0,0,0,0,0,0,0,0,0,0,0,0,0,0,0,0,0,0,0,0,0,0,0,0,0,0,0,0,0,0,0,0,0,0,0,0,0,0,0,0,0,0,0,0,
0,0,0,0,0,0,0,0,0,0,0,0,0,0,0,0,0,0,0,0,0,0,0,0,0,0,0,0,0,0,0,0,0,0,0,0,0,0,0,0,0,0,0,0,0,0,0,0,0,0,
0,0,0,0,0,0,0,0,0,0,0,0,0,0,0,0,0,0,0,0,0,0,0,0,0,0,0,0,0,0,0,0,0,0,0,0,0,0,0,0,0,0,0,0,0,0,0,0,0,0,
0,0,0,0,0,0,0,0,0,0,0,0,0,0,0,0,0,0,0,0,0,0,0,0,0,0,0,0,0,0,0,0,0,0,0,0,0,0,0,0,0,0,0,0,0,0,0,0,0,0,
0,0,0,0,0,0,0,0,0,0,0,0,0,0,0,0,0,0,0,0,0,0,0,0,0,0,0,0,0,0,0,0,0,0,0,0,0,0,0,0,0,0,0,0,0,0,0,0,0,0,
0,0,0,0,0,0,0,0,0,0,0,0,0,0,0,0,0,0,0,0,0,0,0,0,0,0,0,0,0,0,0,0,0,0,0,0,0,0,0,0,0,0,0,0,0,0,0,0,0,0,
0,0,0,0,0,0,0,0,0,0,0,0,0,0,0,0,0,0,0,0,0,0,0,0,0,0,0,0,0,0,0,0,0,0,0,0,0,0,0,0,0,0,0,0,0,0,0,0,0,0,
0,0,0,0,0,0,0,0,0,0,0,0,0,0,0,0,0,0,0,0,0,0,0,0,0,0,0,0,0,0,0,0,0,0,0,0,0,0,0,0,0,0,0,0,0,0,0,0,0,0,
0,0,0,0,0,0,0,0,0,0,0,0,0,0,0,0,0,0,0,0,0,0,0,0,0,0,0,0,0,0,0,0,0,0,0,0,0,0,0,0,0,0,0,0,0,0,0,0,0,0,
0,0,0,0,0,0,0,0,0,0,0,0,0,0,0,0,0,0,0,0,0,0,0,0,0,0,0,0,0,0,0,0,0,0,0,0,0,0,0,0,0,0,0,0,0,0,0,0,0,0
</data>
 </layer>
 <objectgroup id="2" name="characters">
  <!-- 학자 셀린, 첫 봉인 비석(seal_stele_1, q022 조사 목표 — 밝힌 뒤 _lit 로 바뀜), 봉인된 돌문(q022 후 열림) / 유적 해골병 7(Lv24~26, 비석 수호자 4), 이끼 골렘 3(Lv26~27) -->
  <object id="30" name="유적 해골병-1" type="character" x="496" y="608" width="32" height="32">
   <properties>
    <property name="blocksMovement" type="bool" value="true"/>
    <property name="monster.level" type="int" value="24"/>
    <property name="type" value="monster_skeleton"/>
   </properties>
  </object>
  <object id="31" name="유적 해골병-2" type="character" x="912" y="576" width="32" height="32">
   <properties>
    <property name="blocksMovement" type="bool" value="true"/>
    <property name="monster.level" type="int" value="24"/>
    <property name="type" value="monster_skeleton"/>
   </properties>
  </object>
  <object id="32" name="유적 해골병-3" type="character" x="272" y="800" width="32" height="32">
   <properties>
    <property name="blocksMovement" type="bool" value="true"/>
    <property name="monster.level" type="int" value="25"/>
    <property name="type" value="monster_skeleton"/>
   </properties>
  </object>
  <object id="33" name="유적 해골병-4" type="character" x="656" y="960" width="32" height="32">
   <properties>
    <property name="blocksMovement" type="bool" value="true"/>
    <property name="monster.level" type="int" value="25"/>
    <property name="type" value="monster_skeleton"/>
   </properties>
  </object>
  <object id="34" name="유적 해골병-5" type="character" x="912" y="960" width="32" height="32">
   <properties>
    <property name="blocksMovement" type="bool" value="true"/>
    <property name="monster.level" type="int" value="25"/>
    <property name="type" value="monster_skeleton"/>
   </properties>
  </object>
  <object id="35" name="유적 해골병-6" type="character" x="688" y="1088" width="32" height="32">
   <properties>
    <property name="blocksMovement" type="bool" value="true"/>
    <property name="monster.level" type="int" value="26"/>
    <property name="type" value="monster_skeleton"/>
   </properties>
  </object>
  <object id="36" name="유적 해골병-7" type="character" x="880" y="1088" width="32" height="32">
   <properties>
    <property name="blocksMovement" type="bool" value="true"/>
    <property name="monster.level" type="int" value="26"/>
    <property name="type" value="monster_skeleton"/>
   </properties>
  </object>
  <object id="37" name="이끼 골렘-1" type="character" x="1200" y="384" width="32" height="32">
   <properties>
    <property name="blocksMovement" type="bool" value="true"/>
    <property name="monster.level" type="int" value="26"/>
    <property name="type" value="monster_moss_golem"/>
   </properties>
  </object>
  <object id="38" name="이끼 골렘-2" type="character" x="1360" y="416" width="32" height="32">
   <properties>
    <property name="blocksMovement" type="bool" value="true"/>
    <property name="monster.level" type="int" value="26"/>
    <property name="type" value="monster_moss_golem"/>
   </properties>
  </object>
  <object id="39" name="이끼 골렘-3" type="character" x="1296" y="480" width="32" height="32">
   <properties>
    <property name="blocksMovement" type="bool" value="true"/>
    <property name="monster.level" type="int" value="27"/>
    <property name="type" value="monster_moss_golem"/>
   </properties>
  </object>
  <object id="1" name="selin" type="character" x="432" y="352" width="32" height="32">
   <properties>
    <property name="blocksMovement" type="bool" value="true"/>
    <property name="controller.dialogueLines" type="list">
     <item value="비석의 글자는 이 근방 어느 기록에도 없는 옛 문자예요. 그래도 조금씩 읽히기 시작했어요."/>
     <item value="유적을 지키던 해골병들이 아직도 순찰을 돌아요. 조심하세요."/>
    </property>
    <property name="controller.scriptId" value="vn-dialogue"/>
    <property name="displayText" value="학자 셀린"/>
    <property name="type" value="character_villager_flower_dress"/>
   </properties>
  </object>
  <object id="2" name="ruins_entrance_sign" type="character" x="112" y="576" width="32" height="32">
   <properties>
    <property name="type" value="sign_inn"/>
    <property name="blocksMovement" type="bool" value="false"/>
    <property name="displayText" value="잠긴숲 ←"/>
   </properties>
  </object>
  <object id="10" name="seal_stele_1_r0c0" type="character" x="752" y="896" width="32" height="32">
   <properties>
    <property name="blocksMovement" type="bool" value="false"/>
    <property name="quest.hiddenWhenCompleted" value="q022-stele-script"/>
    <property name="type" value="swamp_stele_r0c0"/>
   </properties>
  </object>
  <object id="11" name="seal_stele_1_r0c0_lit" type="character" x="752" y="896" width="32" height="32">
   <properties>
    <property name="blocksMovement" type="bool" value="false"/>
    <property name="quest.requiresCompleted" value="q022-stele-script"/>
    <property name="type" value="ruins_stele_lit_r0c0"/>
   </properties>
  </object>
  <object id="12" name="seal_stele_1_r0c1" type="character" x="784" y="896" width="32" height="32">
   <properties>
    <property name="blocksMovement" type="bool" value="false"/>
    <property name="quest.hiddenWhenCompleted" value="q022-stele-script"/>
    <property name="type" value="swamp_stele_r0c1"/>
   </properties>
  </object>
  <object id="13" name="seal_stele_1_r0c1_lit" type="character" x="784" y="896" width="32" height="32">
   <properties>
    <property name="blocksMovement" type="bool" value="false"/>
    <property name="quest.requiresCompleted" value="q022-stele-script"/>
    <property name="type" value="ruins_stele_lit_r0c1"/>
   </properties>
  </object>
  <object id="14" name="seal_stele_1" type="character" x="752" y="928" width="32" height="32">
   <properties>
    <property name="blocksMovement" type="bool" value="true"/>
    <property name="quest.hiddenWhenCompleted" value="q022-stele-script"/>
    <property name="type" value="swamp_stele_r1c0"/>
    <property name="controller.dialogueLines" type="list">
     <item value="이끼 낀 돌 비석이다. 낯선 글자가 빼곡히 새겨져 있다."/>
     <item value="손을 대자 글자 몇 개가 희미하게 빛났다가 꺼진다."/>
    </property>
    <property name="controller.scriptId" value="vn-dialogue"/>
    <property name="displayText" value="봉인 비석"/>
   </properties>
  </object>
  <object id="15" name="seal_stele_1_lit" type="character" x="752" y="928" width="32" height="32">
   <properties>
    <property name="blocksMovement" type="bool" value="true"/>
    <property name="quest.requiresCompleted" value="q022-stele-script"/>
    <property name="type" value="ruins_stele_lit_r1c0"/>
    <property name="controller.dialogueLines" type="list">
     <item value="푸르게 빛나는 옛 글자: &quot;봉인 셋이 물을 붙든다. 하나가 깨지면 물이 새고, 셋이 깨지면 잠든 이가 깬다.&quot;"/>
    </property>
    <property name="controller.scriptId" value="vn-dialogue"/>
    <property name="displayText" value="봉인 비석"/>
   </properties>
  </object>
  <object id="16" name="seal_stele_1_r1c1" type="character" x="784" y="928" width="32" height="32">
   <properties>
    <property name="blocksMovement" type="bool" value="true"/>
    <property name="quest.hiddenWhenCompleted" value="q022-stele-script"/>
    <property name="type" value="swamp_stele_r1c1"/>
   </properties>
  </object>
  <object id="17" name="seal_stele_1_r1c1_lit" type="character" x="784" y="928" width="32" height="32">
   <properties>
    <property name="blocksMovement" type="bool" value="true"/>
    <property name="quest.requiresCompleted" value="q022-stele-script"/>
    <property name="type" value="ruins_stele_lit_r1c1"/>
   </properties>
  </object>
  <object id="20" name="temple_door_seal_0" type="character" x="1232" y="256" width="32" height="32">
   <properties>
    <property name="blocksMovement" type="bool" value="true"/>
    <property name="controller.dialogueLines" type="list">
     <item value="옛 글자가 새겨진 돌문이 계단을 막고 있다."/>
     <item value="문 한가운데 비석과 같은 글자가 희미하게 빛난다. 비석부터 읽어야 할 것 같다."/>
    </property>
    <property name="controller.scriptId" value="vn-dialogue"/>
    <property name="quest.hiddenWhenCompleted" value="q022-stele-script"/>
    <property name="type" value="cave_prop_boulder"/>
   </properties>
  </object>
  <object id="21" name="temple_door_seal_1" type="character" x="1264" y="256" width="32" height="32">
   <properties>
    <property name="blocksMovement" type="bool" value="true"/>
    <property name="controller.dialogueLines" type="list">
     <item value="옛 글자가 새겨진 돌문이 계단을 막고 있다."/>
     <item value="문 한가운데 비석과 같은 글자가 희미하게 빛난다. 비석부터 읽어야 할 것 같다."/>
    </property>
    <property name="controller.scriptId" value="vn-dialogue"/>
    <property name="quest.hiddenWhenCompleted" value="q022-stele-script"/>
    <property name="type" value="cave_prop_boulder"/>
   </properties>
  </object>
  <object id="54" name="waystone_ruins-camp" type="character" x="304" y="416" width="32" height="32">
   <properties>
    <property name="blocksMovement" type="bool" value="true"/>
    <property name="displayText" value="귀환 표지석"/>
    <property name="type" value="cave_prop_obelisk_r1c0"/>
   </properties>
  </object>
  <object id="55" name="waystone_ruins-camp_top" type="character" x="304" y="384" width="32" height="32">
   <properties>
    <property name="blocksMovement" type="bool" value="false"/>
    <property name="type" value="cave_prop_obelisk_r0c0"/>
   </properties>
  </object>
  <object id="29" name="이끼 골렘-제단" type="character" x="240" y="64" width="32" height="32">
   <properties>
    <property name="blocksMovement" type="bool" value="true"/>
    <property name="monster.level" type="int" value="28"/>
    <property name="type" value="monster_moss_golem"/>
   </properties>
  </object>
  <object id="26" name="fallen_banner" type="character" x="400" y="896" width="32" height="32">
   <properties>
    <property name="blocksMovement" type="bool" value="true"/>
    <property name="controller.dialogueLines" type="list">
     <item value="흙에 반쯤 묻힌 깃발이다. 물결 세 줄을 수놓은 문장이 바래 있다."/>
    </property>
    <property name="controller.scriptId" value="vn-dialogue"/>
    <property name="displayText" value="쓰러진 깃발"/>
    <property name="type" value="town_prop_fence_post"/>
   </properties>
  </object>
  <object id="27" name="hidden_altar" type="character" x="80" y="64" width="32" height="32">
   <properties>
    <property name="blocksMovement" type="bool" value="true"/>
    <property name="controller.dialogueLines" type="list">
     <item value="이끼에 덮인 작은 황금 제단이다. 아무도 이곳을 모르는 듯하다."/>
    </property>
    <property name="controller.scriptId" value="vn-dialogue"/>
    <property name="displayText" value="숨은 제단"/>
    <property name="type" value="cave_prop_altar_gold_r1c1"/>
   </properties>
  </object>
 </objectgroup>
 <objectgroup id="3" name="portals">
  <!-- 서쪽 끝 → 잠긴숲 동쪽 끝 (57, 17). 숲의 신전 길 포탈(temple_road)은 이 맵의 도착 칸 (2, 19) 을 들고 있다. 북동 돌계단 → 물밑 신전 1층 (19, 36)(q022 후). -->
  <object id="52" name="reed_raft" type="portal" x="192" y="128" width="32" height="32">
   <properties>
    <property name="appearanceType" value="swamp_raft"/>
    <property name="quest.requiresCompleted" value="q027-ferry-shortcut"/>
    <property name="targetFacing" value="left"/>
    <property name="targetSceneId" value="reed-village"/>
    <property name="targetSpawnTileX" type="int" value="3"/>
    <property name="targetSpawnTileY" type="int" value="18"/>
   </properties>
  </object>
  <object id="50" name="forest_road" type="portal" x="0" y="576" width="32" height="96">
   <properties>
    <property name="appearanceType" value="swamp_deck_h"/>
    <property name="targetFacing" value="left"/>
    <property name="targetSceneId" value="sunken-forest"/>
    <property name="targetSpawnTileX" type="int" value="57"/>
    <property name="targetSpawnTileY" type="int" value="17"/>
   </properties>
  </object>
  <object id="51" name="temple_stairs" type="portal" x="1216" y="192" width="64" height="32">
   <properties>
    <property name="appearanceType" value="stairs_stone_step_base_00"/>
    <property name="quest.requiresCompleted" value="q022-stele-script"/>
    <property name="targetFacing" value="up"/>
    <property name="targetSceneId" value="sunken-temple-1f"/>
    <property name="targetSpawnTileX" type="int" value="19"/>
    <property name="targetSpawnTileY" type="int" value="36"/>
   </properties>
  </object>
 </objectgroup>
</map>
