<?xml version="1.0" encoding="UTF-8"?>
<map version="1.10" tiledversion="1.12.1" orientation="orthogonal" renderorder="right-down" width="30" height="30" tilewidth="32" tileheight="32" infinite="0" nextlayerid="17" nextobjectid="30">
<!-- scripts/generate-sunken-temple-2f.py 가 생성한다. 손으로 고치지 말고 스크립트를 고친 뒤 다시 돌릴 것. -->
 <tileset firstgid="1" source="../tilesets/town-32.tsx"/>
 <layer id="10" name="ground" width="30" height="30">
  <data encoding="csv">
660,660,660,662,660,660,660,660,660,660,660,660,660,660,660,660,660,660,660,660,660,660,662,660,660,660,660,660,660,663,
660,660,660,660,662,660,662,660,662,660,660,660,660,660,660,660,660,660,660,660,660,660,660,660,660,660,660,660,660,660,
660,662,660,660,663,660,660,660,660,698,694,694,694,694,694,694,694,694,694,694,702,660,660,662,662,663,660,660,662,660,
660,660,660,660,660,660,698,694,694,692,656,656,659,659,658,659,656,656,656,659,693,694,694,702,660,660,660,660,660,663,
660,660,660,660,660,698,692,656,656,656,656,768,764,764,764,764,764,764,772,656,656,656,659,693,702,660,660,662,663,660,
663,663,660,663,698,692,656,656,768,764,764,762,638,635,635,635,635,635,763,764,764,772,656,656,693,702,663,660,660,660,
660,660,662,698,692,656,656,768,762,635,637,635,637,635,635,635,635,635,635,635,635,763,772,656,656,693,702,660,660,660,
660,660,663,696,656,656,768,762,635,635,635,635,637,637,635,638,635,635,635,637,635,635,763,772,659,656,701,662,660,660,
663,660,698,692,656,768,762,635,635,635,635,635,635,635,637,638,635,638,635,635,635,635,635,763,772,656,693,702,662,660,
660,660,696,656,656,766,638,635,635,635,635,635,635,637,635,635,635,637,638,638,637,635,635,635,771,656,658,701,660,660,
660,663,696,656,768,762,637,635,635,637,635,637,635,635,635,635,635,637,635,635,637,635,635,635,763,772,656,701,660,660,
660,660,696,658,766,635,637,635,638,635,635,635,635,635,635,635,635,635,635,635,635,635,638,635,635,771,656,701,660,660,
663,660,696,656,766,635,635,936,932,932,940,635,635,635,637,635,635,635,635,936,932,932,940,635,635,771,658,701,660,660,
663,660,696,658,766,635,936,930,895,891,931,940,635,635,637,635,635,635,936,930,895,891,931,940,637,771,658,701,660,660,
660,660,696,656,766,637,934,895,901,900,891,939,635,635,635,635,635,635,934,895,901,900,891,939,635,771,656,701,660,660,
660,660,696,656,766,635,934,897,639,639,892,939,635,637,635,635,635,638,934,897,639,639,892,939,635,771,656,701,660,660,
660,663,696,659,766,635,934,889,898,894,888,939,635,635,635,638,635,635,934,889,898,894,888,939,637,771,656,701,663,660,
660,660,696,656,766,637,942,933,889,888,937,943,638,637,635,635,635,635,942,933,889,888,937,943,635,771,656,701,663,660,
662,660,696,656,766,635,638,942,941,941,943,635,635,638,635,637,635,635,635,942,941,941,943,635,638,771,656,701,660,660,
660,660,696,656,774,765,635,635,635,637,635,635,635,635,635,635,635,635,635,635,635,635,635,635,769,775,656,701,660,660,
660,660,696,656,659,766,635,635,635,635,635,635,638,635,635,635,638,638,635,635,635,638,635,638,771,656,656,701,660,660,
662,660,704,695,656,774,765,635,635,635,635,637,635,635,635,638,638,635,637,635,635,638,635,769,775,656,699,705,660,660,
662,660,662,696,656,659,774,765,635,635,635,635,635,635,635,635,638,635,635,635,638,635,769,775,656,656,701,660,660,660,
660,662,660,704,695,656,656,774,765,635,638,635,635,638,635,635,635,635,638,635,638,769,775,656,656,699,705,660,660,660,
660,662,660,660,704,695,658,656,774,773,773,765,635,637,635,635,635,635,769,773,773,775,656,659,699,705,662,662,660,660,
660,662,660,663,660,704,695,656,656,658,656,774,773,765,635,635,769,773,775,658,656,656,656,699,705,660,660,660,660,660,
660,660,660,660,660,660,704,703,703,695,656,656,659,774,765,769,775,656,656,659,699,703,703,705,660,660,663,660,660,660,
660,660,660,662,660,660,660,660,660,704,703,695,656,656,774,775,656,656,699,703,705,662,662,663,660,660,663,660,662,662,
660,663,663,663,660,660,660,663,660,660,660,704,695,656,656,658,658,699,705,660,660,660,662,660,663,660,660,660,660,660,
663,663,660,660,663,660,660,663,660,660,660,660,704,703,703,703,703,705,660,660,660,660,660,660,663,660,660,660,660,660
</data>
 </layer>
 <layer id="11" name="shadow_lower" width="30" height="30">
  <data encoding="csv">
0,0,0,0,0,0,0,0,0,0,0,0,0,0,0,0,0,0,0,0,0,0,0,0,0,0,0,0,0,0,
0,0,0,0,0,0,0,0,0,0,0,0,0,0,0,0,0,0,0,0,0,0,0,0,0,0,0,0,0,0,
0,0,0,0,0,0,0,0,0,0,0,0,0,0,0,0,0,0,0,0,0,0,0,0,0,0,0,0,0,0,
0,0,0,0,0,0,0,0,0,0,0,0,0,0,0,0,0,0,0,0,0,0,0,0,0,0,0,0,0,0,
0,0,0,0,0,0,0,0,0,0,0,0,0,0,0,0,0,0,0,0,0,0,0,0,0,0,0,0,0,0,
0,0,0,0,0,0,0,0,0,0,0,0,0,0,0,0,0,0,0,0,0,0,0,0,0,0,0,0,0,0,
0,0,0,0,0,0,0,0,0,0,0,0,0,0,0,0,0,0,0,0,0,0,0,0,0,0,0,0,0,0,
0,0,0,0,0,0,0,0,0,0,0,0,0,0,0,0,0,0,0,0,0,0,0,0,0,0,0,0,0,0,
0,0,0,0,0,0,0,0,0,0,0,0,0,0,0,0,0,0,0,0,0,0,0,0,0,0,0,0,0,0,
0,0,0,0,0,0,0,0,0,0,0,0,0,0,0,0,0,0,0,0,0,0,0,0,0,0,0,0,0,0,
0,0,0,0,1108,0,0,0,0,0,0,0,0,0,0,1116,0,0,0,0,0,0,0,0,0,0,1108,0,0,0,
0,0,0,0,0,0,0,0,1128,0,0,0,0,0,0,0,0,0,0,0,0,0,1128,0,0,0,0,0,0,0,
0,0,0,0,0,0,0,0,0,0,0,0,0,0,0,0,0,0,0,0,0,0,0,0,0,0,0,0,0,0,
0,0,0,0,0,0,0,0,0,0,0,0,0,1116,0,0,1116,0,0,0,0,0,0,0,0,0,0,0,0,0,
0,0,0,0,0,0,0,0,0,0,0,0,0,0,0,0,0,0,0,0,0,0,0,0,0,0,0,0,0,0,
0,0,0,0,0,0,0,0,0,0,0,0,0,0,0,0,0,0,0,0,0,0,0,0,0,0,0,0,0,0,
0,0,0,0,0,0,0,0,0,0,0,0,0,0,1116,0,0,0,0,0,0,1128,0,0,0,0,0,0,0,0,
0,0,0,0,0,0,0,0,0,1090,0,0,0,0,0,0,0,0,0,0,0,0,0,0,0,0,0,0,0,0,
0,0,0,0,0,0,0,0,0,0,0,0,0,0,0,0,0,0,0,0,0,0,0,0,0,0,0,0,0,0,
0,0,0,0,0,0,0,0,0,0,1113,0,0,0,0,0,0,0,0,0,1113,0,0,0,0,0,0,0,0,0,
0,0,0,0,0,0,0,0,0,0,0,0,0,0,0,0,0,0,1090,0,0,0,0,0,0,0,0,0,0,0,
0,0,0,0,0,0,0,0,0,0,0,0,1128,0,0,1113,0,0,0,0,0,0,0,0,0,0,0,0,0,0,
0,0,0,0,0,0,0,0,0,0,0,0,0,0,0,0,0,0,0,0,0,0,0,0,0,0,0,0,0,0,
0,0,0,0,0,0,0,0,0,0,0,0,0,0,0,0,0,0,0,0,0,0,0,0,0,0,0,0,0,0,
0,0,0,0,0,0,0,0,0,0,0,0,0,0,0,0,0,0,0,0,0,0,0,0,0,0,0,0,0,0,
0,0,0,0,0,0,0,0,0,0,0,0,0,0,0,0,0,0,0,0,0,0,0,0,0,0,0,0,0,0,
0,0,0,0,0,0,0,0,0,0,0,0,0,0,0,0,0,0,0,0,0,0,0,0,0,0,0,0,0,0,
0,0,0,0,0,0,0,0,0,0,0,0,0,0,0,0,0,0,0,0,0,0,0,0,0,0,0,0,0,0,
0,0,0,0,0,0,0,0,0,0,0,0,0,0,0,0,0,0,0,0,0,0,0,0,0,0,0,0,0,0,
0,0,0,0,0,0,0,0,0,0,0,0,0,0,0,0,0,0,0,0,0,0,0,0,0,0,0,0,0,0
</data>
 </layer>
 <layer id="12" name="object" width="30" height="30">
  <data encoding="csv">
302,302,302,302,302,302,302,302,302,302,302,302,302,302,302,302,302,302,302,302,302,302,302,302,302,302,302,302,302,302,
302,302,302,302,302,302,302,302,302,302,302,302,302,302,302,302,302,302,302,302,302,302,302,302,302,302,302,302,302,302,
302,302,302,302,302,302,302,302,302,302,302,302,302,302,302,302,302,302,302,302,302,302,302,302,302,302,302,302,302,302,
302,302,302,302,302,302,302,302,302,302,302,302,302,302,302,302,302,302,302,302,302,302,302,302,302,302,302,302,302,302,
302,302,302,302,302,302,302,302,302,302,302,302,0,0,0,0,0,0,302,302,302,302,302,302,302,302,302,302,302,302,
302,302,302,302,302,302,302,302,302,0,0,0,0,0,0,0,0,0,0,0,0,302,302,302,302,302,302,302,302,302,
302,302,302,302,302,302,302,302,0,0,0,0,0,0,0,0,0,0,0,0,0,0,302,302,302,302,302,302,302,302,
302,302,302,302,302,302,302,0,0,0,0,1092,0,1087,1088,1089,0,1092,0,0,0,0,0,302,302,302,302,302,302,302,
302,302,302,302,302,302,0,0,0,0,0,0,0,0,0,0,0,0,0,0,0,0,0,0,302,302,302,302,302,302,
302,302,302,302,302,0,0,0,0,0,1119,0,0,0,0,0,0,0,0,0,1119,0,0,0,0,302,302,302,302,302,
302,302,302,302,302,0,0,0,0,0,0,0,0,0,0,0,0,0,0,0,0,0,0,0,0,302,302,302,302,302,
302,302,302,302,0,0,0,0,0,0,0,0,0,0,0,0,0,0,0,0,0,0,0,0,0,0,302,302,302,302,
302,302,302,302,0,0,0,0,0,0,0,0,0,0,0,0,0,0,0,0,0,0,0,0,0,0,302,302,302,302,
302,302,302,302,0,0,0,1119,0,0,0,0,0,0,0,0,0,0,0,0,0,0,0,1119,0,0,302,302,302,302,
302,302,302,302,0,0,0,0,302,302,0,0,0,0,0,0,0,0,0,0,302,302,0,0,0,0,302,302,302,302,
302,302,302,302,0,0,0,302,302,302,302,0,0,0,0,0,0,0,0,302,302,302,302,0,0,0,302,302,302,302,
302,302,302,302,0,0,0,0,302,302,0,0,0,0,0,0,0,0,0,0,302,302,0,0,0,0,302,302,302,302,
302,302,302,302,0,0,0,0,0,0,0,0,0,0,0,0,0,0,0,0,0,0,0,0,0,0,302,302,302,302,
302,302,302,302,0,0,0,1119,0,0,0,0,0,0,0,0,0,0,0,0,0,0,0,1119,0,0,302,302,302,302,
302,302,302,302,302,0,0,0,0,0,0,0,0,0,0,0,0,0,0,0,0,0,0,0,0,302,302,302,302,302,
302,302,302,302,302,0,0,0,0,0,0,0,0,0,0,0,0,0,0,0,0,0,0,0,0,302,302,302,302,302,
302,302,302,302,302,302,0,0,0,0,0,0,0,0,0,0,0,0,0,0,0,0,0,0,302,302,302,302,302,302,
302,302,302,302,302,302,302,0,0,0,1119,0,0,0,0,0,0,0,0,0,1119,0,0,302,302,302,302,302,302,302,
302,302,302,302,302,302,302,302,0,0,0,0,0,0,0,0,0,0,0,0,0,0,302,302,302,302,302,302,302,302,
302,302,302,302,302,302,302,302,302,0,0,0,0,0,0,0,0,0,0,0,0,302,302,302,302,302,302,302,302,302,
302,302,302,302,302,302,302,302,302,302,302,302,0,0,0,0,0,0,302,302,302,302,302,302,302,302,302,302,302,302,
302,302,302,302,302,302,302,302,302,302,302,302,302,302,0,0,302,302,302,302,302,302,302,302,302,302,302,302,302,302,
302,302,302,302,302,302,302,302,302,302,302,302,302,302,0,0,302,302,302,302,302,302,302,302,302,302,302,302,302,302,
302,302,302,302,302,302,302,302,302,302,302,302,302,302,302,302,302,302,302,302,302,302,302,302,302,302,302,302,302,302,
302,302,302,302,302,302,302,302,302,302,302,302,302,302,302,302,302,302,302,302,302,302,302,302,302,302,302,302,302,302
</data>
 </layer>
 <layer id="13" name="shadow_upper" width="30" height="30">
  <data encoding="csv">
0,0,0,0,0,0,0,0,0,0,0,0,0,0,0,0,0,0,0,0,0,0,0,0,0,0,0,0,0,0,
0,0,0,0,0,0,0,0,0,0,0,0,0,0,0,0,0,0,0,0,0,0,0,0,0,0,0,0,0,0,
0,0,0,0,0,0,0,0,0,0,0,0,0,0,0,0,0,0,0,0,0,0,0,0,0,0,0,0,0,0,
0,0,0,0,0,0,0,0,0,0,0,0,0,0,0,0,0,0,0,0,0,0,0,0,0,0,0,0,0,0,
0,0,0,0,0,0,0,0,0,0,0,0,0,0,0,0,0,0,0,0,0,0,0,0,0,0,0,0,0,0,
0,0,0,0,0,0,0,0,0,0,0,0,0,0,0,0,0,0,0,0,0,0,0,0,0,0,0,0,0,0,
0,0,0,0,0,0,0,0,0,0,0,0,0,0,0,0,0,0,0,0,0,0,0,0,0,0,0,0,0,0,
0,0,0,0,0,0,0,0,0,0,0,0,0,0,0,0,0,0,0,0,0,0,0,0,0,0,0,0,0,0,
0,0,0,0,0,0,0,0,0,0,0,0,0,0,0,0,0,0,0,0,0,0,0,0,0,0,0,0,0,0,
0,0,0,0,0,0,0,0,0,0,0,0,0,0,0,0,0,0,0,0,0,0,0,0,0,0,0,0,0,0,
0,0,0,0,0,0,0,0,0,0,0,0,0,0,0,0,0,0,0,0,0,0,0,0,0,0,0,0,0,0,
0,0,0,0,0,0,0,0,0,0,0,0,0,0,0,0,0,0,0,0,0,0,0,0,0,0,0,0,0,0,
0,0,0,0,0,0,0,0,0,0,0,0,0,0,0,0,0,0,0,0,0,0,0,0,0,0,0,0,0,0,
0,0,0,0,0,0,0,0,0,0,0,0,0,0,0,0,0,0,0,0,0,0,0,0,0,0,0,0,0,0,
0,0,0,0,0,0,0,0,0,0,0,0,0,0,0,0,0,0,0,0,0,0,0,0,0,0,0,0,0,0,
0,0,0,0,0,0,0,0,0,0,0,0,0,0,0,0,0,0,0,0,0,0,0,0,0,0,0,0,0,0,
0,0,0,0,0,0,0,0,0,0,0,0,0,0,0,0,0,0,0,0,0,0,0,0,0,0,0,0,0,0,
0,0,0,0,0,0,0,0,0,0,0,0,0,0,0,0,0,0,0,0,0,0,0,0,0,0,0,0,0,0,
0,0,0,0,0,0,0,0,0,0,0,0,0,0,0,0,0,0,0,0,0,0,0,0,0,0,0,0,0,0,
0,0,0,0,0,0,0,0,0,0,0,0,0,0,0,0,0,0,0,0,0,0,0,0,0,0,0,0,0,0,
0,0,0,0,0,0,0,0,0,0,0,0,0,0,0,0,0,0,0,0,0,0,0,0,0,0,0,0,0,0,
0,0,0,0,0,0,0,0,0,0,0,0,0,0,0,0,0,0,0,0,0,0,0,0,0,0,0,0,0,0,
0,0,0,0,0,0,0,0,0,0,0,0,0,0,0,0,0,0,0,0,0,0,0,0,0,0,0,0,0,0,
0,0,0,0,0,0,0,0,0,0,0,0,0,0,0,0,0,0,0,0,0,0,0,0,0,0,0,0,0,0,
0,0,0,0,0,0,0,0,0,0,0,0,0,0,0,0,0,0,0,0,0,0,0,0,0,0,0,0,0,0,
0,0,0,0,0,0,0,0,0,0,0,0,0,0,0,0,0,0,0,0,0,0,0,0,0,0,0,0,0,0,
0,0,0,0,0,0,0,0,0,0,0,0,0,0,0,0,0,0,0,0,0,0,0,0,0,0,0,0,0,0,
0,0,0,0,0,0,0,0,0,0,0,0,0,0,0,0,0,0,0,0,0,0,0,0,0,0,0,0,0,0,
0,0,0,0,0,0,0,0,0,0,0,0,0,0,0,0,0,0,0,0,0,0,0,0,0,0,0,0,0,0,
0,0,0,0,0,0,0,0,0,0,0,0,0,0,0,0,0,0,0,0,0,0,0,0,0,0,0,0,0,0
</data>
 </layer>
 <layer id="14" name="object_upper" width="30" height="30">
  <data encoding="csv">
0,0,0,0,0,0,0,0,0,0,0,0,0,0,0,0,0,0,0,0,0,0,0,0,0,0,0,0,0,0,
0,0,0,0,0,0,0,0,0,0,0,0,0,0,0,0,0,0,0,0,0,0,0,0,0,0,0,0,0,0,
0,0,0,0,0,0,0,0,0,0,0,0,0,0,0,0,0,0,0,0,0,0,0,0,0,0,0,0,0,0,
0,0,0,0,0,0,0,0,0,0,0,0,0,0,0,0,0,0,0,0,0,0,0,0,0,0,0,0,0,0,
0,0,0,0,0,0,0,0,0,0,0,0,0,0,0,0,0,0,0,0,0,0,0,0,0,0,0,0,0,0,
0,0,0,0,0,0,0,0,0,0,0,0,0,0,0,0,0,0,0,0,0,0,0,0,0,0,0,0,0,0,
0,0,0,0,0,0,0,0,0,0,0,0,0,1084,1085,1086,0,0,0,0,0,0,0,0,0,0,0,0,0,0,
0,0,0,0,0,0,0,0,0,0,1117,0,0,0,0,0,0,0,0,0,1117,0,0,0,0,0,0,0,0,0,
0,0,0,0,0,0,0,0,0,0,1118,0,0,0,0,0,0,0,0,0,1118,0,0,0,0,0,0,0,0,0,
0,0,0,0,0,0,0,0,0,0,0,0,0,0,0,0,0,0,0,0,0,0,0,0,0,0,0,0,0,0,
0,0,0,0,0,0,0,0,0,0,0,0,0,0,0,0,0,0,0,0,0,0,0,0,0,0,0,0,0,0,
0,0,0,0,0,0,0,1117,0,0,0,0,0,0,0,0,0,0,0,0,0,0,0,1117,0,0,0,0,0,0,
0,0,0,0,0,0,0,1118,0,0,0,0,0,0,0,0,0,0,0,0,0,0,0,1118,0,0,0,0,0,0,
0,0,0,0,0,0,0,0,0,0,0,0,0,0,0,0,0,0,0,0,0,0,0,0,0,0,0,0,0,0,
0,0,0,0,0,0,0,0,0,0,0,0,0,0,0,0,0,0,0,0,0,0,0,0,0,0,0,0,0,0,
0,0,0,0,0,0,0,0,0,0,0,0,0,0,0,0,0,0,0,0,0,0,0,0,0,0,0,0,0,0,
0,0,0,0,0,0,0,1117,0,0,0,0,0,0,0,0,0,0,0,0,0,0,0,1117,0,0,0,0,0,0,
0,0,0,0,0,0,0,1118,0,0,0,0,0,0,0,0,0,0,0,0,0,0,0,1118,0,0,0,0,0,0,
0,0,0,0,0,0,0,0,0,0,0,0,0,0,0,0,0,0,0,0,0,0,0,0,0,0,0,0,0,0,
0,0,0,0,0,0,0,0,0,0,0,0,0,0,0,0,0,0,0,0,0,0,0,0,0,0,0,0,0,0,
0,0,0,0,0,0,0,0,0,0,1117,0,0,0,0,0,0,0,0,0,1117,0,0,0,0,0,0,0,0,0,
0,0,0,0,0,0,0,0,0,0,1118,0,0,0,0,0,0,0,0,0,1118,0,0,0,0,0,0,0,0,0,
0,0,0,0,0,0,0,0,0,0,0,0,0,0,0,0,0,0,0,0,0,0,0,0,0,0,0,0,0,0,
0,0,0,0,0,0,0,0,0,0,0,0,0,0,0,0,0,0,0,0,0,0,0,0,0,0,0,0,0,0,
0,0,0,0,0,0,0,0,0,0,0,0,0,0,0,0,0,0,0,0,0,0,0,0,0,0,0,0,0,0,
0,0,0,0,0,0,0,0,0,0,0,0,0,0,0,0,0,0,0,0,0,0,0,0,0,0,0,0,0,0,
0,0,0,0,0,0,0,0,0,0,0,0,0,0,0,0,0,0,0,0,0,0,0,0,0,0,0,0,0,0,
0,0,0,0,0,0,0,0,0,0,0,0,0,0,0,0,0,0,0,0,0,0,0,0,0,0,0,0,0,0,
0,0,0,0,0,0,0,0,0,0,0,0,0,0,0,0,0,0,0,0,0,0,0,0,0,0,0,0,0,0,
0,0,0,0,0,0,0,0,0,0,0,0,0,0,0,0,0,0,0,0,0,0,0,0,0,0,0,0,0,0
</data>
 </layer>
 <layer id="15" name="deco" width="30" height="30">
  <data encoding="csv">
0,0,0,0,0,0,0,0,0,0,0,0,0,0,0,0,0,0,0,0,0,0,0,0,0,0,0,0,0,0,
0,0,0,0,0,0,0,0,0,0,0,0,0,0,0,0,0,0,0,0,0,0,0,0,0,0,0,0,0,0,
0,0,0,0,0,0,0,0,0,0,0,0,0,0,0,0,0,0,0,0,0,0,0,0,0,0,0,0,0,0,
0,0,0,0,0,0,0,0,0,0,0,0,0,0,0,0,0,0,0,0,0,0,0,0,0,0,0,0,0,0,
0,0,0,0,0,0,0,0,0,0,0,0,0,0,0,0,0,0,0,0,0,0,0,0,0,0,0,0,0,0,
0,0,0,0,0,0,0,1140,0,0,0,0,0,0,0,0,0,0,0,0,0,0,0,1139,0,0,0,0,0,0,
0,0,0,0,0,0,0,0,0,0,0,0,0,0,0,0,0,0,0,0,0,0,0,0,0,0,0,0,0,0,
0,0,0,0,0,0,0,0,0,0,0,0,0,0,0,0,0,0,0,0,0,0,0,0,0,0,0,0,0,0,
0,0,0,0,0,0,0,0,0,0,0,0,0,0,0,0,0,0,0,0,0,0,0,0,0,0,0,0,0,0,
0,0,0,0,0,0,0,0,0,0,0,0,0,0,0,0,0,0,0,0,0,0,0,0,0,0,0,0,0,0,
0,0,0,0,0,0,0,0,0,0,0,0,0,0,0,0,0,0,0,0,0,0,0,0,0,0,0,0,0,0,
0,0,0,0,0,0,0,0,0,0,0,0,0,0,0,0,0,0,0,0,0,0,0,0,0,0,0,0,0,0,
0,0,0,0,0,0,0,0,0,0,0,0,0,0,0,0,0,0,0,0,0,0,0,0,0,0,0,0,0,0,
0,0,0,0,0,0,0,0,0,0,0,0,0,0,0,0,0,0,0,0,0,0,0,0,0,0,0,0,0,0,
0,0,0,0,0,0,0,0,0,0,0,0,0,0,0,0,0,0,0,0,0,0,0,0,0,0,0,0,0,0,
0,0,0,0,0,0,0,0,0,0,0,0,0,0,0,0,0,0,0,0,0,0,0,0,0,0,0,0,0,0,
0,0,0,0,0,0,0,0,0,0,0,0,0,0,0,0,0,0,0,0,0,0,0,0,0,0,0,0,0,0,
0,0,0,0,0,0,0,0,0,0,0,0,0,0,0,0,0,0,0,0,0,0,0,0,0,0,0,0,0,0,
0,0,0,0,0,0,0,0,0,0,0,0,0,0,0,0,0,0,0,0,0,0,0,0,0,0,0,0,0,0,
0,0,0,0,0,0,0,0,0,0,0,0,0,0,0,0,0,0,0,0,0,0,0,0,0,0,0,0,0,0,
0,0,0,0,0,0,0,0,0,0,0,0,0,0,0,0,0,0,0,0,0,0,0,0,0,0,0,0,0,0,
0,0,0,0,0,0,0,0,0,0,0,0,0,0,0,0,0,0,0,0,0,0,0,0,0,0,0,0,0,0,
0,0,0,0,0,0,0,0,0,0,0,0,0,0,0,0,0,0,0,0,0,0,0,0,0,0,0,0,0,0,
0,0,0,0,0,0,0,0,0,0,0,0,0,0,0,0,0,0,0,0,0,0,0,0,0,0,0,0,0,0,
0,0,0,0,0,0,0,0,0,0,0,0,0,0,0,0,0,0,0,0,0,0,0,0,0,0,0,0,0,0,
0,0,0,0,0,0,0,0,0,0,0,0,0,0,0,0,0,0,0,0,0,0,0,0,0,0,0,0,0,0,
0,0,0,0,0,0,0,0,0,0,0,0,0,0,0,0,0,0,0,0,0,0,0,0,0,0,0,0,0,0,
0,0,0,0,0,0,0,0,0,0,0,0,0,0,0,0,0,0,0,0,0,0,0,0,0,0,0,0,0,0,
0,0,0,0,0,0,0,0,0,0,0,0,0,0,0,0,0,0,0,0,0,0,0,0,0,0,0,0,0,0,
0,0,0,0,0,0,0,0,0,0,0,0,0,0,0,0,0,0,0,0,0,0,0,0,0,0,0,0,0,0
</data>
 </layer>
 <layer id="16" name="roof" width="30" height="30">
  <data encoding="csv">
0,0,0,0,0,0,0,0,0,0,0,0,0,0,0,0,0,0,0,0,0,0,0,0,0,0,0,0,0,0,
0,0,0,0,0,0,0,0,0,0,0,0,0,0,0,0,0,0,0,0,0,0,0,0,0,0,0,0,0,0,
0,0,0,0,0,0,0,0,0,0,0,0,0,0,0,0,0,0,0,0,0,0,0,0,0,0,0,0,0,0,
0,0,0,0,0,0,0,0,0,0,0,0,0,0,0,0,0,0,0,0,0,0,0,0,0,0,0,0,0,0,
0,0,0,0,0,0,0,0,0,0,0,0,0,0,0,0,0,0,0,0,0,0,0,0,0,0,0,0,0,0,
0,0,0,0,0,0,0,0,0,0,0,0,0,0,0,0,0,0,0,0,0,0,0,0,0,0,0,0,0,0,
0,0,0,0,0,0,0,0,0,0,0,0,0,0,0,0,0,0,0,0,0,0,0,0,0,0,0,0,0,0,
0,0,0,0,0,0,0,0,0,0,0,0,0,0,0,0,0,0,0,0,0,0,0,0,0,0,0,0,0,0,
0,0,0,0,0,0,0,0,0,0,0,0,0,0,0,0,0,0,0,0,0,0,0,0,0,0,0,0,0,0,
0,0,0,0,0,0,0,0,0,0,0,0,0,0,0,0,0,0,0,0,0,0,0,0,0,0,0,0,0,0,
0,0,0,0,0,0,0,0,0,0,0,0,0,0,0,0,0,0,0,0,0,0,0,0,0,0,0,0,0,0,
0,0,0,0,0,0,0,0,0,0,0,0,0,0,0,0,0,0,0,0,0,0,0,0,0,0,0,0,0,0,
0,0,0,0,0,0,0,0,0,0,0,0,0,0,0,0,0,0,0,0,0,0,0,0,0,0,0,0,0,0,
0,0,0,0,0,0,0,0,0,0,0,0,0,0,0,0,0,0,0,0,0,0,0,0,0,0,0,0,0,0,
0,0,0,0,0,0,0,0,0,0,0,0,0,0,0,0,0,0,0,0,0,0,0,0,0,0,0,0,0,0,
0,0,0,0,0,0,0,0,0,0,0,0,0,0,0,0,0,0,0,0,0,0,0,0,0,0,0,0,0,0,
0,0,0,0,0,0,0,0,0,0,0,0,0,0,0,0,0,0,0,0,0,0,0,0,0,0,0,0,0,0,
0,0,0,0,0,0,0,0,0,0,0,0,0,0,0,0,0,0,0,0,0,0,0,0,0,0,0,0,0,0,
0,0,0,0,0,0,0,0,0,0,0,0,0,0,0,0,0,0,0,0,0,0,0,0,0,0,0,0,0,0,
0,0,0,0,0,0,0,0,0,0,0,0,0,0,0,0,0,0,0,0,0,0,0,0,0,0,0,0,0,0,
0,0,0,0,0,0,0,0,0,0,0,0,0,0,0,0,0,0,0,0,0,0,0,0,0,0,0,0,0,0,
0,0,0,0,0,0,0,0,0,0,0,0,0,0,0,0,0,0,0,0,0,0,0,0,0,0,0,0,0,0,
0,0,0,0,0,0,0,0,0,0,0,0,0,0,0,0,0,0,0,0,0,0,0,0,0,0,0,0,0,0,
0,0,0,0,0,0,0,0,0,0,0,0,0,0,0,0,0,0,0,0,0,0,0,0,0,0,0,0,0,0,
0,0,0,0,0,0,0,0,0,0,0,0,0,0,0,0,0,0,0,0,0,0,0,0,0,0,0,0,0,0,
0,0,0,0,0,0,0,0,0,0,0,0,0,0,0,0,0,0,0,0,0,0,0,0,0,0,0,0,0,0,
0,0,0,0,0,0,0,0,0,0,0,0,0,0,0,0,0,0,0,0,0,0,0,0,0,0,0,0,0,0,
0,0,0,0,0,0,0,0,0,0,0,0,0,0,0,0,0,0,0,0,0,0,0,0,0,0,0,0,0,0,
0,0,0,0,0,0,0,0,0,0,0,0,0,0,0,0,0,0,0,0,0,0,0,0,0,0,0,0,0,0,
0,0,0,0,0,0,0,0,0,0,0,0,0,0,0,0,0,0,0,0,0,0,0,0,0,0,0,0,0,0
</data>
 </layer>
 <objectgroup id="2" name="characters">
  <!-- 늪의 사제-보스(Lv30, 2장 최종 보스) / 소환 하수인 물에 빠진 자 4(Lv28, 처음엔 쓰러진 채 — 사제가 불러낸다) -->
  <object id="1" name="늪의 사제-보스" type="character" x="464" y="352" width="32" height="32">
   <properties>
    <property name="blocksMovement" type="bool" value="true"/>
    <property name="monster.level" type="int" value="30"/>
    <property name="type" value="monster_swamp_priest"/>
   </properties>
  </object>
  <object id="2" name="늪의 사제-소환-1" type="character" x="368" y="320" width="32" height="32">
   <properties>
    <property name="blocksMovement" type="bool" value="true"/>
    <property name="displayText" value="물에 빠진 자"/>
    <property name="monster.level" type="int" value="28"/>
    <property name="type" value="monster_drowned"/>
   </properties>
  </object>
  <object id="3" name="늪의 사제-소환-2" type="character" x="592" y="320" width="32" height="32">
   <properties>
    <property name="blocksMovement" type="bool" value="true"/>
    <property name="displayText" value="물에 빠진 자"/>
    <property name="monster.level" type="int" value="28"/>
    <property name="type" value="monster_drowned"/>
   </properties>
  </object>
  <object id="4" name="늪의 사제-소환-3" type="character" x="336" y="416" width="32" height="32">
   <properties>
    <property name="blocksMovement" type="bool" value="true"/>
    <property name="displayText" value="물에 빠진 자"/>
    <property name="monster.level" type="int" value="28"/>
    <property name="type" value="monster_drowned"/>
   </properties>
  </object>
  <object id="5" name="늪의 사제-소환-4" type="character" x="624" y="416" width="32" height="32">
   <properties>
    <property name="blocksMovement" type="bool" value="true"/>
    <property name="displayText" value="물에 빠진 자"/>
    <property name="monster.level" type="int" value="28"/>
    <property name="type" value="monster_drowned"/>
   </properties>
  </object>
 </objectgroup>
 <objectgroup id="3" name="portals">
  <!-- 남쪽 계단 → 1층 (19, 5). -->
  <object id="20" name="lower_stairs" type="portal" x="448" y="864" width="64" height="32">
   <properties>
    <property name="appearanceType" value="stairs_stone_step_base_00"/>
    <property name="targetFacing" value="down"/>
    <property name="targetSceneId" value="sunken-temple-1f"/>
    <property name="targetSpawnTileX" type="int" value="19"/>
    <property name="targetSpawnTileY" type="int" value="5"/>
   </properties>
  </object>
 </objectgroup>
</map>
