<?xml version="1.0" encoding="UTF-8"?>
<map version="1.10" tiledversion="1.12.1" orientation="orthogonal" renderorder="right-down" width="40" height="24" tilewidth="32" tileheight="32" infinite="0" nextlayerid="17" nextobjectid="40">
<!-- scripts/generate-upstream-waterway.py 가 생성한다. 손으로 고치지 말고 스크립트를 고친 뒤 다시 돌릴 것. -->
 <tileset firstgid="1" source="../tilesets/town-32.tsx"/>
 <layer id="10" name="ground" width="40" height="24">
  <data encoding="csv">
1354,1354,1353,1353,1353,1354,1353,1353,1354,1354,1353,1353,1354,1354,1353,1353,1354,1353,1353,1353,1354,1354,1353,1353,1354,1353,1353,1353,1354,1353,1353,639,639,639,639,1353,1354,1353,1353,1353,
1354,1354,1353,1353,1354,1354,1353,1353,1354,1354,1353,1353,1354,1354,1353,1353,1354,1354,1353,1353,1354,1354,1353,1353,1354,1354,1353,1353,1354,1354,639,639,639,639,1353,1353,1354,1354,1353,1353,
1353,1353,1354,1354,1354,1353,1354,1354,1353,1353,1354,1354,1353,1353,1354,1354,1353,1354,1354,1354,1353,1354,1354,1354,1353,1354,1353,1354,639,639,639,639,639,639,1353,1354,1353,1354,1353,1354,
1353,1353,1353,1353,1353,1353,1353,1353,1353,1353,1353,1353,1353,1353,1353,1353,1353,1353,1353,1353,1353,1353,1353,1353,1353,1353,1353,639,639,639,639,639,639,1353,1353,1354,639,639,639,639,
1353,1353,1354,1354,1353,1353,1353,1353,1353,1353,1354,1354,1353,1353,1353,1353,1353,1353,1354,1354,1353,1353,1353,1353,1353,639,639,639,639,639,639,639,1353,1353,1354,1353,639,639,639,639,
1353,1353,1354,1354,1353,1353,1354,1354,1353,1353,1354,1354,1353,1353,1354,1354,1353,1353,1353,1354,1353,1353,1354,1354,639,639,639,639,639,1353,1354,1354,1353,1353,1353,639,639,639,639,639,
1353,1353,1353,1353,1353,1353,1353,1353,1353,1353,1353,1353,1353,1353,1353,1353,1353,1353,1353,1353,1353,1353,1353,639,639,639,639,639,1353,1353,1353,1353,1354,1353,1353,639,639,639,639,639,
1354,1353,1353,1353,1353,1354,1353,1353,1354,1353,1354,1353,1353,1354,1353,1353,1354,1353,1354,1353,1353,1354,639,639,639,639,639,1353,1353,1354,1353,1353,1354,1353,1354,1353,639,639,639,639,
1354,1353,1353,1353,1353,1354,1353,1353,1353,1354,1353,1353,1354,1353,1353,1353,1354,1353,1353,1353,1353,639,639,639,639,639,1353,1354,1354,1353,1353,1354,1353,1353,1353,1353,639,639,639,639,
1353,1353,1353,1353,1353,1353,1353,1353,1354,1353,1353,1353,1353,1353,1353,1353,1353,1353,1353,1353,639,639,639,639,639,1354,1353,1353,1353,1353,1353,1353,1353,1353,1353,639,639,639,639,639,
1353,1354,1354,1353,1354,1353,1353,1353,1354,1353,1353,1354,1353,1354,1354,1354,1353,1354,1354,1353,639,1077,1073,639,639,1353,1353,1353,1353,1354,1354,1353,1353,639,639,639,639,639,639,639,
1353,1353,1354,1353,1354,1353,1353,1353,1354,1353,1353,1354,1353,1354,1354,1354,1353,1360,1360,1360,639,1071,1070,639,639,1353,1353,1354,1353,1354,1354,1354,639,639,639,639,639,639,639,639,
1353,1354,1353,1353,1354,1353,1354,1354,1353,1353,1353,1353,1353,1353,1360,1360,1360,1360,1360,1360,639,639,639,639,1353,1353,1353,1353,1353,1353,1353,1353,639,639,639,639,639,639,639,639,
1353,1353,1354,1353,1353,1353,1354,1353,1353,1353,1353,1354,1360,1360,1360,1360,1360,1360,1360,1360,1353,1353,1354,1354,1353,1353,1353,1353,1353,1353,1353,1353,1354,1354,1354,639,639,639,639,639,
1354,1353,1353,1354,1353,1354,1353,1353,1353,1353,1360,1360,1360,1360,1360,1360,1360,1360,1360,1353,1353,1354,1353,1353,1353,1353,1354,1353,1353,1353,1353,1353,1354,1353,1353,639,639,639,639,639,
1354,1353,1353,1354,1353,1354,1353,1353,1360,1360,1360,1360,1360,1360,1360,1360,1354,1353,1353,1354,1353,1354,1354,1353,1353,1353,1354,1353,1354,1353,1353,1353,639,639,639,639,639,639,639,639,
1353,1353,1354,1354,1353,1353,1353,1360,1360,1360,1360,1360,1360,1353,1353,1354,1353,1353,1353,1353,1353,1353,1354,1354,1353,1353,1354,1354,1353,1353,1354,1353,639,639,639,639,639,639,639,639,
1353,1353,1354,1353,1353,1353,1360,1360,1360,1360,1360,1354,1353,1353,1354,1354,1353,1353,1354,1353,1353,1353,1353,1354,1353,1353,1353,1354,1353,1353,1353,1353,1353,639,639,639,639,639,639,639,
1353,1353,1353,1353,1353,1360,1360,1360,1360,1360,1353,1353,1353,1353,1353,1353,1354,1353,1353,1353,1353,1353,1353,1353,1354,1353,1353,1353,1353,1353,1353,1353,1353,1353,639,639,639,639,639,639,
1353,1353,1353,1354,1360,1360,1360,1360,1353,1353,1353,1353,1354,1354,1353,1353,1354,1354,1353,1353,1354,1354,1354,1353,1354,1354,1354,1353,1353,1353,1354,1353,1353,1353,639,639,639,639,639,639,
1353,1353,1353,1353,1360,1360,1360,1360,1354,1353,1353,1353,1354,1354,1353,1353,1354,1354,1353,1353,1354,1354,1353,1353,1353,1353,1353,1353,1353,1353,1353,1354,1354,1353,639,639,639,639,639,639,
1354,1353,1353,1353,1360,1360,1360,1353,1354,1353,1353,1353,1354,1353,1353,1353,1353,1354,1353,1353,1354,1353,1353,1353,1353,1354,1353,1353,1354,1354,1353,1353,1354,1353,1354,639,639,639,639,639,
1354,1354,1353,1353,1360,1360,1360,1354,1353,1354,1354,1354,1353,1353,1354,1354,1353,1353,1354,1354,1353,1353,1354,1354,1353,1354,1353,1353,1354,1354,1353,1353,1353,1353,1353,639,639,639,639,639,
1353,1354,1353,1353,1360,1360,1360,1354,1353,1354,1353,1353,1353,1353,1354,1353,1353,1353,1353,1354,1353,1353,1353,1353,1353,1353,1353,1353,1353,1353,1353,1354,1353,1354,1353,1353,1353,1353,1354,1354
</data>
 </layer>
 <layer id="11" name="shadow_lower" width="40" height="24">
  <data encoding="csv">
0,1358,0,0,0,0,0,0,1357,0,0,0,0,0,0,0,0,0,0,0,0,0,0,0,0,0,0,0,0,0,0,1414,1369,1418,1465,1357,0,0,0,0,
0,0,0,0,0,0,0,0,0,0,0,0,1358,0,0,0,0,0,0,0,0,0,0,0,0,0,0,0,1359,1357,1407,1364,0,1434,1355,0,0,0,0,0,
0,0,0,0,0,0,0,0,0,0,0,0,0,0,0,0,0,0,0,0,0,0,0,0,0,0,1359,0,1414,1384,1362,0,1422,1470,0,0,0,1358,0,0,
0,0,0,0,0,0,0,0,0,0,0,0,0,0,0,0,0,0,0,0,0,0,0,0,0,0,1358,1410,1365,0,0,1419,1463,0,1359,0,1408,1382,1386,1381,
0,1359,0,0,0,0,0,0,0,0,0,0,0,0,0,0,0,0,0,0,0,0,0,0,0,1414,1384,1362,1418,1450,1449,1463,0,0,0,0,1401,0,0,0,
1719,1720,0,1722,1723,0,0,0,1694,1695,0,1697,1698,1674,1675,0,1677,1678,0,1357,0,0,0,1359,1408,1364,0,1417,1468,1356,0,0,0,1358,0,1407,1364,1606,0,1608,
0,0,0,0,1739,1740,0,1742,1743,0,0,0,0,0,0,1359,0,0,0,0,0,0,0,1414,1366,0,1421,1466,0,0,0,0,1358,0,0,1453,1394,0,0,0,
0,0,0,0,1359,0,0,0,0,0,0,0,1356,0,0,0,0,0,0,0,0,0,1410,1365,0,1422,1470,0,0,0,1606,0,1608,0,0,0,1405,0,0,0,
0,0,0,0,0,0,0,0,0,0,0,0,0,0,0,0,0,0,0,0,0,1409,1361,0,1424,1464,0,0,1357,0,0,0,0,0,0,1359,1405,0,0,0,
0,1694,1695,0,1697,1698,0,0,0,0,0,0,0,0,0,0,0,0,0,1358,1413,1369,0,1422,1470,0,0,0,0,0,1719,1720,0,1722,1723,1415,1369,0,0,0,
0,0,0,0,0,0,0,0,0,0,0,0,0,0,0,0,0,1356,0,0,1397,0,0,1372,1437,0,0,0,0,0,0,0,0,1415,1387,1369,0,0,0,0,
0,0,0,1359,0,0,0,0,0,0,0,0,0,0,0,0,0,1525,1491,1551,1398,0,0,1420,1463,0,0,0,0,0,0,0,1414,1369,0,1674,1675,0,1677,1678,
0,0,0,0,0,0,0,0,0,0,0,0,0,0,1520,1490,1495,1479,0,1544,1457,1451,1452,1467,0,0,0,0,0,0,0,0,1458,1452,1452,1393,0,0,0,0,
0,0,0,0,0,0,0,0,0,0,0,0,1517,1489,1471,0,0,0,1527,1578,0,0,0,0,0,0,0,0,0,0,0,0,0,0,0,1400,0,0,0,0,
0,0,0,0,0,0,0,0,0,0,1517,1489,1471,0,0,1532,1556,1554,1575,0,0,0,0,0,0,0,0,0,0,0,0,0,0,0,0,1782,1782,0,0,0,
0,0,0,0,0,0,0,0,1524,1497,1473,0,1530,1555,1554,1572,0,0,0,0,0,0,0,0,0,0,0,0,0,0,0,0,1407,1379,1382,1368,1784,0,0,0,
0,0,0,0,0,0,0,1520,1475,0,1529,1555,1575,0,0,0,0,0,0,0,0,0,0,0,0,0,0,0,0,0,0,0,1455,1393,0,0,0,0,0,0,
0,1606,0,1608,0,0,1525,1473,0,1533,1574,0,0,0,0,0,0,0,1357,0,0,0,0,0,0,0,0,0,0,0,0,0,0,1457,1392,0,0,0,0,0,
0,0,0,0,0,1520,1478,1527,1554,1575,0,0,0,0,0,0,0,0,0,0,0,0,0,0,0,0,0,0,0,0,0,0,0,0,1401,1694,1695,0,1697,1698,
0,0,0,0,1520,1472,0,1541,0,0,0,1356,0,0,0,0,0,0,1694,1695,0,1697,1698,0,0,0,0,0,0,0,0,0,0,0,1400,0,0,0,0,0,
0,0,0,0,1508,0,1534,1580,0,0,0,1359,0,0,0,0,0,0,0,0,0,0,0,0,0,0,0,0,1356,0,0,0,0,0,1453,1391,0,0,0,0,
0,0,0,0,1511,0,1542,0,1674,1675,0,1677,1678,0,0,0,0,0,0,0,0,0,0,0,0,0,0,0,0,0,0,0,1358,0,0,1402,0,0,0,1419,
0,0,0,0,1511,0,1537,0,0,0,0,1624,1625,0,1627,1628,1694,1695,0,1697,1698,1739,1740,0,1742,1743,0,0,0,0,0,0,0,0,0,1461,1452,1452,1449,1463,
0,0,0,0,1511,0,1541,0,0,0,0,0,0,0,0,0,0,1606,0,1608,0,0,0,0,0,0,1694,1695,0,1697,1698,1606,0,1608,1674,1675,0,1677,1678,0
</data>
 </layer>
 <layer id="12" name="object" width="40" height="24">
  <data encoding="csv">
302,302,302,1151,302,302,302,302,302,302,1151,302,302,302,463,302,302,302,302,302,302,302,302,302,302,302,302,302,1151,1150,302,1150,302,302,302,302,302,302,302,302,
1594,1595,1596,0,1594,1595,1596,0,0,0,0,1594,1595,1596,0,0,1594,1595,1596,1594,1595,1596,302,302,1150,1594,1595,1596,302,1150,1158,302,302,302,0,1594,1595,1596,302,302,
302,0,0,0,0,0,0,1594,1595,1596,0,0,0,0,0,0,0,0,0,0,0,0,1594,1595,1596,0,0,0,1158,302,302,302,302,0,0,0,0,1594,1595,1596,
1594,1595,1596,0,0,0,0,0,0,0,0,1594,1595,1596,0,1594,1595,1596,0,0,0,0,0,0,0,0,1158,0,302,302,302,302,0,0,1594,1595,1596,302,302,302,
302,0,0,0,0,1594,1595,1596,0,0,0,0,0,0,0,0,0,0,0,0,0,0,0,0,0,1158,302,302,302,302,302,0,0,0,0,0,302,302,302,302,
302,0,1721,0,0,0,0,0,0,0,1696,0,0,0,0,1676,0,0,0,0,0,0,0,0,0,302,302,302,0,0,0,0,0,0,0,1158,302,302,1607,302,
302,0,0,0,0,0,1741,0,0,0,0,0,0,0,0,0,0,1189,1594,1595,1596,0,0,0,302,302,302,0,0,0,0,0,0,0,0,0,302,302,302,302,
1594,1595,1596,0,0,0,0,0,0,0,0,0,0,0,0,0,0,0,0,0,0,0,0,302,302,302,0,0,0,0,0,1607,0,0,0,0,302,302,302,302,
1150,0,0,0,0,1594,1595,1596,0,0,0,0,0,0,0,0,0,0,0,0,0,0,302,302,302,0,0,0,0,0,0,0,0,0,0,0,302,302,302,302,
464,0,0,1696,0,0,0,0,0,1189,0,0,0,0,0,463,0,0,0,0,0,302,302,302,0,0,0,0,0,0,0,0,1721,0,0,0,302,302,302,302,
463,0,0,0,0,0,0,0,0,0,0,0,0,0,0,0,0,0,0,0,302,302,302,302,0,0,0,0,0,0,0,0,0,0,302,302,302,302,302,302,
1151,1594,1595,1596,0,0,0,0,0,0,0,527,0,0,0,0,0,0,0,0,302,302,302,302,1158,0,0,0,0,0,0,0,1158,302,302,302,302,1676,302,302,
302,0,0,0,0,0,0,0,0,0,0,0,0,0,0,0,0,0,0,0,0,302,302,0,0,0,0,0,527,0,0,0,0,302,302,302,302,302,302,302,
302,1594,1595,1596,0,0,0,0,0,0,0,0,0,0,0,0,0,0,0,0,0,0,0,0,0,0,0,0,0,0,0,0,0,0,0,302,302,302,302,302,
302,0,0,0,0,0,0,0,0,0,0,0,0,0,0,0,0,0,0,0,0,0,0,0,1584,0,0,0,0,0,0,0,0,0,0,0,0,302,302,302,
1594,1595,1596,0,0,0,0,0,0,0,0,0,0,0,0,0,0,0,0,0,0,0,0,0,0,0,0,0,0,0,0,0,0,302,302,302,302,302,302,302,
1150,0,0,0,0,0,0,0,0,0,0,0,0,0,0,0,0,0,0,0,0,0,0,0,0,0,0,0,0,0,0,0,0,302,302,302,302,302,302,302,
302,0,1607,0,0,0,0,0,0,0,0,0,0,0,0,0,0,0,0,0,0,0,0,0,0,0,0,0,0,0,0,0,0,0,302,302,302,302,302,302,
302,0,0,0,0,0,0,0,0,0,0,0,0,0,0,0,0,0,0,0,0,0,0,0,0,0,0,0,0,0,0,0,0,0,302,302,302,1696,302,302,
302,0,0,0,0,0,0,0,0,0,0,1594,1595,1596,0,0,1594,1595,1596,0,1696,0,0,0,0,0,0,0,0,0,0,0,0,0,302,302,302,302,302,302,
1594,1595,1596,0,0,0,0,0,0,0,0,0,0,0,0,0,0,0,0,0,0,0,0,0,0,0,0,0,0,0,1594,1595,1596,0,0,302,302,302,302,302,
302,0,0,0,0,0,0,0,0,0,1676,0,0,0,1594,1595,1596,0,0,0,1594,1595,1596,0,0,0,0,0,0,0,0,0,0,0,0,302,302,302,302,302,
302,0,0,0,0,0,0,0,0,0,0,1150,0,1626,1150,0,0,0,1696,0,0,0,0,1741,0,1594,1595,1596,1594,1595,1596,1594,1595,1596,0,0,302,302,302,302,
1594,1595,1596,1151,0,0,0,1150,1594,1595,1596,1150,1152,527,1150,1151,1151,1151,1607,1150,1151,1151,464,1151,1152,1150,1151,1151,1696,1151,528,463,1607,1150,1151,1151,1676,1594,1595,1596
</data>
 </layer>
 <layer id="13" name="shadow_upper" width="40" height="24">
  <data encoding="csv">
0,0,0,0,0,0,0,0,0,0,0,0,0,0,0,0,0,0,0,0,0,0,0,0,0,0,0,0,0,0,0,0,0,0,0,0,0,0,0,0,
0,0,0,0,0,0,0,0,0,0,0,0,0,0,0,0,0,0,0,0,0,0,0,0,0,0,0,0,0,0,0,0,0,0,0,0,0,0,0,0,
0,0,0,0,0,0,0,0,0,0,0,0,0,0,0,0,0,0,0,0,0,0,0,0,0,0,0,0,0,0,0,0,0,0,0,0,0,0,0,0,
0,0,0,0,0,0,0,0,0,0,0,0,0,0,0,0,0,0,0,0,0,0,0,0,0,0,0,0,0,0,0,0,0,0,0,0,0,0,0,0,
0,0,0,0,0,0,0,0,0,0,0,0,0,0,0,0,0,0,0,0,0,0,0,0,0,0,0,0,0,0,0,0,0,0,0,0,0,0,0,0,
0,0,0,0,0,0,0,0,0,0,0,0,0,0,0,0,0,0,0,0,0,0,0,0,0,0,0,0,0,0,0,0,0,0,0,0,0,0,0,0,
0,0,0,0,0,0,0,0,0,0,0,0,0,0,0,0,0,0,0,0,0,0,0,0,0,0,0,0,0,0,0,0,0,0,0,0,0,0,0,0,
0,0,0,0,0,0,0,0,0,0,0,0,0,0,0,0,0,0,0,0,0,0,0,0,0,0,0,0,0,0,0,0,0,0,0,0,0,0,0,0,
0,0,0,0,0,0,0,0,0,0,0,0,0,0,0,0,0,0,0,0,0,0,0,0,0,0,0,0,0,0,0,0,0,0,0,0,0,0,0,0,
0,0,0,0,0,0,0,0,0,0,0,0,0,0,0,0,0,0,0,0,0,0,0,0,0,0,0,0,0,0,0,0,0,0,0,0,0,0,0,0,
0,0,0,0,0,0,0,0,0,0,0,0,0,0,0,0,0,0,0,0,0,0,0,0,0,0,0,0,0,0,0,0,0,0,0,0,0,0,0,0,
0,0,0,0,0,0,0,0,0,0,0,0,0,0,0,0,0,0,0,0,0,0,0,0,0,0,0,0,0,0,0,0,0,0,0,0,0,0,0,0,
0,0,0,0,0,0,0,0,0,0,0,0,0,0,0,0,0,0,0,0,0,0,0,0,0,0,0,0,0,0,0,0,0,0,0,0,0,0,0,0,
0,0,0,0,0,0,0,0,0,0,0,0,0,0,0,0,0,0,0,0,0,0,0,0,0,0,0,0,0,0,0,0,0,0,0,0,0,0,0,0,
0,0,0,0,0,0,0,0,0,0,0,0,0,0,0,0,0,0,0,0,0,0,0,0,0,0,0,0,0,0,0,0,0,0,0,0,0,0,0,0,
0,0,0,0,0,0,0,0,0,0,0,0,0,0,0,0,0,0,0,0,0,0,0,0,0,0,0,0,0,0,0,0,0,0,0,0,0,0,0,0,
0,0,0,0,0,0,0,0,0,0,0,0,0,0,0,0,0,0,0,0,0,0,0,0,0,0,0,0,0,0,0,0,0,0,0,0,0,0,0,0,
0,0,0,0,0,0,0,0,0,0,0,0,0,0,0,0,0,0,0,0,0,0,0,0,0,0,0,0,0,0,0,0,0,0,0,0,0,0,0,0,
0,0,0,0,0,0,0,0,0,0,0,0,0,0,0,0,0,0,0,0,0,0,0,0,0,0,0,0,0,0,0,0,0,0,0,0,0,0,0,0,
0,0,0,0,0,0,0,0,0,0,0,0,0,0,0,0,0,0,0,0,0,0,0,0,0,0,0,0,0,0,0,0,0,0,0,0,0,0,0,0,
0,0,0,0,0,0,0,0,0,0,0,0,0,0,0,0,0,0,0,0,0,0,0,0,0,0,0,0,0,0,0,0,0,0,0,0,0,0,0,0,
0,0,0,0,0,0,0,0,0,0,0,0,0,0,0,0,0,0,0,0,0,0,0,0,0,0,0,0,0,0,0,0,0,0,0,0,0,0,0,0,
0,0,0,0,0,0,0,0,0,0,0,0,0,0,0,0,0,0,0,0,0,0,0,0,0,0,0,0,0,0,0,0,0,0,0,0,0,0,0,0,
0,0,0,0,0,0,0,0,0,0,0,0,0,0,0,0,0,0,0,0,0,0,0,0,0,0,0,0,0,0,0,0,0,0,0,0,0,0,0,0
</data>
 </layer>
 <layer id="14" name="object_upper" width="40" height="24">
  <data encoding="csv">
1591,1592,1593,0,1591,1592,1593,1588,1589,1590,0,1591,1592,1593,0,1585,1591,1592,1593,1591,1592,1593,1588,1589,1590,1591,1592,1593,0,0,1157,0,0,0,1585,1591,1592,1593,1589,1590,
1588,1589,1590,1702,1703,1585,1586,1591,1592,1593,0,1588,1589,1590,1655,1588,1589,1590,0,0,0,0,1591,1592,1593,0,0,0,1157,0,0,0,0,0,1588,1589,1590,1591,1592,1593,
1591,1592,1593,1707,1708,1588,1589,1590,1679,1680,1681,1591,1592,1593,1660,1591,1592,1593,0,0,0,0,0,0,0,0,1157,0,0,0,0,0,0,0,1591,1592,1593,1597,1598,1599,
1709,1710,1711,1712,1713,1591,1592,1593,1684,1685,1686,1687,1688,1664,1665,1666,1667,1668,1585,1586,1587,0,0,0,0,1157,0,0,0,0,0,0,0,0,0,0,0,1600,1601,1602,
1714,1715,1716,1717,1718,1730,1731,1732,1689,1690,1691,1692,1693,1669,1670,1671,1672,1673,1588,1589,1590,0,0,0,0,0,0,0,0,0,1597,1598,1599,0,0,1157,0,1603,1604,1605,
1588,1589,1590,0,1734,1735,1736,1737,1738,0,0,0,0,0,0,0,0,0,1591,1592,1593,0,0,0,0,0,0,0,0,0,1600,1601,1602,1702,1703,0,0,0,0,0,
1591,1592,1593,1681,1682,1588,1589,1590,0,0,0,0,0,0,0,0,0,0,0,0,0,0,0,0,0,0,0,0,0,0,1603,1604,1605,1707,1708,0,0,0,0,0,
0,1684,1685,1686,1687,1591,1592,1593,0,0,0,0,0,0,0,0,0,0,0,0,0,0,0,0,0,0,0,0,0,0,1709,1710,1711,1712,1713,1654,1655,1656,1657,1658,
0,1689,1690,1691,1692,1693,0,0,0,0,0,0,0,0,0,0,0,0,0,0,0,0,0,0,0,0,0,0,0,0,1714,1715,1716,1717,1718,1659,1660,1661,1662,1663,
0,1588,1589,1590,0,0,0,0,0,0,0,0,0,0,0,0,0,0,0,0,0,0,0,0,0,0,0,0,0,0,0,0,0,0,0,1664,1665,1666,1667,1668,
0,1591,1592,1593,0,0,0,0,0,0,0,0,0,0,0,0,0,0,0,0,0,0,0,0,1157,0,0,0,0,0,0,0,1157,0,0,1669,1670,1671,1672,1673,
0,1588,1589,1590,0,0,0,0,0,0,0,0,0,0,0,0,0,0,0,0,0,0,0,0,0,0,0,0,0,0,0,0,0,0,0,0,0,0,0,0,
1585,1591,1592,1593,0,0,0,0,0,0,0,0,0,0,0,0,0,0,0,0,0,0,0,0,0,0,0,0,0,0,0,0,0,0,0,0,0,0,0,0,
1588,1589,1590,0,0,0,0,0,0,0,0,0,0,0,0,0,0,0,0,0,0,0,0,1581,1582,0,0,0,0,0,0,0,0,0,0,0,0,0,0,0,
1591,1592,1593,1599,0,0,0,0,0,0,0,0,0,0,0,0,0,0,0,0,0,0,0,0,0,0,0,0,0,0,0,0,0,0,0,0,0,0,0,0,
0,1600,1601,1602,0,0,0,0,0,0,0,0,0,0,0,0,0,0,0,0,0,0,0,0,0,0,0,0,0,0,0,0,0,0,0,1679,1680,1681,1682,1683,
0,1603,1604,1605,0,0,0,0,0,0,0,1585,1586,1587,0,0,1585,1586,1587,1680,1681,1682,1683,0,0,0,0,0,0,0,0,0,0,0,0,1684,1685,1686,1687,1688,
1585,1586,1587,0,0,0,0,0,1654,1655,1656,1588,1589,1590,0,0,1588,1589,1590,1685,1686,1687,1688,0,0,0,0,0,0,0,1585,1586,1587,0,0,1689,1690,1691,1692,1693,
1588,1589,1590,0,0,0,0,0,1659,1660,1661,1591,1592,1593,1585,1586,1591,1592,1593,1690,1691,1692,1693,0,0,0,0,0,0,0,1588,1589,1590,0,0,0,0,0,0,0,
1591,1592,1593,0,0,0,0,0,1664,1665,1666,1667,1668,1611,1588,1589,1590,1680,1681,1682,1588,1589,1590,1726,1727,1728,1586,1587,1585,1586,1591,1592,1593,1587,1654,1655,1656,1657,1658,0,
1585,1586,1587,0,0,0,0,0,1669,1670,1671,1672,1673,1616,1591,1592,1593,1685,1686,1687,1591,1592,1593,1731,1732,1733,1589,1590,1588,1589,1590,1588,1589,1590,1659,1660,1661,1662,1663,1587,
1588,1589,1590,0,0,0,0,0,1588,1589,1590,1619,1620,1621,1622,1623,1689,1690,1691,1692,1693,1734,1735,1736,1737,1738,1592,1593,1591,1592,1593,1591,1592,1593,1664,1665,1666,1667,1668,1590,
1591,1592,1593,0,0,0,0,0,1591,1592,1593,0,0,0,0,0,0,1603,1604,1605,0,0,0,0,0,0,1689,1690,1691,1692,1693,1603,1604,1605,1669,1670,1671,1672,1673,1593,
0,0,0,0,0,0,0,0,0,0,0,0,0,0,0,0,0,0,0,0,0,0,0,0,0,0,0,0,0,0,0,0,0,0,0,0,0,0,0,0
</data>
 </layer>
 <layer id="15" name="deco" width="40" height="24">
  <data encoding="csv">
1585,1586,1587,0,0,0,0,0,0,0,0,1585,1586,1587,0,0,1586,1587,0,0,0,0,0,0,0,0,0,0,0,0,0,0,0,0,0,1586,1587,1588,0,0,
1699,1700,1701,0,0,0,0,1587,0,0,0,0,0,1654,0,1656,1657,1658,0,0,0,0,0,0,0,0,0,0,0,0,0,0,0,0,0,0,0,0,0,0,
1704,1705,1706,0,0,0,0,0,0,0,0,1682,1683,1659,0,1661,1662,1663,0,0,0,0,0,0,0,0,0,0,0,0,0,0,0,0,0,0,0,0,0,0,
0,0,0,0,1724,1725,1726,1727,1728,0,0,0,0,0,0,0,0,0,0,0,0,0,0,0,0,0,0,0,0,0,0,0,0,0,0,0,0,0,0,0,
1585,1586,1587,0,1729,0,0,0,1733,0,0,0,0,0,0,0,0,0,0,0,0,0,0,0,0,0,0,0,0,0,0,0,0,0,0,0,0,0,0,0,
0,0,0,0,0,1585,1586,1587,0,0,0,0,0,0,0,0,0,0,0,0,0,0,0,0,0,0,0,0,0,0,1699,1700,1701,0,0,0,0,0,0,0,
0,1679,1680,0,0,1683,0,0,0,0,0,0,0,0,0,0,0,0,0,0,0,0,0,0,0,0,0,0,0,0,1704,1705,1706,0,0,0,0,0,0,0,
0,0,0,0,0,1688,0,0,0,0,0,0,0,0,0,0,0,0,0,0,0,0,0,0,0,0,0,0,0,0,0,0,0,0,0,0,0,0,0,0,
0,1585,1586,1587,0,0,0,0,0,0,0,0,0,0,0,0,0,0,0,0,0,0,0,0,0,0,0,0,0,0,0,0,0,0,0,0,0,0,0,0,
0,0,0,0,0,0,0,0,0,0,0,0,0,0,0,0,0,0,0,0,0,0,0,0,0,0,0,0,0,0,0,0,0,0,0,0,0,0,0,0,
0,1585,1586,1587,0,0,0,0,0,0,0,0,0,0,0,0,0,0,0,0,0,0,0,0,0,0,0,0,0,0,0,0,0,0,0,0,0,0,0,0,
0,0,0,0,0,0,0,0,0,0,0,0,0,0,0,0,0,0,0,0,0,0,0,0,0,0,0,0,0,0,0,0,0,0,0,0,0,0,0,0,
0,1586,1587,0,0,0,0,0,0,0,0,0,0,0,0,0,0,0,0,0,0,0,0,0,0,0,0,0,0,0,0,0,0,0,0,0,0,0,0,0,
0,0,0,0,0,0,0,0,0,0,0,0,0,0,0,0,0,0,0,0,0,0,0,0,0,0,0,0,0,0,0,0,0,0,0,0,0,0,0,0,
0,1597,1598,0,0,0,0,0,0,0,0,0,0,0,0,0,0,0,0,0,0,0,0,0,0,0,0,0,0,0,0,0,0,0,0,0,0,0,0,0,
0,0,0,0,0,0,0,0,0,0,0,0,0,0,0,0,0,0,0,0,0,0,0,0,0,0,0,0,0,0,0,0,0,0,0,0,0,0,0,0,
0,0,0,0,0,0,0,0,0,0,0,0,0,0,0,0,0,0,1679,0,0,0,0,0,0,0,0,0,0,0,0,0,0,0,0,0,0,0,0,0,
0,0,0,0,0,0,0,0,0,0,0,1657,1658,0,0,0,0,0,1684,0,0,0,0,0,0,0,0,0,0,0,0,0,0,0,0,0,0,0,0,0,
0,0,0,0,0,0,0,0,0,0,0,1662,1663,0,0,0,1587,0,1689,0,1585,1586,1587,0,0,0,0,0,0,0,0,0,0,0,0,0,0,0,0,0,
0,0,0,0,0,0,0,0,0,0,0,1609,1610,0,1612,1613,1679,0,0,0,1683,1724,1725,0,0,1585,0,0,0,0,1587,1585,1586,0,0,0,0,0,0,0,
0,0,0,0,0,0,0,0,1585,1586,1587,1614,1615,0,1617,1618,1684,1597,1598,1599,1688,1729,1730,0,0,1588,1679,1680,1681,1682,1683,1597,1598,1599,0,0,0,1585,1586,0,
0,0,0,0,0,0,0,0,0,0,0,0,0,0,0,0,0,1600,1601,1602,0,0,0,0,0,1591,1684,1685,1686,1687,1688,1600,1601,1602,0,0,0,1588,1589,0,
0,0,0,0,0,0,0,0,0,0,0,0,0,0,0,0,0,0,0,0,0,0,0,0,0,0,0,0,0,0,0,0,0,0,0,0,0,1591,1592,0,
0,0,0,0,0,0,0,0,0,0,0,0,0,0,0,0,0,0,0,0,0,0,0,0,0,0,0,0,0,0,0,0,0,0,0,0,0,0,0,0
</data>
 </layer>
 <layer id="16" name="roof" width="40" height="24">
  <data encoding="csv">
0,0,0,0,0,0,0,0,0,0,0,0,0,0,0,0,0,0,0,0,0,0,0,0,0,0,0,0,0,0,0,0,0,0,0,0,0,0,0,0,
0,0,0,0,0,0,0,0,0,0,0,0,0,0,0,0,0,0,0,0,0,0,0,0,0,0,0,0,0,0,0,0,0,0,0,0,0,0,0,0,
0,0,0,0,0,0,0,0,0,0,0,0,0,0,0,0,0,0,0,0,0,0,0,0,0,0,0,0,0,0,0,0,0,0,0,0,0,0,0,0,
0,0,0,0,0,0,0,0,0,0,0,0,0,0,0,0,0,0,0,0,0,0,0,0,0,0,0,0,0,0,0,0,0,0,0,0,0,0,0,0,
0,0,0,0,0,0,0,0,0,0,0,0,0,0,0,0,0,0,0,0,0,0,0,0,0,0,0,0,0,0,0,0,0,0,0,0,0,0,0,0,
0,0,0,0,0,0,0,0,0,0,0,0,0,0,0,0,0,0,0,0,0,0,0,0,0,0,0,0,0,0,0,0,0,0,0,0,0,0,0,0,
0,0,0,0,0,0,0,0,0,0,0,0,0,0,0,0,0,0,0,0,0,0,0,0,0,0,0,0,0,0,0,0,0,0,0,0,0,0,0,0,
0,0,0,0,0,0,0,0,0,0,0,0,0,0,0,0,0,0,0,0,0,0,0,0,0,0,0,0,0,0,0,0,0,0,0,0,0,0,0,0,
0,0,0,0,0,0,0,0,0,0,0,0,0,0,0,0,0,0,0,0,0,0,0,0,0,0,0,0,0,0,0,0,0,0,0,0,0,0,0,0,
0,0,0,0,0,0,0,0,0,0,0,0,0,0,0,0,0,0,0,0,0,0,0,0,0,0,0,0,0,0,0,0,0,0,0,0,0,0,0,0,
0,0,0,0,0,0,0,0,0,0,0,0,0,0,0,0,0,0,0,0,0,0,0,0,0,0,0,0,0,0,0,0,0,0,0,0,0,0,0,0,
0,0,0,0,0,0,0,0,0,0,0,0,0,0,0,0,0,0,0,0,0,0,0,0,0,0,0,0,0,0,0,0,0,0,0,0,0,0,0,0,
0,0,0,0,0,0,0,0,0,0,0,0,0,0,0,0,0,0,0,0,0,0,0,0,0,0,0,0,0,0,0,0,0,0,0,0,0,0,0,0,
0,0,0,0,0,0,0,0,0,0,0,0,0,0,0,0,0,0,0,0,0,0,0,0,0,0,0,0,0,0,0,0,0,0,0,0,0,0,0,0,
0,0,0,0,0,0,0,0,0,0,0,0,0,0,0,0,0,0,0,0,0,0,0,0,0,0,0,0,0,0,0,0,0,0,0,0,0,0,0,0,
0,0,0,0,0,0,0,0,0,0,0,0,0,0,0,0,0,0,0,0,0,0,0,0,0,0,0,0,0,0,0,0,0,0,0,0,0,0,0,0,
0,0,0,0,0,0,0,0,0,0,0,0,0,0,0,0,0,0,0,0,0,0,0,0,0,0,0,0,0,0,0,0,0,0,0,0,0,0,0,0,
0,0,0,0,0,0,0,0,0,0,0,0,0,0,0,0,0,0,0,0,0,0,0,0,0,0,0,0,0,0,0,0,0,0,0,0,0,0,0,0,
0,0,0,0,0,0,0,0,0,0,0,0,0,0,0,0,0,0,0,0,0,0,0,0,0,0,0,0,0,0,0,0,0,0,0,0,0,0,0,0,
0,0,0,0,0,0,0,0,0,0,0,0,0,0,0,0,0,0,0,0,0,0,0,0,0,0,0,0,0,0,0,0,0,0,0,0,0,0,0,0,
0,0,0,0,0,0,0,0,0,0,0,0,0,0,0,0,0,0,0,0,0,0,0,0,0,0,0,0,0,0,0,0,0,0,0,0,0,0,0,0,
0,0,0,0,0,0,0,0,0,0,0,0,0,0,0,0,0,0,0,0,0,0,0,0,0,0,0,0,0,0,0,0,0,0,0,0,0,0,0,0,
0,0,0,0,0,0,0,0,0,0,0,0,0,0,0,0,0,0,0,0,0,0,0,0,0,0,0,0,0,0,0,0,0,0,0,0,0,0,0,0,
0,0,0,0,0,0,0,0,0,0,0,0,0,0,0,0,0,0,0,0,0,0,0,0,0,0,0,0,0,0,0,0,0,0,0,0,0,0,0,0
</data>
 </layer>
 <objectgroup id="2" name="characters">
  <!-- 룬 비석(sunken_stele, c2-01 조사 목표), 갈대골 표지판, 아치 표지판, 메워진 구멍(sink_refilled, q025 후) / 늪뱀 4(Lv16~17), 식인 꽃 3(Lv17~18, 제자리) -->
  <object id="20" name="늪뱀-1" type="character" x="432" y="384" width="32" height="32">
   <properties>
    <property name="blocksMovement" type="bool" value="true"/>
    <property name="monster.level" type="int" value="16"/>
    <property name="type" value="monster_snake"/>
   </properties>
  </object>
  <object id="21" name="늪뱀-2" type="character" x="208" y="480" width="32" height="32">
   <properties>
    <property name="blocksMovement" type="bool" value="true"/>
    <property name="monster.level" type="int" value="16"/>
    <property name="type" value="monster_snake"/>
   </properties>
  </object>
  <object id="22" name="늪뱀-3" type="character" x="880" y="352" width="32" height="32">
   <properties>
    <property name="blocksMovement" type="bool" value="true"/>
    <property name="monster.level" type="int" value="17"/>
    <property name="type" value="monster_snake"/>
   </properties>
  </object>
  <object id="23" name="늪뱀-4" type="character" x="912" y="608" width="32" height="32">
   <properties>
    <property name="blocksMovement" type="bool" value="true"/>
    <property name="monster.level" type="int" value="17"/>
    <property name="type" value="monster_snake"/>
   </properties>
  </object>
  <object id="24" name="식인 꽃-1" type="character" x="592" y="480" width="32" height="32">
   <properties>
    <property name="blocksMovement" type="bool" value="true"/>
    <property name="monster.level" type="int" value="17"/>
    <property name="type" value="monster_flower"/>
   </properties>
  </object>
  <object id="25" name="식인 꽃-2" type="character" x="1008" y="480" width="32" height="32">
   <properties>
    <property name="blocksMovement" type="bool" value="true"/>
    <property name="monster.level" type="int" value="18"/>
    <property name="type" value="monster_flower"/>
   </properties>
  </object>
  <object id="26" name="식인 꽃-3" type="character" x="880" y="256" width="32" height="32">
   <properties>
    <property name="blocksMovement" type="bool" value="true"/>
    <property name="monster.level" type="int" value="17"/>
    <property name="type" value="monster_flower"/>
   </properties>
  </object>
  <object id="1" name="sunken_stele" type="character" x="752" y="480" width="32" height="32">
   <properties>
    <property name="blocksMovement" type="bool" value="true"/>
    <property name="controller.dialogueLines" type="list">
     <item value="물가에 반쯤 잠긴 돌 비석이다."/>
     <item value="이끼 사이로 낯선 글자가 희미하게 빛나고 있다."/>
    </property>
    <property name="controller.scriptId" value="vn-dialogue"/>
    <property name="type" value="swamp_stele_r1c0"/>
   </properties>
  </object>
  <object id="2" name="reed_valley_sign" type="character" x="1104" y="448" width="32" height="32">
   <properties>
    <property name="type" value="sign_inn"/>
    <property name="blocksMovement" type="bool" value="false"/>
    <property name="displayText" value="갈대골 나루 →"/>
   </properties>
  </object>
  <object id="3" name="aqueduct_sign" type="character" x="240" y="704" width="32" height="32">
   <properties>
    <property name="type" value="sign_inn"/>
    <property name="blocksMovement" type="bool" value="false"/>
    <property name="displayText" value="물레골 ↓"/>
   </properties>
  </object>
  <object id="4" name="sink_refilled_0" type="character" x="688" y="352" width="32" height="32">
   <properties>
    <property name="blocksMovement" type="bool" value="false"/>
    <property name="quest.requiresCompleted" value="q025-swamp-priest"/>
    <property name="type" value="cave_fill_Water_00"/>
   </properties>
  </object>
  <object id="5" name="sink_refilled_1" type="character" x="720" y="352" width="32" height="32">
   <properties>
    <property name="blocksMovement" type="bool" value="false"/>
    <property name="quest.requiresCompleted" value="q025-swamp-priest"/>
    <property name="type" value="cave_fill_Water_00"/>
   </properties>
  </object>
  <object id="6" name="sink_refilled_2" type="character" x="688" y="384" width="32" height="32">
   <properties>
    <property name="blocksMovement" type="bool" value="false"/>
    <property name="quest.requiresCompleted" value="q025-swamp-priest"/>
    <property name="type" value="cave_fill_Water_00"/>
   </properties>
  </object>
  <object id="7" name="sink_refilled_3" type="character" x="720" y="384" width="32" height="32">
   <properties>
    <property name="blocksMovement" type="bool" value="false"/>
    <property name="quest.requiresCompleted" value="q025-swamp-priest"/>
    <property name="type" value="cave_fill_Water_00"/>
   </properties>
  </object>
  <object id="8" name="herb_patch_3" type="character" x="400" y="192" width="32" height="32">
   <properties>
    <property name="blocksMovement" type="bool" value="true"/>
    <property name="controller.dialogueLines" type="list">
     <item value="개울가 그늘에 하얀 꽃을 단 약초가 몇 포기 자라 있다."/>
    </property>
    <property name="controller.scriptId" value="vn-dialogue"/>
    <property name="displayText" value="개울 약초"/>
    <property name="type" value="cave_prop_glow_plant_a"/>
   </properties>
  </object>
 </objectgroup>
 <objectgroup id="3" name="portals">
  <!-- 아치 → 물레골 수문 아래 (12, 5). 물레골 쪽 포탈(upstream_gate)은 이 맵의 도착 칸 (5, 21) 을 들고 있다. -->
  <object id="10" name="aqueduct_gate" type="portal" x="128" y="736" width="96" height="32">
   <properties>
    <property name="appearanceType" value="stairs_stone_step_base_00"/>
    <property name="targetFacing" value="down"/>
    <property name="targetSceneId" value="harvest-village"/>
    <property name="targetSpawnTileX" type="int" value="12"/>
    <property name="targetSpawnTileY" type="int" value="5"/>
   </properties>
  </object>
  <object id="11" name="reed_ferry" type="portal" x="1152" y="448" width="32" height="32">
   <properties>
    <property name="appearanceType" value="swamp_raft"/>
    <property name="quest.requiresCompleted" value="q016-vanishing-water"/>
    <property name="targetFacing" value="right"/>
    <property name="targetSceneId" value="reed-village"/>
    <property name="targetSpawnTileX" type="int" value="3"/>
    <property name="targetSpawnTileY" type="int" value="17"/>
   </properties>
  </object>
 </objectgroup>
</map>
